; G-Code generated by Simplify3D(R) Version 4.0.0
; Feb 12, 2018 at 6:16:10 PM
; Settings Summary
;   processName,Process1
;   applyToModels,generic_holder,big_file_adapter
;   profileName,Original Prusa i3 MK2 RC4 (modified)
;   profileVersion,2016-08-30 14:21:19
;   baseProfile,Prusa Mendel (modified)
;   printMaterial,PLA
;   printQuality,FAST 0.3mm
;   printExtruders,
;   extruderName,Primary Extruder
;   extruderToolheadNumber,0
;   extruderDiameter,0.4
;   extruderAutoWidth,0
;   extruderWidth,0.45
;   extrusionMultiplier,1
;   extruderUseRetract,1
;   extruderRetractionDistance,0.8
;   extruderExtraRestartDistance,0
;   extruderRetractionZLift,0
;   extruderRetractionSpeed,1800
;   extruderUseCoasting,1
;   extruderCoastingDistance,0.2
;   extruderUseWipe,1
;   extruderWipeDistance,2
;   primaryExtruder,0
;   layerHeight,0.3
;   topSolidLayers,3
;   bottomSolidLayers,3
;   perimeterOutlines,2
;   printPerimetersInsideOut,1
;   startPointOption,2
;   startPointOriginX,0
;   startPointOriginY,0
;   sequentialIslands,0
;   spiralVaseMode,0
;   firstLayerHeightPercentage,66
;   firstLayerWidthPercentage,95
;   firstLayerUnderspeed,0.6
;   useRaft,1
;   raftExtruder,0
;   raftTopLayers,3
;   raftBaseLayers,2
;   raftOffset,3
;   raftSeparationDistance,0.25
;   raftTopInfill,100
;   aboveRaftSpeedMultiplier,0.3
;   useSkirt,1
;   skirtExtruder,0
;   skirtLayers,1
;   skirtOutlines,1
;   skirtOffset,1.8
;   usePrimePillar,0
;   primePillarExtruder,999
;   primePillarWidth,12
;   primePillarLocation,7
;   primePillarSpeedMultiplier,1
;   useOozeShield,0
;   oozeShieldExtruder,999
;   oozeShieldOffset,2
;   oozeShieldOutlines,1
;   oozeShieldSidewallShape,1
;   oozeShieldSidewallAngle,30
;   oozeShieldSpeedMultiplier,1
;   infillExtruder,0
;   internalInfillPattern,Grid
;   externalInfillPattern,Rectilinear
;   infillPercentage,20
;   outlineOverlapPercentage,21
;   infillExtrusionWidthPercentage,100
;   minInfillLength,2
;   infillLayerInterval,1
;   internalInfillAngles,45,-45
;   overlapInternalInfillAngles,1
;   externalInfillAngles,45,-45
;   generateSupport,0
;   supportExtruder,0
;   supportInfillPercentage,30
;   supportExtraInflation,1.4
;   supportBaseLayers,0
;   denseSupportExtruder,0
;   denseSupportLayers,0
;   denseSupportInfillPercentage,70
;   supportLayerInterval,1
;   supportHorizontalPartOffset,0.2
;   supportUpperSeparationLayers,1
;   supportLowerSeparationLayers,1
;   supportType,0
;   supportGridSpacing,4
;   maxOverhangAngle,45
;   supportAngles,0
;   temperatureName,Primary Extruder,Heated Bed
;   temperatureNumber,0,1
;   temperatureSetpointCount,2,1
;   temperatureSetpointLayers,1,2,1
;   temperatureSetpointTemperatures,215,200,55
;   temperatureStabilizeAtStartup,1,1
;   temperatureHeatedBed,0,1
;   temperatureRelayBetweenLayers,0,0
;   temperatureRelayBetweenLoops,0,0
;   fanLayers,1,2
;   fanSpeeds,0,100
;   blipFanToFullPower,1
;   adjustSpeedForCooling,1
;   minSpeedLayerTime,15
;   minCoolingSpeedSlowdown,5
;   increaseFanForCooling,0
;   minFanLayerTime,45
;   maxCoolingFanSpeed,100
;   increaseFanForBridging,1
;   bridgingFanSpeed,100
;   use5D,1
;   relativeEdistances,1
;   allowEaxisZeroing,1
;   independentExtruderAxes,0
;   includeM10123,0
;   stickySupport,1
;   applyToolheadOffsets,0
;   gcodeXoffset,0
;   gcodeYoffset,0
;   gcodeZoffset,0
;   overrideMachineDefinition,1
;   machineTypeOverride,0
;   strokeXoverride,250
;   strokeYoverride,210
;   strokeZoverride,200
;   originOffsetXoverride,0
;   originOffsetYoverride,0
;   originOffsetZoverride,0
;   homeXdirOverride,-1
;   homeYdirOverride,-1
;   homeZdirOverride,-1
;   flipXoverride,1
;   flipYoverride,-1
;   flipZoverride,1
;   toolheadOffsets,0,0|0,0|0,0|0,0|0,0|0,0
;   overrideFirmwareConfiguration,0
;   firmwareTypeOverride,RepRap (Marlin/Repetier/Sprinter)
;   GPXconfigOverride,r2
;   baudRateOverride,250000
;   overridePrinterModels,1
;   printerModelsOverride
;   startingGcode,M115 U3.0.7 ; tell the printer latest firmware varsion available,G28 W ; home all without mesh bed level,G80 ; mesh bed leveling,G1 Y-3.0 F1000.0 ; go outside printing area,G1 X60.0 E9.0  F1000.0 ; intro line,G1 X100.0 E12.5  F1000.0 ; intro line
;   layerChangeGcode,
;   retractionGcode,
;   toolChangeGcode,
;   endingGcode,M104 S0 ; turn off temperature,M140 S0 ; turn off heatbed,M107 ; turn off fan,G1 X0 Y200; home X axis,M84 ; disable motors
;   exportFileFormat,gcode
;   celebration,0
;   celebrationSong,Random Song
;   postProcessing,{REPLACE "; outer perimeter\n" "; outer perimeter\nM204 S600\n"},{REPLACE "; inner perimeter\n" "; inner perimeter\nM204 S1200\n"},{REPLACE "; solid layer\n" "; solid layer\nM204 S1500\n"},{REPLACE "; infill\n" "; infill\nM204 S2000\n"}
;   defaultSpeed,2400
;   outlineUnderspeed,1
;   solidInfillUnderspeed,0.8
;   supportUnderspeed,0.8
;   rapidXYspeed,4800
;   rapidZspeed,1000
;   minBridgingArea,50
;   bridgingExtraInflation,1
;   bridgingExtrusionMultiplier,1
;   bridgingSpeedMultiplier,1
;   useFixedBridgingAngle,0
;   fixedBridgingAngle,0
;   applyBridgingToPerimeters,0
;   filamentDiameters,1.75|1.75|1.75|1.75|1.75|1.75
;   filamentPricesPerKg,215|215|215|215|215|215
;   filamentDensities,1.25|1.25|1.25|1.25|1.25|1.25
;   useMinPrintHeight,0
;   minPrintHeight,0
;   useMaxPrintHeight,0
;   maxPrintHeight,35
;   useDiaphragm,0
;   diaphragmLayerInterval,20
;   robustSlicing,1
;   mergeAllIntoSolid,0
;   onlyRetractWhenCrossingOutline,0
;   retractBetweenLayers,1
;   useRetractionMinTravel,1
;   retractionMinTravel,3
;   retractWhileWiping,1
;   onlyWipeOutlines,1
;   avoidCrossingOutline,0
;   maxMovementDetourFactor,3
;   toolChangeRetractionDistance,12
;   toolChangeExtraRestartDistance,-0.5
;   toolChangeRetractionSpeed,600
;   externalThinWallType,0
;   internalThinWallType,2
;   thinWallAllowedOverlapPercentage,25
;   singleExtrusionMinLength,1
;   singleExtrusionMinPrintingWidthPercentage,50
;   singleExtrusionMaxPrintingWidthPercentage,200
;   singleExtrusionEndpointExtension,0.2
;   horizontalSizeCompensation,0
G90
M83
M106 S255
G4 P500
M106 S0
M140 S55
M190 S55
M104 S215 T0
M109 S215 T0
M115 U3.0.7 ; tell the printer latest firmware varsion available
G28 W ; home all without mesh bed level
G80 ; mesh bed leveling
G1 Y-3.0 F1000.0 ; go outside printing area
G1 X60.0 E9.0  F1000.0 ; intro line
G1 X100.0 E12.5  F1000.0 ; intro line
G1 E-0.8000 F1800
G1 Z0.330 F1000
; process Process1
; layer 1, Z = 0.330
T0
; tool H0.500 W0.428
; skirt
G1 X95.009 Y65.384 F4800
G1 E0.8000 F540
G1 X97.884 Y62.509 E0.3613 F1440
G1 X97.967 Y62.475 E0.0080
G1 X105.033 Y62.475 E0.6279
G1 X105.116 Y62.509 E0.0080
G1 X107.991 Y65.384 E0.3613
G1 X108.025 Y65.467 E0.0080
G1 X108.025 Y100.369 E3.1016
G1 X116.763 Y91.631 E1.0982
G1 X116.897 Y91.604 E0.0121
G1 X119.975 Y92.879 E0.2961
G1 X119.975 Y65.467 E2.4360
G1 X120.009 Y65.384 E0.0080
G1 X122.884 Y62.509 E0.3613
G1 X122.967 Y62.475 E0.0080
G1 X177.033 Y62.475 E4.8047
G1 X177.116 Y62.509 E0.0080
G1 X179.991 Y65.384 E0.3613
G1 X180.025 Y65.467 E0.0080
G1 X180.025 Y144.533 E7.0263
G1 X179.991 Y144.616 E0.0080
G1 X177.116 Y147.491 E0.3613
G1 X177.033 Y147.525 E0.0080
G1 X122.967 Y147.525 E4.8047
G1 X122.884 Y147.491 E0.0080
G1 X121.500 Y146.106 E0.1740
G1 X120.116 Y147.491 E0.1740
G1 X120.033 Y147.525 E0.0080
G1 X97.967 Y147.525 E1.9609
G1 X97.884 Y147.491 E0.0080
G1 X95.009 Y144.616 E0.3613
G1 X94.975 Y144.533 E0.0080
G1 X94.975 Y65.578 E7.0165
G1 X94.975 Y65.467 F1440
G1 X95.009 Y65.384 F1440
; tool H0.500 W0.760
; raft
G1 X97.400 Y66.423 F4800
G1 X98.923 Y64.900 E0.3403 F360
G1 X104.077 Y64.900 E0.8142
G1 X105.600 Y66.423 E0.3403
G1 X105.600 Y105.525 E6.1775
G1 X106.094 Y105.729 E0.0844
G1 X117.390 Y94.433 E2.5238
G1 X120.600 Y95.763 E0.5489
G1 X120.600 Y143.577 E7.5540
G1 X119.077 Y145.100 E0.3403
G1 X98.923 Y145.100 E3.1840
G1 X97.400 Y143.577 E0.3403
G1 X97.400 Y66.623 E12.1576
G1 X97.400 Y66.423 F360
G1 E-0.8000 F1800
G1 X122.400 Y66.423 F4800
G1 E0.8000 F1800
G1 X123.923 Y64.900 E0.3403 F360
G1 X176.077 Y64.900 E8.2396
G1 X177.600 Y66.423 E0.3403
G1 X177.600 Y143.577 E12.1892
G1 X176.077 Y145.100 E0.3403
G1 X123.923 Y145.100 E8.2396
G1 X122.400 Y143.577 E0.3403
G1 X122.400 Y66.623 E12.1576
G1 X122.400 Y66.423 F360
G1 X123.812 Y66.143 F4800
G1 X176.188 Y66.143 E8.2748 F360
G1 X176.800 Y66.754 E0.1366
G1 X176.800 Y68.429 E0.2645
G1 X123.200 Y68.429 E8.4680
G1 X123.200 Y70.714 E0.3611
G1 X176.800 Y70.714 E8.4680
G1 X176.800 Y73.000 E0.3611
G1 X123.200 Y73.000 E8.4680
G1 X123.200 Y75.286 E0.3611
G1 X176.800 Y75.286 E8.4680
G1 X176.800 Y77.571 E0.3611
G1 X123.200 Y77.571 E8.4680
G1 X123.200 Y79.857 E0.3611
G1 X176.800 Y79.857 E8.4680
G1 X176.800 Y82.143 E0.3611
G1 X123.200 Y82.143 E8.4680
G1 X123.200 Y84.429 E0.3611
G1 X176.800 Y84.429 E8.4680
G1 X176.800 Y86.714 E0.3611
G1 X123.200 Y86.714 E8.4680
G1 X123.200 Y89.000 E0.3611
G1 X176.800 Y89.000 E8.4680
G1 X176.800 Y91.286 E0.3611
G1 X123.200 Y91.286 E8.4680
G1 X123.200 Y93.571 E0.3611
G1 X176.800 Y93.571 E8.4680
G1 X176.800 Y95.857 E0.3611
G1 X123.200 Y95.857 E8.4680
G1 X123.200 Y98.143 E0.3611
G1 X176.800 Y98.143 E8.4680
G1 X176.800 Y100.429 E0.3611
G1 X123.200 Y100.429 E8.4680
G1 X123.200 Y102.714 E0.3611
G1 X176.800 Y102.714 E8.4680
G1 X176.800 Y105.000 E0.3611
G1 X123.200 Y105.000 E8.4680
G1 X123.200 Y107.286 E0.3611
G1 X176.800 Y107.286 E8.4680
G1 X176.800 Y109.571 E0.3611
G1 X123.200 Y109.571 E8.4680
G1 X123.200 Y111.857 E0.3611
G1 X176.800 Y111.857 E8.4680
G1 X176.800 Y114.143 E0.3611
G1 X123.200 Y114.143 E8.4680
G1 X123.200 Y116.429 E0.3611
G1 X176.800 Y116.429 E8.4680
G1 X176.800 Y118.714 E0.3611
G1 X123.200 Y118.714 E8.4680
G1 X123.200 Y121.000 E0.3611
G1 X176.800 Y121.000 E8.4680
G1 X176.800 Y123.286 E0.3611
G1 X123.200 Y123.286 E8.4680
G1 X123.200 Y125.571 E0.3611
G1 X176.800 Y125.571 E8.4680
G1 X176.800 Y127.857 E0.3611
G1 X123.200 Y127.857 E8.4680
G1 X123.200 Y130.143 E0.3611
G1 X176.800 Y130.143 E8.4680
G1 X176.800 Y132.429 E0.3611
G1 X123.200 Y132.429 E8.4680
G1 X123.200 Y134.714 E0.3611
G1 X176.800 Y134.714 E8.4680
G1 X176.800 Y137.000 E0.3611
G1 X123.200 Y137.000 E8.4680
G1 X123.200 Y139.286 E0.3611
G1 X176.800 Y139.286 E8.4680
G1 X176.800 Y141.571 E0.3611
G1 X123.200 Y141.571 E8.4680
G1 X123.200 Y143.246 E0.2645
G1 X123.812 Y143.857 E0.1366
G1 X175.988 Y143.857 E8.2432
G1 X176.188 Y143.857 F360
G1 E-0.8000 F1800
G1 X119.188 Y143.857 F4800
G1 E0.8000 F1800
G1 X98.812 Y143.857 E3.2193 F360
G1 X98.200 Y143.246 E0.1366
G1 X98.200 Y141.571 E0.2645
G1 X119.800 Y141.571 E3.4125
G1 X119.800 Y139.286 E0.3611
G1 X98.200 Y139.286 E3.4125
G1 X98.200 Y137.000 E0.3611
G1 X119.800 Y137.000 E3.4125
G1 X119.800 Y134.714 E0.3611
G1 X98.200 Y134.714 E3.4125
G1 X98.200 Y132.429 E0.3611
G1 X119.800 Y132.429 E3.4125
G1 X119.800 Y130.143 E0.3611
G1 X98.200 Y130.143 E3.4125
G1 X98.200 Y127.857 E0.3611
G1 X119.800 Y127.857 E3.4125
G1 X119.800 Y125.571 E0.3611
G1 X98.200 Y125.571 E3.4125
G1 X98.200 Y123.286 E0.3611
G1 X119.800 Y123.286 E3.4125
G1 X119.800 Y121.000 E0.3611
G1 X98.200 Y121.000 E3.4125
G1 X98.200 Y118.714 E0.3611
G1 X119.800 Y118.714 E3.4125
G1 X119.800 Y116.429 E0.3611
G1 X98.200 Y116.429 E3.4125
G1 X98.200 Y114.143 E0.3611
G1 X119.800 Y114.143 E3.4125
G1 X119.800 Y111.857 E0.3611
G1 X98.200 Y111.857 E3.4125
G1 X98.200 Y109.571 E0.3611
G1 X119.800 Y109.571 E3.4125
G1 X119.800 Y107.286 E0.3611
G1 X98.200 Y107.286 E3.4125
G1 X98.200 Y105.000 E0.3611
G1 X104.800 Y105.000 E1.0427
G1 X104.800 Y102.714 E0.3611
G1 X98.200 Y102.714 E1.0427
G1 X98.200 Y100.429 E0.3611
G1 X104.800 Y100.429 E1.0427
G1 X104.800 Y98.143 E0.3611
G1 X98.200 Y98.143 E1.0427
G1 X98.200 Y95.857 E0.3611
G1 X104.800 Y95.857 E1.0427
G1 X104.800 Y93.571 E0.3611
G1 X98.200 Y93.571 E1.0427
G1 X98.200 Y91.286 E0.3611
G1 X104.800 Y91.286 E1.0427
G1 X104.800 Y89.000 E0.3611
G1 X98.200 Y89.000 E1.0427
G1 X98.200 Y86.714 E0.3611
G1 X104.800 Y86.714 E1.0427
G1 X104.800 Y84.429 E0.3611
G1 X98.200 Y84.429 E1.0427
G1 X98.200 Y82.143 E0.3611
G1 X104.800 Y82.143 E1.0427
G1 X104.800 Y79.857 E0.3611
G1 X98.200 Y79.857 E1.0427
G1 X98.200 Y77.571 E0.3611
G1 X104.800 Y77.571 E1.0427
G1 X104.800 Y75.286 E0.3611
G1 X98.200 Y75.286 E1.0427
G1 X98.200 Y73.000 E0.3611
G1 X104.800 Y73.000 E1.0427
G1 X104.800 Y70.714 E0.3611
G1 X98.200 Y70.714 E1.0427
G1 X98.200 Y68.429 E0.3611
G1 X104.800 Y68.429 E1.0427
G1 X104.800 Y66.754 E0.2645
G1 X104.188 Y66.143 E0.1366
G1 X99.012 Y66.143 E0.8179
G1 X98.812 Y66.143 F360
G1 E-0.8000 F1800
G1 X117.097 Y95.857 F4800
G1 E0.8000 F1800
G1 X118.737 Y95.857 E0.2591 F360
G1 X119.800 Y96.297 E0.1817
G1 X119.800 Y98.143 E0.2916
G1 X114.812 Y98.143 E0.7881
G1 X112.526 Y100.429 E0.5107
G1 X119.800 Y100.429 E1.1492
G1 X119.800 Y102.714 E0.3611
G1 X110.240 Y102.714 E1.5103
G1 X107.954 Y105.000 E0.5107
G1 X119.600 Y105.000 E1.8398
G1 X119.800 Y105.000 F360
G1 E-0.8000 F1800
; layer 2, Z = 0.830
M104 S200 T0
M106 S255
; tool H0.500 W0.800
G1 X120.600 Y95.763 F4800
G1 Z0.830 F1000
G1 E0.8000 F1800
G1 X120.600 Y143.577 E7.9515 F600
G1 X119.077 Y145.100 E0.3582
G1 X98.923 Y145.100 E3.3516
G1 X97.400 Y143.577 E0.3582
G1 X97.400 Y66.423 E12.8307
G1 X98.923 Y64.900 E0.3582
G1 X104.077 Y64.900 E0.8571
G1 X105.600 Y66.423 E0.3582
G1 X105.600 Y105.525 E6.5026
G1 X106.094 Y105.729 E0.0889
G1 X117.390 Y94.433 E2.6567
G1 X120.415 Y95.686 E0.5446
G1 X120.600 Y95.763 F600
G1 E-0.8000 F1800
G1 X122.400 Y66.423 F4800
G1 E0.8000 F1800
G1 X123.923 Y64.900 E0.3582 F600
G1 X176.077 Y64.900 E8.6732
G1 X177.600 Y66.423 E0.3582
G1 X177.600 Y143.577 E12.8307
G1 X176.077 Y145.100 E0.3582
G1 X123.923 Y145.100 E8.6732
G1 X122.400 Y143.577 E0.3582
G1 X122.400 Y66.623 E12.7975
G1 X122.400 Y66.423 F600
G1 X123.812 Y66.143 F4800
G1 X176.188 Y66.143 E8.7103 F600
G1 X176.800 Y66.754 E0.1438
G1 X176.800 Y68.429 E0.2784
G1 X123.200 Y68.429 E8.9137
G1 X123.200 Y70.714 E0.3801
G1 X176.800 Y70.714 E8.9137
G1 X176.800 Y73.000 E0.3801
G1 X123.200 Y73.000 E8.9137
G1 X123.200 Y75.286 E0.3801
G1 X176.800 Y75.286 E8.9137
G1 X176.800 Y77.571 E0.3801
G1 X123.200 Y77.571 E8.9137
G1 X123.200 Y79.857 E0.3801
G1 X176.800 Y79.857 E8.9137
G1 X176.800 Y82.143 E0.3801
G1 X123.200 Y82.143 E8.9137
G1 X123.200 Y84.429 E0.3801
G1 X176.800 Y84.429 E8.9137
G1 X176.800 Y86.714 E0.3801
G1 X123.200 Y86.714 E8.9137
G1 X123.200 Y89.000 E0.3801
G1 X176.800 Y89.000 E8.9137
G1 X176.800 Y91.286 E0.3801
G1 X123.200 Y91.286 E8.9137
G1 X123.200 Y93.571 E0.3801
G1 X176.800 Y93.571 E8.9137
G1 X176.800 Y95.857 E0.3801
G1 X123.200 Y95.857 E8.9137
G1 X123.200 Y98.143 E0.3801
G1 X176.800 Y98.143 E8.9137
G1 X176.800 Y100.429 E0.3801
G1 X123.200 Y100.429 E8.9137
G1 X123.200 Y102.714 E0.3801
G1 X176.800 Y102.714 E8.9137
G1 X176.800 Y105.000 E0.3801
G1 X123.200 Y105.000 E8.9137
G1 X123.200 Y107.286 E0.3801
G1 X176.800 Y107.286 E8.9137
G1 X176.800 Y109.571 E0.3801
G1 X123.200 Y109.571 E8.9137
G1 X123.200 Y111.857 E0.3801
G1 X176.800 Y111.857 E8.9137
G1 X176.800 Y114.143 E0.3801
G1 X123.200 Y114.143 E8.9137
G1 X123.200 Y116.429 E0.3801
G1 X176.800 Y116.429 E8.9137
G1 X176.800 Y118.714 E0.3801
G1 X123.200 Y118.714 E8.9137
G1 X123.200 Y121.000 E0.3801
G1 X176.800 Y121.000 E8.9137
G1 X176.800 Y123.286 E0.3801
G1 X123.200 Y123.286 E8.9137
G1 X123.200 Y125.571 E0.3801
G1 X176.800 Y125.571 E8.9137
G1 X176.800 Y127.857 E0.3801
G1 X123.200 Y127.857 E8.9137
G1 X123.200 Y130.143 E0.3801
G1 X176.800 Y130.143 E8.9137
G1 X176.800 Y132.429 E0.3801
G1 X123.200 Y132.429 E8.9137
G1 X123.200 Y134.714 E0.3801
G1 X176.800 Y134.714 E8.9137
G1 X176.800 Y137.000 E0.3801
G1 X123.200 Y137.000 E8.9137
G1 X123.200 Y139.286 E0.3801
G1 X176.800 Y139.286 E8.9137
G1 X176.800 Y141.571 E0.3801
G1 X123.200 Y141.571 E8.9137
G1 X123.200 Y143.246 E0.2784
G1 X123.812 Y143.857 E0.1438
G1 X175.988 Y143.857 E8.6770
G1 X176.188 Y143.857 F600
G1 E-0.8000 F1800
G1 X119.188 Y143.857 F4800
G1 E0.8000 F1800
G1 X98.812 Y143.857 E3.3887 F600
G1 X98.200 Y143.246 E0.1438
G1 X98.200 Y141.571 E0.2784
G1 X119.800 Y141.571 E3.5921
G1 X119.800 Y139.286 E0.3801
G1 X98.200 Y139.286 E3.5921
G1 X98.200 Y137.000 E0.3801
G1 X119.800 Y137.000 E3.5921
