; G-Code generated by Simplify3D(R) Version 4.0.0
; Mar 20, 2018 at 1:52:46 PM
; Settings Summary
;   processName,mk2-rc4
;   applyToModels,brush_holder,brush_adapter
;   profileName,Original Prusa i3 MK2 RC4 (modified)
;   profileVersion,2018-03-09 10:42:50
;   baseProfile,Prusa Mendel (modified)
;   printMaterial,PLA
;   printQuality,FAST 0.3mm
;   printExtruders,
;   extruderName,Primary Extruder
;   extruderToolheadNumber,0
;   extruderDiameter,0.4
;   extruderAutoWidth,0
;   extruderWidth,0.45
;   extrusionMultiplier,1
;   extruderUseRetract,1
;   extruderRetractionDistance,0.8
;   extruderExtraRestartDistance,0
;   extruderRetractionZLift,0
;   extruderRetractionSpeed,1800
;   extruderUseCoasting,1
;   extruderCoastingDistance,0.2
;   extruderUseWipe,1
;   extruderWipeDistance,2
;   primaryExtruder,0
;   layerHeight,0.3
;   topSolidLayers,3
;   bottomSolidLayers,3
;   perimeterOutlines,2
;   printPerimetersInsideOut,1
;   startPointOption,2
;   startPointOriginX,0
;   startPointOriginY,0
;   sequentialIslands,0
;   spiralVaseMode,0
;   firstLayerHeightPercentage,66
;   firstLayerWidthPercentage,95
;   firstLayerUnderspeed,0.6
;   useRaft,1
;   raftExtruder,0
;   raftTopLayers,3
;   raftBaseLayers,2
;   raftOffset,3
;   raftSeparationDistance,0.14
;   raftTopInfill,100
;   aboveRaftSpeedMultiplier,0.3
;   useSkirt,1
;   skirtExtruder,0
;   skirtLayers,1
;   skirtOutlines,1
;   skirtOffset,1.8
;   usePrimePillar,0
;   primePillarExtruder,999
;   primePillarWidth,12
;   primePillarLocation,7
;   primePillarSpeedMultiplier,1
;   useOozeShield,0
;   oozeShieldExtruder,999
;   oozeShieldOffset,2
;   oozeShieldOutlines,1
;   oozeShieldSidewallShape,1
;   oozeShieldSidewallAngle,30
;   oozeShieldSpeedMultiplier,1
;   infillExtruder,0
;   internalInfillPattern,Grid
;   externalInfillPattern,Rectilinear
;   infillPercentage,20
;   outlineOverlapPercentage,21
;   infillExtrusionWidthPercentage,100
;   minInfillLength,2
;   infillLayerInterval,1
;   internalInfillAngles,45,-45
;   overlapInternalInfillAngles,1
;   externalInfillAngles,45,-45
;   generateSupport,0
;   supportExtruder,0
;   supportInfillPercentage,30
;   supportExtraInflation,1.4
;   supportBaseLayers,0
;   denseSupportExtruder,0
;   denseSupportLayers,0
;   denseSupportInfillPercentage,70
;   supportLayerInterval,1
;   supportHorizontalPartOffset,0.2
;   supportUpperSeparationLayers,1
;   supportLowerSeparationLayers,1
;   supportType,0
;   supportGridSpacing,4
;   maxOverhangAngle,45
;   supportAngles,0
;   temperatureName,Primary Extruder,Heated Bed
;   temperatureNumber,0,1
;   temperatureSetpointCount,2,1
;   temperatureSetpointLayers,1,2,1
;   temperatureSetpointTemperatures,215,200,55
;   temperatureStabilizeAtStartup,1,1
;   temperatureHeatedBed,0,1
;   temperatureRelayBetweenLayers,0,0
;   temperatureRelayBetweenLoops,0,0
;   fanLayers,1,2
;   fanSpeeds,0,100
;   blipFanToFullPower,1
;   adjustSpeedForCooling,1
;   minSpeedLayerTime,15
;   minCoolingSpeedSlowdown,5
;   increaseFanForCooling,0
;   minFanLayerTime,45
;   maxCoolingFanSpeed,100
;   increaseFanForBridging,1
;   bridgingFanSpeed,100
;   use5D,1
;   relativeEdistances,1
;   allowEaxisZeroing,1
;   independentExtruderAxes,0
;   includeM10123,0
;   stickySupport,1
;   applyToolheadOffsets,0
;   gcodeXoffset,0
;   gcodeYoffset,0
;   gcodeZoffset,0
;   overrideMachineDefinition,1
;   machineTypeOverride,0
;   strokeXoverride,250
;   strokeYoverride,210
;   strokeZoverride,200
;   originOffsetXoverride,0
;   originOffsetYoverride,0
;   originOffsetZoverride,0
;   homeXdirOverride,-1
;   homeYdirOverride,-1
;   homeZdirOverride,-1
;   flipXoverride,1
;   flipYoverride,-1
;   flipZoverride,1
;   toolheadOffsets,0,0|0,0|0,0|0,0|0,0|0,0
;   overrideFirmwareConfiguration,0
;   firmwareTypeOverride,RepRap (Marlin/Repetier/Sprinter)
;   GPXconfigOverride,r2
;   baudRateOverride,250000
;   overridePrinterModels,1
;   printerModelsOverride
;   startingGcode,M115 U3.0.7 ; tell the printer latest firmware varsion available,G28 W ; home all without mesh bed level,G80 ; mesh bed leveling,G1 Y-3.0 F1000.0 ; go outside printing area,G1 X60.0 E9.0  F1000.0 ; intro line,G1 X100.0 E12.5  F1000.0 ; intro line
;   layerChangeGcode,
;   retractionGcode,
;   toolChangeGcode,
;   endingGcode,M104 S0 ; turn off temperature,M140 S0 ; turn off heatbed,M107 ; turn off fan,G1 X0 Y200; home X axis,M84 ; disable motors
;   exportFileFormat,gcode
;   celebration,0
;   celebrationSong,Random Song
;   postProcessing,{REPLACE "; outer perimeter\n" "; outer perimeter\nM204 S600\n"},{REPLACE "; inner perimeter\n" "; inner perimeter\nM204 S1200\n"},{REPLACE "; solid layer\n" "; solid layer\nM204 S1500\n"},{REPLACE "; infill\n" "; infill\nM204 S2000\n"}
;   defaultSpeed,2400
;   outlineUnderspeed,1
;   solidInfillUnderspeed,0.8
;   supportUnderspeed,0.8
;   rapidXYspeed,4800
;   rapidZspeed,1000
;   minBridgingArea,50
;   bridgingExtraInflation,1
;   bridgingExtrusionMultiplier,1
;   bridgingSpeedMultiplier,1
;   useFixedBridgingAngle,0
;   fixedBridgingAngle,0
;   applyBridgingToPerimeters,0
;   filamentDiameters,1.75|1.75|1.75|1.75|1.75|1.75
;   filamentPricesPerKg,215|215|215|215|215|215
;   filamentDensities,1.25|1.25|1.25|1.25|1.25|1.25
;   useMinPrintHeight,0
;   minPrintHeight,0
;   useMaxPrintHeight,0
;   maxPrintHeight,0
;   useDiaphragm,0
;   diaphragmLayerInterval,20
;   robustSlicing,1
;   mergeAllIntoSolid,0
;   onlyRetractWhenCrossingOutline,0
;   retractBetweenLayers,1
;   useRetractionMinTravel,1
;   retractionMinTravel,3
;   retractWhileWiping,1
;   onlyWipeOutlines,1
;   avoidCrossingOutline,0
;   maxMovementDetourFactor,3
;   toolChangeRetractionDistance,12
;   toolChangeExtraRestartDistance,-0.5
;   toolChangeRetractionSpeed,600
;   externalThinWallType,0
;   internalThinWallType,2
;   thinWallAllowedOverlapPercentage,25
;   singleExtrusionMinLength,1
;   singleExtrusionMinPrintingWidthPercentage,50
;   singleExtrusionMaxPrintingWidthPercentage,200
;   singleExtrusionEndpointExtension,0.2
;   horizontalSizeCompensation,0
G90
M83
M106 S255
G4 P500
M106 S0
M140 S55
M190 S55
M104 S215 T0
M109 S215 T0
M115 U3.0.7 ; tell the printer latest firmware varsion available
G28 W ; home all without mesh bed level
G80 ; mesh bed leveling
G1 Y-3.0 F1000.0 ; go outside printing area
G1 X60.0 E9.0  F1000.0 ; intro line
G1 X100.0 E12.5  F1000.0 ; intro line
G1 E-0.8000 F1800
G1 Z0.330 F1000
; process mk2-rc4
; layer 1, Z = 0.330
T0
; tool H0.500 W0.428
; skirt
G1 X94.509 Y65.384 F4800
G1 E0.8000 F540
G1 X97.384 Y62.509 E0.3613 F1440
G1 X97.467 Y62.475 E0.0080
G1 X104.533 Y62.475 E0.6279
G1 X104.616 Y62.509 E0.0080
G1 X107.491 Y65.384 E0.3613
G1 X107.525 Y65.467 E0.0080
G1 X107.525 Y100.369 E3.1016
G1 X116.263 Y91.631 E1.0982
G1 X116.397 Y91.604 E0.0121
G1 X116.475 Y91.636 E0.0075
G1 X116.475 Y65.467 E2.3256
G1 X116.509 Y65.384 E0.0080
G1 X119.384 Y62.509 E0.3613
G1 X119.467 Y62.475 E0.0080
G1 X173.533 Y62.475 E4.8047
G1 X173.616 Y62.509 E0.0080
G1 X176.491 Y65.384 E0.3613
G1 X176.525 Y65.467 E0.0080
G1 X176.525 Y144.533 E7.0263
G1 X176.491 Y144.616 E0.0080
G1 X173.616 Y147.491 E0.3613
G1 X173.533 Y147.525 E0.0080
G1 X97.467 Y147.525 E6.7597
G1 X97.384 Y147.491 E0.0080
G1 X94.509 Y144.616 E0.3613
G1 X94.475 Y144.533 E0.0080
G1 X94.475 Y65.578 E7.0165
G1 X94.475 Y65.467 F1440
G1 X94.509 Y65.384 F1440
; tool H0.500 W0.760
; raft
G1 X96.900 Y66.423 F4800
G1 X98.423 Y64.900 E0.3403 F360
G1 X103.577 Y64.900 E0.8142
G1 X105.100 Y66.423 E0.3403
G1 X105.100 Y105.525 E6.1775
G1 X105.594 Y105.729 E0.0844
G1 X116.890 Y94.433 E2.5238
G1 X118.900 Y95.266 E0.3437
G1 X118.900 Y66.423 E4.5567
G1 X120.423 Y64.900 E0.3403
G1 X172.577 Y64.900 E8.2396
G1 X174.100 Y66.423 E0.3403
G1 X174.100 Y143.577 E12.1892
G1 X172.577 Y145.100 E0.3403
G1 X120.423 Y145.100 E8.2396
G1 X119.500 Y144.177 E0.2062
G1 X118.577 Y145.100 E0.2062
G1 X98.423 Y145.100 E3.1840
G1 X96.900 Y143.577 E0.3403
G1 X96.900 Y66.623 E12.1576
G1 X96.900 Y66.423 F360
G1 X98.312 Y66.143 F4800
G1 X103.688 Y66.143 E0.8495 F360
G1 X104.300 Y66.754 E0.1366
G1 X104.300 Y68.429 E0.2645
G1 X97.700 Y68.429 E1.0427
G1 X97.700 Y70.714 E0.3611
G1 X104.300 Y70.714 E1.0427
G1 X104.300 Y73.000 E0.3611
G1 X97.700 Y73.000 E1.0427
G1 X97.700 Y75.286 E0.3611
G1 X104.300 Y75.286 E1.0427
G1 X104.300 Y77.571 E0.3611
G1 X97.700 Y77.571 E1.0427
G1 X97.700 Y79.857 E0.3611
G1 X104.300 Y79.857 E1.0427
G1 X104.300 Y82.143 E0.3611
G1 X97.700 Y82.143 E1.0427
G1 X97.700 Y84.429 E0.3611
G1 X104.300 Y84.429 E1.0427
G1 X104.300 Y86.714 E0.3611
G1 X97.700 Y86.714 E1.0427
G1 X97.700 Y89.000 E0.3611
G1 X104.300 Y89.000 E1.0427
G1 X104.300 Y91.286 E0.3611
G1 X97.700 Y91.286 E1.0427
G1 X97.700 Y93.571 E0.3611
G1 X104.300 Y93.571 E1.0427
G1 X104.300 Y95.857 E0.3611
G1 X97.700 Y95.857 E1.0427
G1 X97.700 Y98.143 E0.3611
G1 X104.300 Y98.143 E1.0427
G1 X104.300 Y100.429 E0.3611
G1 X97.700 Y100.429 E1.0427
G1 X97.700 Y102.714 E0.3611
G1 X104.300 Y102.714 E1.0427
G1 X104.300 Y105.000 E0.3611
G1 X97.700 Y105.000 E1.0427
G1 X97.700 Y107.286 E0.3611
G1 X173.300 Y107.286 E11.9437
G1 X173.300 Y109.571 E0.3611
G1 X97.700 Y109.571 E11.9437
G1 X97.700 Y111.857 E0.3611
G1 X173.300 Y111.857 E11.9437
G1 X173.300 Y114.143 E0.3611
G1 X97.700 Y114.143 E11.9437
G1 X97.700 Y116.429 E0.3611
G1 X173.300 Y116.429 E11.9437
G1 X173.300 Y118.714 E0.3611
G1 X97.700 Y118.714 E11.9437
G1 X97.700 Y121.000 E0.3611
G1 X173.300 Y121.000 E11.9437
G1 X173.300 Y123.286 E0.3611
G1 X97.700 Y123.286 E11.9437
G1 X97.700 Y125.571 E0.3611
G1 X173.300 Y125.571 E11.9437
G1 X173.300 Y127.857 E0.3611
G1 X97.700 Y127.857 E11.9437
G1 X97.700 Y130.143 E0.3611
G1 X173.300 Y130.143 E11.9437
G1 X173.300 Y132.429 E0.3611
G1 X97.700 Y132.429 E11.9437
G1 X97.700 Y134.714 E0.3611
G1 X173.300 Y134.714 E11.9437
G1 X173.300 Y137.000 E0.3611
G1 X97.700 Y137.000 E11.9437
G1 X97.700 Y139.286 E0.3611
G1 X173.300 Y139.286 E11.9437
G1 X173.300 Y141.571 E0.3611
G1 X97.700 Y141.571 E11.9437
G1 X97.700 Y143.246 E0.2645
G1 X98.312 Y143.857 E0.1366
G1 X118.688 Y143.857 E3.2193
G1 X119.500 Y143.046 E0.1813
G1 X120.312 Y143.857 E0.1813
G1 X172.488 Y143.857 E8.2432
G1 X172.688 Y143.857 F360
G1 E-0.8000 F1800
G1 X107.454 Y105.000 F4800
G1 E0.8000 F1800
G1 X173.300 Y105.000 E10.4027 F360
G1 X173.300 Y102.714 E0.3611
G1 X109.740 Y102.714 E10.0415
G1 X112.026 Y100.429 E0.5107
G1 X173.300 Y100.429 E9.6804
G1 X173.300 Y98.143 E0.3611
G1 X114.312 Y98.143 E9.3193
G1 X116.597 Y95.857 E0.5107
G1 X118.237 Y95.857 E0.2591
G1 X119.700 Y96.463 E0.2501
G1 X119.700 Y95.857 E0.0957
G1 X173.300 Y95.857 E8.4680
G1 X173.300 Y93.571 E0.3611
G1 X119.700 Y93.571 E8.4680
G1 X119.700 Y91.286 E0.3611
G1 X173.300 Y91.286 E8.4680
G1 X173.300 Y89.000 E0.3611
G1 X119.700 Y89.000 E8.4680
G1 X119.700 Y86.714 E0.3611
G1 X173.300 Y86.714 E8.4680
G1 X173.300 Y84.429 E0.3611
G1 X119.700 Y84.429 E8.4680
G1 X119.700 Y82.143 E0.3611
G1 X173.300 Y82.143 E8.4680
G1 X173.300 Y79.857 E0.3611
G1 X119.700 Y79.857 E8.4680
G1 X119.700 Y77.571 E0.3611
G1 X173.300 Y77.571 E8.4680
G1 X173.300 Y75.286 E0.3611
G1 X119.700 Y75.286 E8.4680
G1 X119.700 Y73.000 E0.3611
G1 X173.300 Y73.000 E8.4680
G1 X173.300 Y70.714 E0.3611
G1 X119.700 Y70.714 E8.4680
G1 X119.700 Y68.429 E0.3611
G1 X173.300 Y68.429 E8.4680
G1 X173.300 Y66.754 E0.2645
G1 X172.688 Y66.143 E0.1366
G1 X120.512 Y66.143 E8.2432
G1 X120.312 Y66.143 F360
G1 E-0.8000 F1800
; layer 2, Z = 0.830
M104 S200 T0
M106 S255
; tool H0.500 W0.800
G1 X120.423 Y64.900 F4800
G1 Z0.830 F1000
G1 E0.8000 F1800
G1 X172.577 Y64.900 E8.6732 F600
G1 X174.100 Y66.423 E0.3582
G1 X174.100 Y143.577 E12.8307
G1 X172.577 Y145.100 E0.3582
G1 X120.423 Y145.100 E8.6732
G1 X119.500 Y144.177 E0.2171
G1 X118.577 Y145.100 E0.2171
G1 X98.423 Y145.100 E3.3516
G1 X96.900 Y143.577 E0.3582
G1 X96.900 Y66.423 E12.8307
G1 X98.423 Y64.900 E0.3582
G1 X103.577 Y64.900 E0.8571
G1 X105.100 Y66.423 E0.3582
G1 X105.100 Y105.525 E6.5026
G1 X105.594 Y105.729 E0.0889
G1 X116.890 Y94.433 E2.6567
G1 X118.900 Y95.266 E0.3618
G1 X118.900 Y66.423 E4.7966
G1 X120.282 Y65.041 E0.3249
G1 X120.423 Y64.900 F600
G1 X120.312 Y66.143 F4800
G1 X172.688 Y66.143 E8.7103 F600
G1 X173.300 Y66.754 E0.1438
G1 X173.300 Y68.429 E0.2784
G1 X119.700 Y68.429 E8.9137
G1 X119.700 Y70.714 E0.3801
G1 X173.300 Y70.714 E8.9137
G1 X173.300 Y73.000 E0.3801
G1 X119.700 Y73.000 E8.9137
G1 X119.700 Y75.286 E0.3801
G1 X173.300 Y75.286 E8.9137
G1 X173.300 Y77.571 E0.3801
G1 X119.700 Y77.571 E8.9137
G1 X119.700 Y79.857 E0.3801
G1 X173.300 Y79.857 E8.9137
G1 X173.300 Y82.143 E0.3801
G1 X119.700 Y82.143 E8.9137
G1 X119.700 Y84.429 E0.3801
G1 X173.300 Y84.429 E8.9137
G1 X173.300 Y86.714 E0.3801
G1 X119.700 Y86.714 E8.9137
G1 X119.700 Y89.000 E0.3801
G1 X173.300 Y89.000 E8.9137
G1 X173.300 Y91.286 E0.3801
G1 X119.700 Y91.286 E8.9137
G1 X119.700 Y93.571 E0.3801
G1 X173.300 Y93.571 E8.9137
G1 X173.300 Y95.857 E0.3801
G1 X119.700 Y95.857 E8.9137
G1 X119.700 Y96.463 E0.1007
G1 X118.237 Y95.857 E0.2633
G1 X116.597 Y95.857 E0.2728
G1 X114.312 Y98.143 E0.5376
G1 X173.300 Y98.143 E9.8098
G1 X173.300 Y100.429 E0.3801
G1 X112.026 Y100.429 E10.1899
G1 X109.740 Y102.714 E0.5376
G1 X173.300 Y102.714 E10.5701
G1 X173.300 Y105.000 E0.3801
G1 X107.654 Y105.000 E10.9169
G1 X107.454 Y105.000 F600
G1 E-0.8000 F1800
G1 X98.312 Y66.143 F4800
G1 E0.8000 F1800
G1 X103.688 Y66.143 E0.8942 F600
G1 X104.300 Y66.754 E0.1438
G1 X104.300 Y68.429 E0.2784
G1 X97.700 Y68.429 E1.0976
G1 X97.700 Y70.714 E0.3801
G1 X104.300 Y70.714 E1.0976
G1 X104.300 Y73.000 E0.3801
G1 X97.700 Y73.000 E1.0976
G1 X97.700 Y75.286 E0.3801
G1 X104.300 Y75.286 E1.0976
G1 X104.300 Y77.571 E0.3801
G1 X97.700 Y77.571 E1.0976
G1 X97.700 Y79.857 E0.3801
G1 X104.300 Y79.857 E1.0976
G1 X104.300 Y82.143 E0.3801
G1 X97.700 Y82.143 E1.0976
G1 X97.700 Y84.429 E0.3801
G1 X104.300 Y84.429 E1.0976
G1 X104.300 Y86.714 E0.3801
G1 X97.700 Y86.714 E1.0976
G1 X97.700 Y89.000 E0.3801
G1 X104.300 Y89.000 E1.0976
G1 X104.300 Y91.286 E0.3801
G1 X97.700 Y91.286 E1.0976
G1 X97.700 Y93.571 E0.3801
G1 X104.300 Y93.571 E1.0976
G1 X104.300 Y95.857 E0.3801
G1 X97.700 Y95.857 E1.0976
G1 X97.700 Y98.143 E0.3801
G1 X104.300 Y98.143 E1.0976
G1 X104.300 Y100.429 E0.3801
G1 X97.700 Y100.429 E1.0976
G1 X97.700 Y102.714 E0.3801
G1 X104.300 Y102.714 E1.0976
G1 X104.300 Y105.000 E0.3801
G1 X97.700 Y105.000 E1.0976
G1 X97.700 Y107.286 E0.3801
G1 X173.300 Y107.286 E12.5723
G1 X173.300 Y109.571 E0.3801
G1 X97.700 Y109.571 E12.5723
G1 X97.700 Y111.857 E0.3801
G1 X173.300 Y111.857 E12.5723
G1 X173.300 Y114.143 E0.3801
G1 X97.700 Y114.143 E12.5723
G1 X97.700 Y116.429 E0.3801
G1 X173.300 Y116.429 E12.5723
G1 X173.300 Y118.714 E0.3801
G1 X97.700 Y118.714 E12.5723
G1 X97.700 Y121.000 E0.3801
G1 X173.300 Y121.000 E12.5723
G1 X173.300 Y123.286 E0.3801
G1 X97.700 Y123.286 E12.5723
G1 X97.700 Y125.571 E0.3801
G1 X173.300 Y125.571 E12.5723
G1 X173.300 Y127.857 E0.3801
G1 X97.700 Y127.857 E12.5723
G1 X97.700 Y130.143 E0.3801
G1 X173.300 Y130.143 E12.5723
G1 X173.300 Y132.429 E0.3801
G1 X97.700 Y132.429 E12.5723
G1 X97.700 Y134.714 E0.3801
G1 X173.300 Y134.714 E12.5723
G1 X173.300 Y137.000 E0.3801
G1 X97.700 Y137.000 E12.5723
G1 X97.700 Y139.286 E0.3801
G1 X173.300 Y139.286 E12.5723
G1 X173.300 Y141.571 E0.3801
G1 X97.700 Y141.571 E12.5723
G1 X97.700 Y143.246 E0.2784
G1 X98.312 Y143.857 E0.1438
G1 X118.688 Y143.857 E3.3887
G1 X119.500 Y143.046 E0.1909
G1 X120.312 Y143.857 E0.1909
G1 X172.488 Y143.857 E8.6770
G1 X172.688 Y143.857 F600
G1 E-0.8000 F1800
; layer 3, Z = 1.052
; tool H0.222 W0.400
G1 X174.300 Y143.133 F4800
G1 Z1.052 F1000
G1 E0.8000 F1800
G1 X172.133 Y145.300 E0.1132 F1800
G1 X171.568 Y145.300 E0.0209
G1 X174.300 Y142.568 E0.1428
G1 X174.300 Y142.002 E0.0209
G1 X171.002 Y145.300 E0.1724
G1 X170.436 Y145.300 E0.0209
G1 X174.300 Y141.436 E0.2019
G1 X174.300 Y140.871 E0.0209
G1 X169.871 Y145.300 E0.2315
G1 X169.305 Y145.300 E0.0209
G1 X174.300 Y140.305 E0.2611
G1 X174.300 Y139.739 E0.0209
G1 X168.739 Y145.300 E0.2906
G1 X168.173 Y145.300 E0.0209
G1 X174.300 Y139.173 E0.3202
G1 X174.300 Y138.608 E0.0209
G1 X167.608 Y145.300 E0.3498
G1 X167.042 Y145.300 E0.0209
