; G-Code generated by Simplify3D(R) Version 4.0.0
; Feb 16, 2018 at 5:41:15 PM
; Settings Summary
;   processName,Process1
;   applyToModels,digi_key_adapter,digi_key_holder
;   profileName,Original Prusa i3 MK2 RC4 (modified)
;   profileVersion,2016-08-30 14:21:19
;   baseProfile,Prusa Mendel (modified)
;   printMaterial,PLA
;   printQuality,FAST 0.3mm
;   printExtruders,
;   extruderName,Primary Extruder
;   extruderToolheadNumber,0
;   extruderDiameter,0.4
;   extruderAutoWidth,0
;   extruderWidth,0.45
;   extrusionMultiplier,1
;   extruderUseRetract,1
;   extruderRetractionDistance,0.8
;   extruderExtraRestartDistance,0
;   extruderRetractionZLift,0
;   extruderRetractionSpeed,1800
;   extruderUseCoasting,1
;   extruderCoastingDistance,0.2
;   extruderUseWipe,1
;   extruderWipeDistance,2
;   primaryExtruder,0
;   layerHeight,0.3
;   topSolidLayers,3
;   bottomSolidLayers,3
;   perimeterOutlines,2
;   printPerimetersInsideOut,1
;   startPointOption,2
;   startPointOriginX,0
;   startPointOriginY,0
;   sequentialIslands,0
;   spiralVaseMode,0
;   firstLayerHeightPercentage,66
;   firstLayerWidthPercentage,95
;   firstLayerUnderspeed,0.6
;   useRaft,1
;   raftExtruder,0
;   raftTopLayers,3
;   raftBaseLayers,2
;   raftOffset,3
;   raftSeparationDistance,0.25
;   raftTopInfill,100
;   aboveRaftSpeedMultiplier,0.3
;   useSkirt,1
;   skirtExtruder,0
;   skirtLayers,1
;   skirtOutlines,1
;   skirtOffset,1.8
;   usePrimePillar,0
;   primePillarExtruder,999
;   primePillarWidth,12
;   primePillarLocation,7
;   primePillarSpeedMultiplier,1
;   useOozeShield,0
;   oozeShieldExtruder,999
;   oozeShieldOffset,2
;   oozeShieldOutlines,1
;   oozeShieldSidewallShape,1
;   oozeShieldSidewallAngle,30
;   oozeShieldSpeedMultiplier,1
;   infillExtruder,0
;   internalInfillPattern,Grid
;   externalInfillPattern,Rectilinear
;   infillPercentage,20
;   outlineOverlapPercentage,21
;   infillExtrusionWidthPercentage,100
;   minInfillLength,2
;   infillLayerInterval,1
;   internalInfillAngles,45,-45
;   overlapInternalInfillAngles,1
;   externalInfillAngles,45,-45
;   generateSupport,0
;   supportExtruder,0
;   supportInfillPercentage,30
;   supportExtraInflation,1.4
;   supportBaseLayers,0
;   denseSupportExtruder,0
;   denseSupportLayers,0
;   denseSupportInfillPercentage,70
;   supportLayerInterval,1
;   supportHorizontalPartOffset,0.2
;   supportUpperSeparationLayers,1
;   supportLowerSeparationLayers,1
;   supportType,0
;   supportGridSpacing,4
;   maxOverhangAngle,45
;   supportAngles,0
;   temperatureName,Primary Extruder,Heated Bed
;   temperatureNumber,0,1
;   temperatureSetpointCount,2,1
;   temperatureSetpointLayers,1,2,1
;   temperatureSetpointTemperatures,215,200,55
;   temperatureStabilizeAtStartup,1,1
;   temperatureHeatedBed,0,1
;   temperatureRelayBetweenLayers,0,0
;   temperatureRelayBetweenLoops,0,0
;   fanLayers,1,2
;   fanSpeeds,0,100
;   blipFanToFullPower,1
;   adjustSpeedForCooling,1
;   minSpeedLayerTime,15
;   minCoolingSpeedSlowdown,5
;   increaseFanForCooling,0
;   minFanLayerTime,45
;   maxCoolingFanSpeed,100
;   increaseFanForBridging,1
;   bridgingFanSpeed,100
;   use5D,1
;   relativeEdistances,1
;   allowEaxisZeroing,1
;   independentExtruderAxes,0
;   includeM10123,0
;   stickySupport,1
;   applyToolheadOffsets,0
;   gcodeXoffset,0
;   gcodeYoffset,0
;   gcodeZoffset,0
;   overrideMachineDefinition,1
;   machineTypeOverride,0
;   strokeXoverride,250
;   strokeYoverride,210
;   strokeZoverride,200
;   originOffsetXoverride,0
;   originOffsetYoverride,0
;   originOffsetZoverride,0
;   homeXdirOverride,-1
;   homeYdirOverride,-1
;   homeZdirOverride,-1
;   flipXoverride,1
;   flipYoverride,-1
;   flipZoverride,1
;   toolheadOffsets,0,0|0,0|0,0|0,0|0,0|0,0
;   overrideFirmwareConfiguration,0
;   firmwareTypeOverride,RepRap (Marlin/Repetier/Sprinter)
;   GPXconfigOverride,r2
;   baudRateOverride,250000
;   overridePrinterModels,1
;   printerModelsOverride
;   startingGcode,M115 U3.0.7 ; tell the printer latest firmware varsion available,G28 W ; home all without mesh bed level,G80 ; mesh bed leveling,G1 Y-3.0 F1000.0 ; go outside printing area,G1 X60.0 E9.0  F1000.0 ; intro line,G1 X100.0 E12.5  F1000.0 ; intro line
;   layerChangeGcode,
;   retractionGcode,
;   toolChangeGcode,
;   endingGcode,M104 S0 ; turn off temperature,M140 S0 ; turn off heatbed,M107 ; turn off fan,G1 X0 Y200; home X axis,M84 ; disable motors
;   exportFileFormat,gcode
;   celebration,0
;   celebrationSong,Random Song
;   postProcessing,{REPLACE "; outer perimeter\n" "; outer perimeter\nM204 S600\n"},{REPLACE "; inner perimeter\n" "; inner perimeter\nM204 S1200\n"},{REPLACE "; solid layer\n" "; solid layer\nM204 S1500\n"},{REPLACE "; infill\n" "; infill\nM204 S2000\n"}
;   defaultSpeed,2400
;   outlineUnderspeed,1
;   solidInfillUnderspeed,0.8
;   supportUnderspeed,0.8
;   rapidXYspeed,4800
;   rapidZspeed,1000
;   minBridgingArea,50
;   bridgingExtraInflation,1
;   bridgingExtrusionMultiplier,1
;   bridgingSpeedMultiplier,1
;   useFixedBridgingAngle,0
;   fixedBridgingAngle,0
;   applyBridgingToPerimeters,0
;   filamentDiameters,1.75|1.75|1.75|1.75|1.75|1.75
;   filamentPricesPerKg,215|215|215|215|215|215
;   filamentDensities,1.25|1.25|1.25|1.25|1.25|1.25
;   useMinPrintHeight,0
;   minPrintHeight,0
;   useMaxPrintHeight,0
;   maxPrintHeight,35
;   useDiaphragm,0
;   diaphragmLayerInterval,20
;   robustSlicing,1
;   mergeAllIntoSolid,0
;   onlyRetractWhenCrossingOutline,0
;   retractBetweenLayers,1
;   useRetractionMinTravel,1
;   retractionMinTravel,3
;   retractWhileWiping,1
;   onlyWipeOutlines,1
;   avoidCrossingOutline,0
;   maxMovementDetourFactor,3
;   toolChangeRetractionDistance,12
;   toolChangeExtraRestartDistance,-0.5
;   toolChangeRetractionSpeed,600
;   externalThinWallType,0
;   internalThinWallType,2
;   thinWallAllowedOverlapPercentage,25
;   singleExtrusionMinLength,1
;   singleExtrusionMinPrintingWidthPercentage,50
;   singleExtrusionMaxPrintingWidthPercentage,200
;   singleExtrusionEndpointExtension,0.2
;   horizontalSizeCompensation,0
G90
M83
M106 S255
G4 P500
M106 S0
M140 S55
M190 S55
M104 S215 T0
M109 S215 T0
M115 U3.0.7 ; tell the printer latest firmware varsion available
G28 W ; home all without mesh bed level
G80 ; mesh bed leveling
G1 Y-3.0 F1000.0 ; go outside printing area
G1 X60.0 E9.0  F1000.0 ; intro line
G1 X100.0 E12.5  F1000.0 ; intro line
G1 E-0.8000 F1800
G1 Z0.330 F1000
; process Process1
; layer 1, Z = 0.330
T0
; tool H0.500 W0.428
; skirt
G1 X111.009 Y65.384 F4800
G1 E0.8000 F540
G1 X113.884 Y62.509 E0.3613 F1440
G1 X113.967 Y62.475 E0.0080
G1 X121.033 Y62.475 E0.6279
G1 X121.116 Y62.509 E0.0080
G1 X123.991 Y65.384 E0.3613
G1 X124.025 Y65.467 E0.0080
G1 X124.025 Y100.369 E3.1016
G1 X131.975 Y92.419 E0.9991
G1 X131.975 Y65.467 E2.3951
G1 X132.009 Y65.384 E0.0080
G1 X134.884 Y62.509 E0.3613
G1 X134.967 Y62.475 E0.0080
G1 X169.033 Y62.475 E3.0273
G1 X169.116 Y62.509 E0.0080
G1 X171.991 Y65.384 E0.3613
G1 X172.025 Y65.467 E0.0080
G1 X172.025 Y144.533 E7.0263
G1 X171.991 Y144.616 E0.0080
G1 X169.116 Y147.491 E0.3613
G1 X169.033 Y147.525 E0.0080
G1 X113.967 Y147.525 E4.8935
G1 X113.884 Y147.491 E0.0080
G1 X111.009 Y144.616 E0.3613
G1 X110.975 Y144.533 E0.0080
G1 X110.975 Y65.578 E7.0165
G1 X110.975 Y65.467 F1440
G1 X111.009 Y65.384 F1440
; tool H0.500 W0.760
; raft
G1 X113.400 Y66.423 F4800
G1 X114.923 Y64.900 E0.3403 F360
G1 X120.077 Y64.900 E0.8142
G1 X121.600 Y66.423 E0.3403
G1 X121.600 Y105.525 E6.1775
G1 X122.094 Y105.729 E0.0844
G1 X133.390 Y94.433 E2.5238
G1 X134.400 Y94.851 E0.1727
G1 X134.400 Y66.423 E4.4913
G1 X135.923 Y64.900 E0.3403
G1 X168.077 Y64.900 E5.0799
G1 X169.600 Y66.423 E0.3403
G1 X169.600 Y143.577 E12.1892
G1 X168.077 Y145.100 E0.3403
G1 X135.923 Y145.100 E5.0799
G1 X135.500 Y144.677 E0.0945
G1 X135.077 Y145.100 E0.0945
G1 X114.923 Y145.100 E3.1840
G1 X113.400 Y143.577 E0.3403
G1 X113.400 Y66.623 E12.1576
G1 X113.400 Y66.423 F360
G1 X114.812 Y66.143 F4800
G1 X120.188 Y66.143 E0.8495 F360
G1 X120.800 Y66.754 E0.1366
G1 X120.800 Y68.429 E0.2645
G1 X114.200 Y68.429 E1.0427
G1 X114.200 Y70.714 E0.3611
G1 X120.800 Y70.714 E1.0427
G1 X120.800 Y73.000 E0.3611
G1 X114.200 Y73.000 E1.0427
G1 X114.200 Y75.286 E0.3611
G1 X120.800 Y75.286 E1.0427
G1 X120.800 Y77.571 E0.3611
G1 X114.200 Y77.571 E1.0427
G1 X114.200 Y79.857 E0.3611
G1 X120.800 Y79.857 E1.0427
G1 X120.800 Y82.143 E0.3611
G1 X114.200 Y82.143 E1.0427
G1 X114.200 Y84.429 E0.3611
G1 X120.800 Y84.429 E1.0427
G1 X120.800 Y86.714 E0.3611
G1 X114.200 Y86.714 E1.0427
G1 X114.200 Y89.000 E0.3611
G1 X120.800 Y89.000 E1.0427
G1 X120.800 Y91.286 E0.3611
G1 X114.200 Y91.286 E1.0427
G1 X114.200 Y93.571 E0.3611
G1 X120.800 Y93.571 E1.0427
G1 X120.800 Y95.857 E0.3611
G1 X114.200 Y95.857 E1.0427
G1 X114.200 Y98.143 E0.3611
G1 X120.800 Y98.143 E1.0427
G1 X120.800 Y100.429 E0.3611
G1 X114.200 Y100.429 E1.0427
G1 X114.200 Y102.714 E0.3611
G1 X120.800 Y102.714 E1.0427
G1 X120.800 Y105.000 E0.3611
G1 X114.200 Y105.000 E1.0427
G1 X114.200 Y107.286 E0.3611
G1 X168.800 Y107.286 E8.6260
G1 X168.800 Y109.571 E0.3611
G1 X114.200 Y109.571 E8.6260
G1 X114.200 Y111.857 E0.3611
G1 X168.800 Y111.857 E8.6260
G1 X168.800 Y114.143 E0.3611
G1 X114.200 Y114.143 E8.6260
G1 X114.200 Y116.429 E0.3611
G1 X168.800 Y116.429 E8.6260
G1 X168.800 Y118.714 E0.3611
G1 X114.200 Y118.714 E8.6260
G1 X114.200 Y121.000 E0.3611
G1 X168.800 Y121.000 E8.6260
G1 X168.800 Y123.286 E0.3611
G1 X114.200 Y123.286 E8.6260
G1 X114.200 Y125.571 E0.3611
G1 X168.800 Y125.571 E8.6260
G1 X168.800 Y127.857 E0.3611
G1 X114.200 Y127.857 E8.6260
G1 X114.200 Y130.143 E0.3611
G1 X168.800 Y130.143 E8.6260
G1 X168.800 Y132.429 E0.3611
G1 X114.200 Y132.429 E8.6260
G1 X114.200 Y134.714 E0.3611
G1 X168.800 Y134.714 E8.6260
G1 X168.800 Y137.000 E0.3611
G1 X114.200 Y137.000 E8.6260
G1 X114.200 Y139.286 E0.3611
G1 X168.800 Y139.286 E8.6260
G1 X168.800 Y141.571 E0.3611
G1 X114.200 Y141.571 E8.6260
G1 X114.200 Y143.246 E0.2645
G1 X114.812 Y143.857 E0.1366
G1 X135.188 Y143.857 E3.2193
G1 X135.500 Y143.546 E0.0696
G1 X135.812 Y143.857 E0.0696
G1 X167.988 Y143.857 E5.0835
G1 X168.188 Y143.857 F360
G1 E-0.8000 F1800
G1 X123.954 Y105.000 F4800
G1 E0.8000 F1800
G1 X168.800 Y105.000 E7.0850 F360
G1 X168.800 Y102.714 E0.3611
G1 X126.240 Y102.714 E6.7238
G1 X128.526 Y100.429 E0.5107
G1 X168.800 Y100.429 E6.3627
G1 X168.800 Y98.143 E0.3611
G1 X130.812 Y98.143 E6.0016
G1 X133.097 Y95.857 E0.5107
G1 X134.737 Y95.857 E0.2591
G1 X135.200 Y96.049 E0.0791
G1 X135.200 Y95.857 E0.0303
G1 X168.800 Y95.857 E5.3083
G1 X168.800 Y93.571 E0.3611
G1 X135.200 Y93.571 E5.3083
G1 X135.200 Y91.286 E0.3611
G1 X168.800 Y91.286 E5.3083
G1 X168.800 Y89.000 E0.3611
G1 X135.200 Y89.000 E5.3083
G1 X135.200 Y86.714 E0.3611
G1 X168.800 Y86.714 E5.3083
G1 X168.800 Y84.429 E0.3611
G1 X135.200 Y84.429 E5.3083
G1 X135.200 Y82.143 E0.3611
G1 X168.800 Y82.143 E5.3083
G1 X168.800 Y79.857 E0.3611
G1 X135.200 Y79.857 E5.3083
G1 X135.200 Y77.571 E0.3611
G1 X168.800 Y77.571 E5.3083
G1 X168.800 Y75.286 E0.3611
G1 X135.200 Y75.286 E5.3083
G1 X135.200 Y73.000 E0.3611
G1 X168.800 Y73.000 E5.3083
G1 X168.800 Y70.714 E0.3611
G1 X135.200 Y70.714 E5.3083
G1 X135.200 Y68.429 E0.3611
G1 X168.800 Y68.429 E5.3083
G1 X168.800 Y66.754 E0.2645
G1 X168.188 Y66.143 E0.1366
G1 X136.012 Y66.143 E5.0835
G1 X135.812 Y66.143 F360
G1 E-0.8000 F1800
; layer 2, Z = 0.830
M104 S200 T0
M106 S255
; tool H0.500 W0.800
G1 X135.923 Y64.900 F4800
G1 Z0.830 F1000
G1 E0.8000 F1800
G1 X168.077 Y64.900 E5.3472 F600
G1 X169.600 Y66.423 E0.3582
G1 X169.600 Y143.577 E12.8307
G1 X168.077 Y145.100 E0.3582
G1 X135.923 Y145.100 E5.3472
G1 X135.500 Y144.677 E0.0995
G1 X135.077 Y145.100 E0.0995
G1 X114.923 Y145.100 E3.3516
G1 X113.400 Y143.577 E0.3582
G1 X113.400 Y66.423 E12.8307
G1 X114.923 Y64.900 E0.3582
G1 X120.077 Y64.900 E0.8571
G1 X121.600 Y66.423 E0.3582
G1 X121.600 Y105.525 E6.5026
G1 X122.094 Y105.729 E0.0889
G1 X133.390 Y94.433 E2.6567
G1 X134.400 Y94.851 E0.1818
G1 X134.400 Y66.423 E4.7277
G1 X135.782 Y65.041 E0.3249
G1 X135.923 Y64.900 F600
G1 X135.812 Y66.143 F4800
G1 X168.188 Y66.143 E5.3843 F600
G1 X168.800 Y66.754 E0.1438
G1 X168.800 Y68.429 E0.2784
G1 X135.200 Y68.429 E5.5877
G1 X135.200 Y70.714 E0.3801
G1 X168.800 Y70.714 E5.5877
G1 X168.800 Y73.000 E0.3801
G1 X135.200 Y73.000 E5.5877
G1 X135.200 Y75.286 E0.3801
G1 X168.800 Y75.286 E5.5877
G1 X168.800 Y77.571 E0.3801
G1 X135.200 Y77.571 E5.5877
G1 X135.200 Y79.857 E0.3801
G1 X168.800 Y79.857 E5.5877
G1 X168.800 Y82.143 E0.3801
G1 X135.200 Y82.143 E5.5877
G1 X135.200 Y84.429 E0.3801
G1 X168.800 Y84.429 E5.5877
G1 X168.800 Y86.714 E0.3801
G1 X135.200 Y86.714 E5.5877
G1 X135.200 Y89.000 E0.3801
G1 X168.800 Y89.000 E5.5877
G1 X168.800 Y91.286 E0.3801
G1 X135.200 Y91.286 E5.5877
G1 X135.200 Y93.571 E0.3801
G1 X168.800 Y93.571 E5.5877
G1 X168.800 Y95.857 E0.3801
G1 X135.200 Y95.857 E5.5877
G1 X135.200 Y96.049 E0.0319
G1 X134.737 Y95.857 E0.0833
G1 X133.097 Y95.857 E0.2728
G1 X130.812 Y98.143 E0.5376
G1 X168.800 Y98.143 E6.3175
G1 X168.800 Y100.429 E0.3801
G1 X128.526 Y100.429 E6.6976
G1 X126.240 Y102.714 E0.5376
G1 X168.800 Y102.714 E7.0777
G1 X168.800 Y105.000 E0.3801
G1 X124.154 Y105.000 E7.4246
G1 X123.954 Y105.000 F600
G1 E-0.8000 F1800
G1 X114.812 Y66.143 F4800
G1 E0.8000 F1800
G1 X120.188 Y66.143 E0.8942 F600
G1 X120.800 Y66.754 E0.1438
G1 X120.800 Y68.429 E0.2784
G1 X114.200 Y68.429 E1.0976
G1 X114.200 Y70.714 E0.3801
G1 X120.800 Y70.714 E1.0976
G1 X120.800 Y73.000 E0.3801
G1 X114.200 Y73.000 E1.0976
G1 X114.200 Y75.286 E0.3801
G1 X120.800 Y75.286 E1.0976
G1 X120.800 Y77.571 E0.3801
G1 X114.200 Y77.571 E1.0976
G1 X114.200 Y79.857 E0.3801
G1 X120.800 Y79.857 E1.0976
G1 X120.800 Y82.143 E0.3801
G1 X114.200 Y82.143 E1.0976
G1 X114.200 Y84.429 E0.3801
G1 X120.800 Y84.429 E1.0976
G1 X120.800 Y86.714 E0.3801
G1 X114.200 Y86.714 E1.0976
G1 X114.200 Y89.000 E0.3801
G1 X120.800 Y89.000 E1.0976
G1 X120.800 Y91.286 E0.3801
G1 X114.200 Y91.286 E1.0976
G1 X114.200 Y93.571 E0.3801
G1 X120.800 Y93.571 E1.0976
G1 X120.800 Y95.857 E0.3801
G1 X114.200 Y95.857 E1.0976
G1 X114.200 Y98.143 E0.3801
G1 X120.800 Y98.143 E1.0976
G1 X120.800 Y100.429 E0.3801
G1 X114.200 Y100.429 E1.0976
G1 X114.200 Y102.714 E0.3801
G1 X120.800 Y102.714 E1.0976
G1 X120.800 Y105.000 E0.3801
G1 X114.200 Y105.000 E1.0976
G1 X114.200 Y107.286 E0.3801
G1 X168.800 Y107.286 E9.0800
G1 X168.800 Y109.571 E0.3801
G1 X114.200 Y109.571 E9.0800
G1 X114.200 Y111.857 E0.3801
G1 X168.800 Y111.857 E9.0800
G1 X168.800 Y114.143 E0.3801
G1 X114.200 Y114.143 E9.0800
G1 X114.200 Y116.429 E0.3801
G1 X168.800 Y116.429 E9.0800
G1 X168.800 Y118.714 E0.3801
G1 X114.200 Y118.714 E9.0800
G1 X114.200 Y121.000 E0.3801
G1 X168.800 Y121.000 E9.0800
G1 X168.800 Y123.286 E0.3801
G1 X114.200 Y123.286 E9.0800
G1 X114.200 Y125.571 E0.3801
G1 X168.800 Y125.571 E9.0800
G1 X168.800 Y127.857 E0.3801
G1 X114.200 Y127.857 E9.0800
G1 X114.200 Y130.143 E0.3801
G1 X168.800 Y130.143 E9.0800
G1 X168.800 Y132.429 E0.3801
G1 X114.200 Y132.429 E9.0800
G1 X114.200 Y134.714 E0.3801
G1 X168.800 Y134.714 E9.0800
G1 X168.800 Y137.000 E0.3801
G1 X114.200 Y137.000 E9.0800
G1 X114.200 Y139.286 E0.3801
G1 X168.800 Y139.286 E9.0800
G1 X168.800 Y141.571 E0.3801
G1 X114.200 Y141.571 E9.0800
G1 X114.200 Y143.246 E0.2784
G1 X114.812 Y143.857 E0.1438
G1 X135.188 Y143.857 E3.3887
G1 X135.500 Y143.546 E0.0733
G1 X135.812 Y143.857 E0.0733
G1 X167.988 Y143.857 E5.3510
G1 X168.188 Y143.857 F600
G1 E-0.8000 F1800
; layer 3, Z = 1.052
; tool H0.222 W0.400
G1 X169.800 Y143.451 F4800
G1 Z1.052 F1000
G1 E0.8000 F1800
G1 X167.951 Y145.300 E0.0966 F1800
G1 X167.385 Y145.300 E0.0209
G1 X169.800 Y142.885 E0.1262
G1 X169.800 Y142.320 E0.0209
G1 X166.820 Y145.300 E0.1558
G1 X166.254 Y145.300 E0.0209
G1 X169.800 Y141.754 E0.1853
G1 X169.800 Y141.188 E0.0209
G1 X165.688 Y145.300 E0.2149
G1 X165.122 Y145.300 E0.0209
G1 X169.800 Y140.622 E0.2445
G1 X169.800 Y140.057 E0.0209
G1 X164.557 Y145.300 E0.2740
G1 X163.991 Y145.300 E0.0209
G1 X169.800 Y139.491 E0.3036
G1 X169.800 Y138.925 E0.0209
G1 X163.425 Y145.300 E0.3332
