; G-Code generated by Simplify3D(R) Version 4.0.0
; Feb 21, 2018 at 5:52:53 PM
; Settings Summary
;   processName,Process1
;   applyToModels,file_set_adapter
;   profileName,Original Prusa i3 MK2 RC4 (modified)
;   profileVersion,2016-08-30 14:21:19
;   baseProfile,Prusa Mendel (modified)
;   printMaterial,PLA
;   printQuality,FAST 0.3mm
;   printExtruders,
;   extruderName,Primary Extruder
;   extruderToolheadNumber,0
;   extruderDiameter,0.4
;   extruderAutoWidth,0
;   extruderWidth,0.45
;   extrusionMultiplier,1
;   extruderUseRetract,1
;   extruderRetractionDistance,0.8
;   extruderExtraRestartDistance,0
;   extruderRetractionZLift,0
;   extruderRetractionSpeed,1800
;   extruderUseCoasting,1
;   extruderCoastingDistance,0.2
;   extruderUseWipe,1
;   extruderWipeDistance,2
;   primaryExtruder,0
;   layerHeight,0.3
;   topSolidLayers,3
;   bottomSolidLayers,3
;   perimeterOutlines,2
;   printPerimetersInsideOut,1
;   startPointOption,2
;   startPointOriginX,0
;   startPointOriginY,0
;   sequentialIslands,0
;   spiralVaseMode,0
;   firstLayerHeightPercentage,66
;   firstLayerWidthPercentage,95
;   firstLayerUnderspeed,0.6
;   useRaft,1
;   raftExtruder,0
;   raftTopLayers,3
;   raftBaseLayers,2
;   raftOffset,3
;   raftSeparationDistance,0.25
;   raftTopInfill,90
;   aboveRaftSpeedMultiplier,0.3
;   useSkirt,1
;   skirtExtruder,0
;   skirtLayers,1
;   skirtOutlines,1
;   skirtOffset,1.8
;   usePrimePillar,0
;   primePillarExtruder,999
;   primePillarWidth,12
;   primePillarLocation,7
;   primePillarSpeedMultiplier,1
;   useOozeShield,0
;   oozeShieldExtruder,999
;   oozeShieldOffset,2
;   oozeShieldOutlines,1
;   oozeShieldSidewallShape,1
;   oozeShieldSidewallAngle,30
;   oozeShieldSpeedMultiplier,1
;   infillExtruder,0
;   internalInfillPattern,Grid
;   externalInfillPattern,Rectilinear
;   infillPercentage,20
;   outlineOverlapPercentage,21
;   infillExtrusionWidthPercentage,100
;   minInfillLength,2
;   infillLayerInterval,1
;   internalInfillAngles,45,-45
;   overlapInternalInfillAngles,1
;   externalInfillAngles,45,-45
;   generateSupport,1
;   supportExtruder,0
;   supportInfillPercentage,30
;   supportExtraInflation,1.4
;   supportBaseLayers,0
;   denseSupportExtruder,0
;   denseSupportLayers,0
;   denseSupportInfillPercentage,70
;   supportLayerInterval,1
;   supportHorizontalPartOffset,0.2
;   supportUpperSeparationLayers,1
;   supportLowerSeparationLayers,1
;   supportType,0
;   supportGridSpacing,4
;   maxOverhangAngle,45
;   supportAngles,0
;   temperatureName,Primary Extruder,Heated Bed
;   temperatureNumber,0,1
;   temperatureSetpointCount,2,1
;   temperatureSetpointLayers,1,2,1
;   temperatureSetpointTemperatures,215,200,55
;   temperatureStabilizeAtStartup,1,1
;   temperatureHeatedBed,0,1
;   temperatureRelayBetweenLayers,0,0
;   temperatureRelayBetweenLoops,0,0
;   fanLayers,1,2
;   fanSpeeds,0,100
;   blipFanToFullPower,1
;   adjustSpeedForCooling,1
;   minSpeedLayerTime,15
;   minCoolingSpeedSlowdown,5
;   increaseFanForCooling,0
;   minFanLayerTime,45
;   maxCoolingFanSpeed,100
;   increaseFanForBridging,1
;   bridgingFanSpeed,100
;   use5D,1
;   relativeEdistances,1
;   allowEaxisZeroing,1
;   independentExtruderAxes,0
;   includeM10123,0
;   stickySupport,1
;   applyToolheadOffsets,0
;   gcodeXoffset,0
;   gcodeYoffset,0
;   gcodeZoffset,0
;   overrideMachineDefinition,1
;   machineTypeOverride,0
;   strokeXoverride,250
;   strokeYoverride,210
;   strokeZoverride,200
;   originOffsetXoverride,0
;   originOffsetYoverride,0
;   originOffsetZoverride,0
;   homeXdirOverride,-1
;   homeYdirOverride,-1
;   homeZdirOverride,-1
;   flipXoverride,1
;   flipYoverride,-1
;   flipZoverride,1
;   toolheadOffsets,0,0|0,0|0,0|0,0|0,0|0,0
;   overrideFirmwareConfiguration,0
;   firmwareTypeOverride,RepRap (Marlin/Repetier/Sprinter)
;   GPXconfigOverride,r2
;   baudRateOverride,250000
;   overridePrinterModels,1
;   printerModelsOverride
;   startingGcode,M115 U3.0.7 ; tell the printer latest firmware varsion available,G28 W ; home all without mesh bed level,G80 ; mesh bed leveling,G1 Y-3.0 F1000.0 ; go outside printing area,G1 X60.0 E9.0  F1000.0 ; intro line,G1 X100.0 E12.5  F1000.0 ; intro line
;   layerChangeGcode,
;   retractionGcode,
;   toolChangeGcode,
;   endingGcode,M104 S0 ; turn off temperature,M140 S0 ; turn off heatbed,M107 ; turn off fan,G1 X0 Y200; home X axis,M84 ; disable motors
;   exportFileFormat,gcode
;   celebration,0
;   celebrationSong,Random Song
;   postProcessing,{REPLACE "; outer perimeter\n" "; outer perimeter\nM204 S600\n"},{REPLACE "; inner perimeter\n" "; inner perimeter\nM204 S1200\n"},{REPLACE "; solid layer\n" "; solid layer\nM204 S1500\n"},{REPLACE "; infill\n" "; infill\nM204 S2000\n"}
;   defaultSpeed,2400
;   outlineUnderspeed,1
;   solidInfillUnderspeed,0.8
;   supportUnderspeed,0.8
;   rapidXYspeed,4800
;   rapidZspeed,1000
;   minBridgingArea,50
;   bridgingExtraInflation,1
;   bridgingExtrusionMultiplier,1
;   bridgingSpeedMultiplier,1
;   useFixedBridgingAngle,0
;   fixedBridgingAngle,0
;   applyBridgingToPerimeters,0
;   filamentDiameters,1.75|1.75|1.75|1.75|1.75|1.75
;   filamentPricesPerKg,215|215|215|215|215|215
;   filamentDensities,1.25|1.25|1.25|1.25|1.25|1.25
;   useMinPrintHeight,0
;   minPrintHeight,0
;   useMaxPrintHeight,0
;   maxPrintHeight,35
;   useDiaphragm,0
;   diaphragmLayerInterval,20
;   robustSlicing,1
;   mergeAllIntoSolid,0
;   onlyRetractWhenCrossingOutline,0
;   retractBetweenLayers,1
;   useRetractionMinTravel,1
;   retractionMinTravel,3
;   retractWhileWiping,1
;   onlyWipeOutlines,1
;   avoidCrossingOutline,0
;   maxMovementDetourFactor,3
;   toolChangeRetractionDistance,12
;   toolChangeExtraRestartDistance,-0.5
;   toolChangeRetractionSpeed,600
;   externalThinWallType,0
;   internalThinWallType,2
;   thinWallAllowedOverlapPercentage,25
;   singleExtrusionMinLength,1
;   singleExtrusionMinPrintingWidthPercentage,50
;   singleExtrusionMaxPrintingWidthPercentage,200
;   singleExtrusionEndpointExtension,0.2
;   horizontalSizeCompensation,0
G90
M83
M106 S255
G4 P500
M106 S0
M140 S55
M190 S55
M104 S215 T0
M109 S215 T0
M115 U3.0.7 ; tell the printer latest firmware varsion available
G28 W ; home all without mesh bed level
G80 ; mesh bed leveling
G1 Y-3.0 F1000.0 ; go outside printing area
G1 X60.0 E9.0  F1000.0 ; intro line
G1 X100.0 E12.5  F1000.0 ; intro line
G1 E-0.8000 F1800
G1 Z0.330 F1000
; process Process1
; layer 1, Z = 0.330
T0
; tool H0.500 W0.428
; skirt
G1 X120.009 Y65.384 F4800
G1 E0.8000 F540
G1 X122.884 Y62.509 E0.3613 F1440
G1 X122.967 Y62.475 E0.0080
G1 X142.033 Y62.475 E1.6943
G1 X142.116 Y62.509 E0.0080
G1 X144.991 Y65.384 E0.3613
G1 X145.025 Y65.467 E0.0080
G1 X145.025 Y144.533 E7.0263
G1 X144.991 Y144.616 E0.0080
G1 X142.116 Y147.491 E0.3613
G1 X142.033 Y147.525 E0.0080
G1 X122.967 Y147.525 E1.6943
G1 X122.884 Y147.491 E0.0080
G1 X120.009 Y144.616 E0.3613
G1 X119.975 Y144.533 E0.0080
G1 X119.975 Y65.578 E7.0165
G1 X119.975 Y65.467 F1440
G1 X120.009 Y65.384 F1440
; tool H0.500 W0.760
; raft
G1 X122.400 Y66.423 F4800
G1 X123.923 Y64.900 E0.3403 F360
G1 X141.077 Y64.900 E2.7101
G1 X142.600 Y66.423 E0.3403
G1 X142.600 Y143.577 E12.1892
G1 X141.077 Y145.100 E0.3403
G1 X123.923 Y145.100 E2.7101
G1 X122.400 Y143.577 E0.3403
G1 X122.400 Y66.623 E12.1576
G1 X122.400 Y66.423 F360
G1 X123.812 Y66.143 F4800
G1 X141.188 Y66.143 E2.7453 F360
G1 X141.800 Y66.754 E0.1366
G1 X141.800 Y68.429 E0.2645
G1 X123.200 Y68.429 E2.9385
G1 X123.200 Y70.714 E0.3611
G1 X141.800 Y70.714 E2.9385
G1 X141.800 Y73.000 E0.3611
G1 X123.200 Y73.000 E2.9385
G1 X123.200 Y75.286 E0.3611
G1 X141.800 Y75.286 E2.9385
G1 X141.800 Y77.571 E0.3611
G1 X123.200 Y77.571 E2.9385
G1 X123.200 Y79.857 E0.3611
G1 X141.800 Y79.857 E2.9385
G1 X141.800 Y82.143 E0.3611
G1 X123.200 Y82.143 E2.9385
G1 X123.200 Y84.429 E0.3611
G1 X141.800 Y84.429 E2.9385
G1 X141.800 Y86.714 E0.3611
G1 X123.200 Y86.714 E2.9385
G1 X123.200 Y89.000 E0.3611
G1 X141.800 Y89.000 E2.9385
G1 X141.800 Y91.286 E0.3611
G1 X123.200 Y91.286 E2.9385
G1 X123.200 Y93.571 E0.3611
G1 X141.800 Y93.571 E2.9385
G1 X141.800 Y95.857 E0.3611
G1 X123.200 Y95.857 E2.9385
G1 X123.200 Y98.143 E0.3611
G1 X141.800 Y98.143 E2.9385
G1 X141.800 Y100.429 E0.3611
G1 X123.200 Y100.429 E2.9385
G1 X123.200 Y102.714 E0.3611
G1 X141.800 Y102.714 E2.9385
G1 X141.800 Y105.000 E0.3611
G1 X123.200 Y105.000 E2.9385
G1 X123.200 Y107.286 E0.3611
G1 X141.800 Y107.286 E2.9385
G1 X141.800 Y109.571 E0.3611
G1 X123.200 Y109.571 E2.9385
G1 X123.200 Y111.857 E0.3611
G1 X141.800 Y111.857 E2.9385
G1 X141.800 Y114.143 E0.3611
G1 X123.200 Y114.143 E2.9385
G1 X123.200 Y116.429 E0.3611
G1 X141.800 Y116.429 E2.9385
G1 X141.800 Y118.714 E0.3611
G1 X123.200 Y118.714 E2.9385
G1 X123.200 Y121.000 E0.3611
G1 X141.800 Y121.000 E2.9385
G1 X141.800 Y123.286 E0.3611
G1 X123.200 Y123.286 E2.9385
G1 X123.200 Y125.571 E0.3611
G1 X141.800 Y125.571 E2.9385
G1 X141.800 Y127.857 E0.3611
G1 X123.200 Y127.857 E2.9385
G1 X123.200 Y130.143 E0.3611
G1 X141.800 Y130.143 E2.9385
G1 X141.800 Y132.429 E0.3611
G1 X123.200 Y132.429 E2.9385
G1 X123.200 Y134.714 E0.3611
G1 X141.800 Y134.714 E2.9385
G1 X141.800 Y137.000 E0.3611
G1 X123.200 Y137.000 E2.9385
G1 X123.200 Y139.286 E0.3611
G1 X141.800 Y139.286 E2.9385
G1 X141.800 Y141.571 E0.3611
G1 X123.200 Y141.571 E2.9385
G1 X123.200 Y143.246 E0.2645
G1 X123.812 Y143.857 E0.1366
G1 X140.988 Y143.857 E2.7137
G1 X141.188 Y143.857 F360
G1 E-0.8000 F1800
; layer 2, Z = 0.830
M104 S200 T0
M106 S255
; tool H0.500 W0.800
G1 X141.077 Y145.100 F4800
G1 Z0.830 F1000
G1 E0.8000 F1800
G1 X123.923 Y145.100 E2.8527 F600
G1 X122.400 Y143.577 E0.3582
G1 X122.400 Y66.423 E12.8307
G1 X123.923 Y64.900 E0.3582
G1 X141.077 Y64.900 E2.8527
G1 X142.600 Y66.423 E0.3582
G1 X142.600 Y143.577 E12.8307
G1 X141.218 Y144.959 E0.3249
G1 X141.077 Y145.100 F600
G1 X141.188 Y143.857 F4800
G1 X123.812 Y143.857 E2.8898 F600
G1 X123.200 Y143.246 E0.1438
G1 X123.200 Y141.571 E0.2784
G1 X141.800 Y141.571 E3.0932
G1 X141.800 Y139.286 E0.3801
G1 X123.200 Y139.286 E3.0932
G1 X123.200 Y137.000 E0.3801
G1 X141.800 Y137.000 E3.0932
G1 X141.800 Y134.714 E0.3801
G1 X123.200 Y134.714 E3.0932
G1 X123.200 Y132.429 E0.3801
G1 X141.800 Y132.429 E3.0932
G1 X141.800 Y130.143 E0.3801
G1 X123.200 Y130.143 E3.0932
G1 X123.200 Y127.857 E0.3801
G1 X141.800 Y127.857 E3.0932
G1 X141.800 Y125.571 E0.3801
G1 X123.200 Y125.571 E3.0932
G1 X123.200 Y123.286 E0.3801
G1 X141.800 Y123.286 E3.0932
G1 X141.800 Y121.000 E0.3801
G1 X123.200 Y121.000 E3.0932
G1 X123.200 Y118.714 E0.3801
G1 X141.800 Y118.714 E3.0932
G1 X141.800 Y116.429 E0.3801
G1 X123.200 Y116.429 E3.0932
G1 X123.200 Y114.143 E0.3801
G1 X141.800 Y114.143 E3.0932
G1 X141.800 Y111.857 E0.3801
G1 X123.200 Y111.857 E3.0932
G1 X123.200 Y109.571 E0.3801
G1 X141.800 Y109.571 E3.0932
G1 X141.800 Y107.286 E0.3801
G1 X123.200 Y107.286 E3.0932
G1 X123.200 Y105.000 E0.3801
G1 X141.800 Y105.000 E3.0932
G1 X141.800 Y102.714 E0.3801
G1 X123.200 Y102.714 E3.0932
G1 X123.200 Y100.429 E0.3801
G1 X141.800 Y100.429 E3.0932
G1 X141.800 Y98.143 E0.3801
G1 X123.200 Y98.143 E3.0932
G1 X123.200 Y95.857 E0.3801
G1 X141.800 Y95.857 E3.0932
G1 X141.800 Y93.571 E0.3801
G1 X123.200 Y93.571 E3.0932
G1 X123.200 Y91.286 E0.3801
G1 X141.800 Y91.286 E3.0932
G1 X141.800 Y89.000 E0.3801
G1 X123.200 Y89.000 E3.0932
G1 X123.200 Y86.714 E0.3801
G1 X141.800 Y86.714 E3.0932
G1 X141.800 Y84.429 E0.3801
G1 X123.200 Y84.429 E3.0932
G1 X123.200 Y82.143 E0.3801
G1 X141.800 Y82.143 E3.0932
G1 X141.800 Y79.857 E0.3801
G1 X123.200 Y79.857 E3.0932
G1 X123.200 Y77.571 E0.3801
G1 X141.800 Y77.571 E3.0932
G1 X141.800 Y75.286 E0.3801
G1 X123.200 Y75.286 E3.0932
G1 X123.200 Y73.000 E0.3801
G1 X141.800 Y73.000 E3.0932
G1 X141.800 Y70.714 E0.3801
G1 X123.200 Y70.714 E3.0932
G1 X123.200 Y68.429 E0.3801
G1 X141.800 Y68.429 E3.0932
G1 X141.800 Y66.754 E0.2784
G1 X141.188 Y66.143 E0.1438
G1 X124.012 Y66.143 E2.8565
G1 X123.812 Y66.143 F600
G1 E-0.8000 F1800
; layer 3, Z = 1.052
; tool H0.222 W0.400
G1 X122.200 Y66.903 F4800
G1 Z1.052 F1000
G1 E0.8000 F1800
G1 X124.403 Y64.700 E0.1151 F1800
G1 X125.031 Y64.700 E0.0232
G1 X122.200 Y67.531 E0.1480
G1 X122.200 Y68.160 E0.0232
G1 X125.660 Y64.700 E0.1808
G1 X126.288 Y64.700 E0.0232
G1 X122.200 Y68.788 E0.2137
G1 X122.200 Y69.417 E0.0232
G1 X126.917 Y64.700 E0.2465
G1 X127.545 Y64.700 E0.0232
G1 X122.200 Y70.045 E0.2794
G1 X122.200 Y70.674 E0.0232
G1 X128.174 Y64.700 E0.3122
G1 X128.802 Y64.700 E0.0232
G1 X122.200 Y71.302 E0.3451
G1 X122.200 Y71.931 E0.0232
G1 X129.431 Y64.700 E0.3779
G1 X130.059 Y64.700 E0.0232
G1 X122.200 Y72.559 E0.4108
G1 X122.200 Y73.188 E0.0232
G1 X130.688 Y64.700 E0.4436
G1 X131.316 Y64.700 E0.0232
G1 X122.200 Y73.816 E0.4765
G1 X122.200 Y74.445 E0.0232
G1 X131.945 Y64.700 E0.5093
G1 X132.574 Y64.700 E0.0232
G1 X122.200 Y75.074 E0.5422
G1 X122.200 Y75.702 E0.0232
G1 X133.202 Y64.700 E0.5750
G1 X133.831 Y64.700 E0.0232
G1 X122.200 Y76.331 E0.6079
G1 X122.200 Y76.959 E0.0232
G1 X134.459 Y64.700 E0.6407
G1 X135.088 Y64.700 E0.0232
G1 X122.200 Y77.588 E0.6736
G1 X122.200 Y78.216 E0.0232
G1 X135.716 Y64.700 E0.7064
G1 X136.345 Y64.700 E0.0232
G1 X122.200 Y78.845 E0.7393
G1 X122.200 Y79.473 E0.0232
G1 X136.973 Y64.700 E0.7721
G1 X137.602 Y64.700 E0.0232
G1 X122.200 Y80.102 E0.8049
G1 X122.200 Y80.730 E0.0232
G1 X138.230 Y64.700 E0.8378
G1 X138.859 Y64.700 E0.0232
G1 X122.200 Y81.359 E0.8706
G1 X122.200 Y81.987 E0.0232
G1 X139.487 Y64.700 E0.9035
G1 X140.116 Y64.700 E0.0232
G1 X122.200 Y82.616 E0.9363
G1 X122.200 Y83.245 E0.0232
G1 X140.745 Y64.700 E0.9692
G1 X141.160 Y64.700 E0.0153
G1 X141.266 Y64.807 E0.0056
G1 X122.200 Y83.873 E0.9965
G1 X122.200 Y84.502 E0.0232
G1 X141.581 Y65.121 E1.0129
G1 X141.895 Y65.435 E0.0164
G1 X122.200 Y85.130 E1.0293
G1 X122.200 Y85.759 E0.0232
G1 X142.209 Y65.749 E1.0457
G1 X142.524 Y66.064 E0.0164
G1 X122.200 Y86.387 E1.0622
G1 X122.200 Y87.016 E0.0232
G1 X142.800 Y66.416 E1.0766
G1 X142.800 Y67.044 E0.0232
G1 X122.200 Y87.644 E1.0766
G1 X122.200 Y88.273 E0.0232
G1 X142.800 Y67.673 E1.0766
G1 X142.800 Y68.301 E0.0232
G1 X122.200 Y88.901 E1.0766
G1 X122.200 Y89.530 E0.0232
G1 X142.800 Y68.930 E1.0766
G1 X142.800 Y69.558 E0.0232
G1 X122.200 Y90.158 E1.0766
G1 X122.200 Y90.787 E0.0232
G1 X142.800 Y70.187 E1.0766
G1 X142.800 Y70.816 E0.0232
G1 X122.200 Y91.416 E1.0766
G1 X122.200 Y92.044 E0.0232
G1 X142.800 Y71.444 E1.0766
G1 X142.800 Y72.073 E0.0232
G1 X122.200 Y92.673 E1.0766
G1 X122.200 Y93.301 E0.0232
G1 X142.800 Y72.701 E1.0766
G1 X142.800 Y73.330 E0.0232
G1 X122.200 Y93.930 E1.0766
G1 X122.200 Y94.558 E0.0232
G1 X142.800 Y73.958 E1.0766
G1 X142.800 Y74.587 E0.0232
G1 X122.200 Y95.187 E1.0766
G1 X122.200 Y95.815 E0.0232
G1 X142.800 Y75.215 E1.0766
G1 X142.800 Y75.844 E0.0232
G1 X122.200 Y96.444 E1.0766
G1 X122.200 Y97.072 E0.0232
G1 X142.800 Y76.472 E1.0766
G1 X142.800 Y77.101 E0.0232
G1 X122.200 Y97.701 E1.0766
G1 X122.200 Y98.329 E0.0232
G1 X142.800 Y77.729 E1.0766
G1 X142.800 Y78.358 E0.0232
G1 X122.200 Y98.958 E1.0766
G1 X122.200 Y99.587 E0.0232
G1 X142.800 Y78.987 E1.0766
G1 X142.800 Y79.615 E0.0232
G1 X122.200 Y100.215 E1.0766
G1 X122.200 Y100.844 E0.0232
G1 X142.800 Y80.244 E1.0766
G1 X142.800 Y80.872 E0.0232
G1 X122.200 Y101.472 E1.0766
G1 X122.200 Y102.101 E0.0232
G1 X142.800 Y81.501 E1.0766
G1 X142.800 Y82.129 E0.0232
G1 X122.200 Y102.729 E1.0766
G1 X122.200 Y103.358 E0.0232
G1 X142.800 Y82.758 E1.0766
G1 X142.800 Y83.386 E0.0232
G1 X122.200 Y103.986 E1.0766
G1 X122.200 Y104.615 E0.0232
G1 X142.800 Y84.015 E1.0766
G1 X142.800 Y84.643 E0.0232
G1 X122.200 Y105.243 E1.0766
G1 X122.200 Y105.872 E0.0232
G1 X142.800 Y85.272 E1.0766
G1 X142.800 Y85.900 E0.0232
G1 X122.200 Y106.500 E1.0766
G1 X122.200 Y107.129 E0.0232
G1 X142.800 Y86.529 E1.0766
G1 X142.800 Y87.158 E0.0232
G1 X122.200 Y107.758 E1.0766
G1 X122.200 Y108.386 E0.0232
G1 X142.800 Y87.786 E1.0766
G1 X142.800 Y88.415 E0.0232
G1 X122.200 Y109.015 E1.0766
G1 X122.200 Y109.643 E0.0232
G1 X142.800 Y89.043 E1.0766
G1 X142.800 Y89.672 E0.0232
G1 X122.200 Y110.272 E1.0766
G1 X122.200 Y110.900 E0.0232
G1 X142.800 Y90.300 E1.0766
