; G-Code generated by Simplify3D(R) Version 4.0.0
; Feb 21, 2018 at 7:14:41 PM
; Settings Summary
;   processName,Process1
;   applyToModels,file_set_adapter,file_set_holder
;   profileName,Original Prusa i3 MK2 RC4 (modified)
;   profileVersion,2016-08-30 14:21:19
;   baseProfile,Prusa Mendel (modified)
;   printMaterial,PLA
;   printQuality,FAST 0.3mm
;   printExtruders,
;   extruderName,Primary Extruder
;   extruderToolheadNumber,0
;   extruderDiameter,0.4
;   extruderAutoWidth,0
;   extruderWidth,0.45
;   extrusionMultiplier,1
;   extruderUseRetract,1
;   extruderRetractionDistance,0.8
;   extruderExtraRestartDistance,0
;   extruderRetractionZLift,0
;   extruderRetractionSpeed,1800
;   extruderUseCoasting,1
;   extruderCoastingDistance,0.2
;   extruderUseWipe,1
;   extruderWipeDistance,2
;   primaryExtruder,0
;   layerHeight,0.3
;   topSolidLayers,3
;   bottomSolidLayers,3
;   perimeterOutlines,2
;   printPerimetersInsideOut,1
;   startPointOption,2
;   startPointOriginX,0
;   startPointOriginY,0
;   sequentialIslands,0
;   spiralVaseMode,0
;   firstLayerHeightPercentage,66
;   firstLayerWidthPercentage,95
;   firstLayerUnderspeed,0.6
;   useRaft,1
;   raftExtruder,0
;   raftTopLayers,3
;   raftBaseLayers,2
;   raftOffset,3
;   raftSeparationDistance,0.25
;   raftTopInfill,90
;   aboveRaftSpeedMultiplier,0.3
;   useSkirt,1
;   skirtExtruder,0
;   skirtLayers,1
;   skirtOutlines,1
;   skirtOffset,1.8
;   usePrimePillar,0
;   primePillarExtruder,999
;   primePillarWidth,12
;   primePillarLocation,7
;   primePillarSpeedMultiplier,1
;   useOozeShield,0
;   oozeShieldExtruder,999
;   oozeShieldOffset,2
;   oozeShieldOutlines,1
;   oozeShieldSidewallShape,1
;   oozeShieldSidewallAngle,30
;   oozeShieldSpeedMultiplier,1
;   infillExtruder,0
;   internalInfillPattern,Grid
;   externalInfillPattern,Rectilinear
;   infillPercentage,20
;   outlineOverlapPercentage,21
;   infillExtrusionWidthPercentage,100
;   minInfillLength,2
;   infillLayerInterval,1
;   internalInfillAngles,45,-45
;   overlapInternalInfillAngles,1
;   externalInfillAngles,45,-45
;   generateSupport,1
;   supportExtruder,0
;   supportInfillPercentage,30
;   supportExtraInflation,1.4
;   supportBaseLayers,0
;   denseSupportExtruder,0
;   denseSupportLayers,0
;   denseSupportInfillPercentage,70
;   supportLayerInterval,1
;   supportHorizontalPartOffset,0.2
;   supportUpperSeparationLayers,1
;   supportLowerSeparationLayers,1
;   supportType,0
;   supportGridSpacing,4
;   maxOverhangAngle,45
;   supportAngles,0
;   temperatureName,Primary Extruder,Heated Bed
;   temperatureNumber,0,1
;   temperatureSetpointCount,2,1
;   temperatureSetpointLayers,1,2,1
;   temperatureSetpointTemperatures,215,200,55
;   temperatureStabilizeAtStartup,1,1
;   temperatureHeatedBed,0,1
;   temperatureRelayBetweenLayers,0,0
;   temperatureRelayBetweenLoops,0,0
;   fanLayers,1,2
;   fanSpeeds,0,100
;   blipFanToFullPower,1
;   adjustSpeedForCooling,1
;   minSpeedLayerTime,15
;   minCoolingSpeedSlowdown,5
;   increaseFanForCooling,0
;   minFanLayerTime,45
;   maxCoolingFanSpeed,100
;   increaseFanForBridging,1
;   bridgingFanSpeed,100
;   use5D,1
;   relativeEdistances,1
;   allowEaxisZeroing,1
;   independentExtruderAxes,0
;   includeM10123,0
;   stickySupport,1
;   applyToolheadOffsets,0
;   gcodeXoffset,0
;   gcodeYoffset,0
;   gcodeZoffset,0
;   overrideMachineDefinition,1
;   machineTypeOverride,0
;   strokeXoverride,250
;   strokeYoverride,210
;   strokeZoverride,200
;   originOffsetXoverride,0
;   originOffsetYoverride,0
;   originOffsetZoverride,0
;   homeXdirOverride,-1
;   homeYdirOverride,-1
;   homeZdirOverride,-1
;   flipXoverride,1
;   flipYoverride,-1
;   flipZoverride,1
;   toolheadOffsets,0,0|0,0|0,0|0,0|0,0|0,0
;   overrideFirmwareConfiguration,0
;   firmwareTypeOverride,RepRap (Marlin/Repetier/Sprinter)
;   GPXconfigOverride,r2
;   baudRateOverride,250000
;   overridePrinterModels,1
;   printerModelsOverride
;   startingGcode,M115 U3.0.7 ; tell the printer latest firmware varsion available,G28 W ; home all without mesh bed level,G80 ; mesh bed leveling,G1 Y-3.0 F1000.0 ; go outside printing area,G1 X60.0 E9.0  F1000.0 ; intro line,G1 X100.0 E12.5  F1000.0 ; intro line
;   layerChangeGcode,
;   retractionGcode,
;   toolChangeGcode,
;   endingGcode,M104 S0 ; turn off temperature,M140 S0 ; turn off heatbed,M107 ; turn off fan,G1 X0 Y200; home X axis,M84 ; disable motors
;   exportFileFormat,gcode
;   celebration,0
;   celebrationSong,Random Song
;   postProcessing,{REPLACE "; outer perimeter\n" "; outer perimeter\nM204 S600\n"},{REPLACE "; inner perimeter\n" "; inner perimeter\nM204 S1200\n"},{REPLACE "; solid layer\n" "; solid layer\nM204 S1500\n"},{REPLACE "; infill\n" "; infill\nM204 S2000\n"}
;   defaultSpeed,2400
;   outlineUnderspeed,1
;   solidInfillUnderspeed,0.8
;   supportUnderspeed,0.8
;   rapidXYspeed,4800
;   rapidZspeed,1000
;   minBridgingArea,50
;   bridgingExtraInflation,1
;   bridgingExtrusionMultiplier,1
;   bridgingSpeedMultiplier,1
;   useFixedBridgingAngle,0
;   fixedBridgingAngle,0
;   applyBridgingToPerimeters,0
;   filamentDiameters,1.75|1.75|1.75|1.75|1.75|1.75
;   filamentPricesPerKg,215|215|215|215|215|215
;   filamentDensities,1.25|1.25|1.25|1.25|1.25|1.25
;   useMinPrintHeight,0
;   minPrintHeight,0
;   useMaxPrintHeight,0
;   maxPrintHeight,35
;   useDiaphragm,0
;   diaphragmLayerInterval,20
;   robustSlicing,1
;   mergeAllIntoSolid,0
;   onlyRetractWhenCrossingOutline,0
;   retractBetweenLayers,1
;   useRetractionMinTravel,1
;   retractionMinTravel,3
;   retractWhileWiping,1
;   onlyWipeOutlines,1
;   avoidCrossingOutline,0
;   maxMovementDetourFactor,3
;   toolChangeRetractionDistance,12
;   toolChangeExtraRestartDistance,-0.5
;   toolChangeRetractionSpeed,600
;   externalThinWallType,0
;   internalThinWallType,2
;   thinWallAllowedOverlapPercentage,25
;   singleExtrusionMinLength,1
;   singleExtrusionMinPrintingWidthPercentage,50
;   singleExtrusionMaxPrintingWidthPercentage,200
;   singleExtrusionEndpointExtension,0.2
;   horizontalSizeCompensation,0
G90
M83
M106 S255
G4 P500
M106 S0
M140 S55
M190 S55
M104 S215 T0
M109 S215 T0
M115 U3.0.7 ; tell the printer latest firmware varsion available
G28 W ; home all without mesh bed level
G80 ; mesh bed leveling
G1 Y-3.0 F1000.0 ; go outside printing area
G1 X60.0 E9.0  F1000.0 ; intro line
G1 X100.0 E12.5  F1000.0 ; intro line
G1 E-0.8000 F1800
G1 Z0.330 F1000
; process Process1
; layer 1, Z = 0.330
T0
; tool H0.500 W0.428
; skirt
G1 X26.384 Y62.509 F4800
G1 E0.8000 F540
G1 X26.467 Y62.475 E0.0080 F1440
G1 X120.533 Y62.475 E8.3594
G1 X120.616 Y62.509 E0.0080
G1 X121.990 Y63.884 E0.1727
G1 X123.364 Y62.509 E0.1727
G1 X123.447 Y62.475 E0.0080
G1 X130.513 Y62.475 E0.6279
G1 X130.596 Y62.509 E0.0080
G1 X133.471 Y65.384 E0.3613
G1 X133.505 Y65.467 E0.0080
G1 X133.505 Y100.369 E3.1016
G1 X142.243 Y91.631 E1.0982
G1 X142.377 Y91.604 E0.0121
G1 X148.429 Y94.111 E0.5822
G1 X148.505 Y94.224 E0.0121
G1 X148.505 Y144.533 E4.4708
G1 X148.471 Y144.616 E0.0080
G1 X145.596 Y147.491 E0.3613
G1 X145.513 Y147.525 E0.0080
G1 X123.447 Y147.525 E1.9609
G1 X123.364 Y147.491 E0.0080
G1 X121.990 Y146.116 E0.1727
G1 X120.616 Y147.491 E0.1727
G1 X120.533 Y147.525 E0.0080
G1 X26.467 Y147.525 E8.3594
G1 X26.384 Y147.491 E0.0080
G1 X23.509 Y144.616 E0.3613
G1 X23.475 Y144.533 E0.0080
G1 X23.475 Y65.467 E7.0263
G1 X23.509 Y65.384 E0.0080
G1 X26.243 Y62.651 E0.3436
G1 X26.384 Y62.509 F1440
; tool H0.500 W0.760
; raft
G1 X27.423 Y64.900 F4800
G1 X119.577 Y64.900 E14.5590 F360
G1 X121.100 Y66.423 E0.3403
G1 X121.100 Y143.577 E12.1892
G1 X119.577 Y145.100 E0.3403
G1 X27.423 Y145.100 E14.5590
G1 X25.900 Y143.577 E0.3403
G1 X25.900 Y66.423 E12.1892
G1 X27.282 Y65.041 E0.3087
G1 X27.423 Y64.900 F360
G1 E-0.8000 F1800
G1 X122.880 Y66.423 F4800
G1 E0.8000 F1800
G1 X124.403 Y64.900 E0.3403 F360
G1 X129.557 Y64.900 E0.8142
G1 X131.080 Y66.423 E0.3403
G1 X131.080 Y105.525 E6.1775
G1 X131.574 Y105.729 E0.0844
G1 X142.870 Y94.433 E2.5238
G1 X146.080 Y95.763 E0.5489
G1 X146.080 Y143.577 E7.5540
G1 X144.557 Y145.100 E0.3403
G1 X124.403 Y145.100 E3.1840
G1 X122.880 Y143.577 E0.3403
G1 X122.880 Y66.623 E12.1576
G1 X122.880 Y66.423 F360
G1 X124.292 Y66.143 F4800
G1 X129.668 Y66.143 E0.8495 F360
G1 X130.280 Y66.754 E0.1366
G1 X130.280 Y68.429 E0.2645
G1 X123.680 Y68.429 E1.0427
G1 X123.680 Y70.714 E0.3611
G1 X130.280 Y70.714 E1.0427
G1 X130.280 Y73.000 E0.3611
G1 X123.680 Y73.000 E1.0427
G1 X123.680 Y75.286 E0.3611
G1 X130.280 Y75.286 E1.0427
G1 X130.280 Y77.571 E0.3611
G1 X123.680 Y77.571 E1.0427
G1 X123.680 Y79.857 E0.3611
G1 X130.280 Y79.857 E1.0427
G1 X130.280 Y82.143 E0.3611
G1 X123.680 Y82.143 E1.0427
G1 X123.680 Y84.429 E0.3611
G1 X130.280 Y84.429 E1.0427
G1 X130.280 Y86.714 E0.3611
G1 X123.680 Y86.714 E1.0427
G1 X123.680 Y89.000 E0.3611
G1 X130.280 Y89.000 E1.0427
G1 X130.280 Y91.286 E0.3611
G1 X123.680 Y91.286 E1.0427
G1 X123.680 Y93.571 E0.3611
G1 X130.280 Y93.571 E1.0427
G1 X130.280 Y95.857 E0.3611
G1 X123.680 Y95.857 E1.0427
G1 X123.680 Y98.143 E0.3611
G1 X130.280 Y98.143 E1.0427
G1 X130.280 Y100.429 E0.3611
G1 X123.680 Y100.429 E1.0427
G1 X123.680 Y102.714 E0.3611
G1 X130.280 Y102.714 E1.0427
G1 X130.280 Y105.000 E0.3611
G1 X123.680 Y105.000 E1.0427
G1 X123.680 Y107.286 E0.3611
G1 X145.280 Y107.286 E3.4125
G1 X145.280 Y109.571 E0.3611
G1 X123.680 Y109.571 E3.4125
G1 X123.680 Y111.857 E0.3611
G1 X145.280 Y111.857 E3.4125
G1 X145.280 Y114.143 E0.3611
G1 X123.680 Y114.143 E3.4125
G1 X123.680 Y116.429 E0.3611
G1 X145.280 Y116.429 E3.4125
G1 X145.280 Y118.714 E0.3611
G1 X123.680 Y118.714 E3.4125
G1 X123.680 Y121.000 E0.3611
G1 X145.280 Y121.000 E3.4125
G1 X145.280 Y123.286 E0.3611
G1 X123.680 Y123.286 E3.4125
G1 X123.680 Y125.571 E0.3611
G1 X145.280 Y125.571 E3.4125
G1 X145.280 Y127.857 E0.3611
G1 X123.680 Y127.857 E3.4125
G1 X123.680 Y130.143 E0.3611
G1 X145.280 Y130.143 E3.4125
G1 X145.280 Y132.429 E0.3611
G1 X123.680 Y132.429 E3.4125
G1 X123.680 Y134.714 E0.3611
G1 X145.280 Y134.714 E3.4125
G1 X145.280 Y137.000 E0.3611
G1 X123.680 Y137.000 E3.4125
G1 X123.680 Y139.286 E0.3611
G1 X145.280 Y139.286 E3.4125
G1 X145.280 Y141.571 E0.3611
G1 X123.680 Y141.571 E3.4125
G1 X123.680 Y143.246 E0.2645
G1 X124.292 Y143.857 E0.1366
G1 X144.468 Y143.857 E3.1877
G1 X144.668 Y143.857 F360
G1 E-0.8000 F1800
G1 X119.688 Y143.857 F4800
G1 E0.8000 F1800
G1 X27.312 Y143.857 E14.5942 F360
G1 X26.700 Y143.246 E0.1366
G1 X26.700 Y141.571 E0.2645
G1 X120.300 Y141.571 E14.7875
G1 X120.300 Y139.286 E0.3611
G1 X26.700 Y139.286 E14.7875
G1 X26.700 Y137.000 E0.3611
G1 X120.300 Y137.000 E14.7875
G1 X120.300 Y134.714 E0.3611
G1 X26.700 Y134.714 E14.7875
G1 X26.700 Y132.429 E0.3611
G1 X120.300 Y132.429 E14.7875
G1 X120.300 Y130.143 E0.3611
G1 X26.700 Y130.143 E14.7875
G1 X26.700 Y127.857 E0.3611
G1 X120.300 Y127.857 E14.7875
G1 X120.300 Y125.571 E0.3611
G1 X26.700 Y125.571 E14.7875
G1 X26.700 Y123.286 E0.3611
G1 X120.300 Y123.286 E14.7875
G1 X120.300 Y121.000 E0.3611
G1 X26.700 Y121.000 E14.7875
G1 X26.700 Y118.714 E0.3611
G1 X120.300 Y118.714 E14.7875
G1 X120.300 Y116.429 E0.3611
G1 X26.700 Y116.429 E14.7875
G1 X26.700 Y114.143 E0.3611
G1 X120.300 Y114.143 E14.7875
G1 X120.300 Y111.857 E0.3611
G1 X26.700 Y111.857 E14.7875
G1 X26.700 Y109.571 E0.3611
G1 X120.300 Y109.571 E14.7875
G1 X120.300 Y107.286 E0.3611
G1 X26.700 Y107.286 E14.7875
G1 X26.700 Y105.000 E0.3611
G1 X120.300 Y105.000 E14.7875
G1 X120.300 Y102.714 E0.3611
G1 X26.700 Y102.714 E14.7875
G1 X26.700 Y100.429 E0.3611
G1 X120.300 Y100.429 E14.7875
G1 X120.300 Y98.143 E0.3611
G1 X26.700 Y98.143 E14.7875
G1 X26.700 Y95.857 E0.3611
G1 X120.300 Y95.857 E14.7875
G1 X120.300 Y93.571 E0.3611
G1 X26.700 Y93.571 E14.7875
G1 X26.700 Y91.286 E0.3611
G1 X120.300 Y91.286 E14.7875
G1 X120.300 Y89.000 E0.3611
G1 X26.700 Y89.000 E14.7875
G1 X26.700 Y86.714 E0.3611
G1 X120.300 Y86.714 E14.7875
G1 X120.300 Y84.429 E0.3611
G1 X26.700 Y84.429 E14.7875
G1 X26.700 Y82.143 E0.3611
G1 X120.300 Y82.143 E14.7875
G1 X120.300 Y79.857 E0.3611
G1 X26.700 Y79.857 E14.7875
G1 X26.700 Y77.571 E0.3611
G1 X120.300 Y77.571 E14.7875
G1 X120.300 Y75.286 E0.3611
G1 X26.700 Y75.286 E14.7875
G1 X26.700 Y73.000 E0.3611
G1 X120.300 Y73.000 E14.7875
G1 X120.300 Y70.714 E0.3611
G1 X26.700 Y70.714 E14.7875
G1 X26.700 Y68.429 E0.3611
G1 X120.300 Y68.429 E14.7875
G1 X120.300 Y66.754 E0.2645
G1 X119.688 Y66.143 E0.1366
G1 X27.511 Y66.143 E14.5626
G1 X27.311 Y66.143 F360
G1 E-0.8000 F1800
G1 X142.577 Y95.857 F4800
G1 E0.8000 F1800
G1 X144.217 Y95.857 E0.2591 F360
G1 X145.280 Y96.297 E0.1817
G1 X145.280 Y98.143 E0.2916
G1 X140.292 Y98.143 E0.7881
G1 X138.006 Y100.429 E0.5107
G1 X145.280 Y100.429 E1.1492
G1 X145.280 Y102.714 E0.3611
G1 X135.720 Y102.714 E1.5103
G1 X133.434 Y105.000 E0.5107
G1 X145.080 Y105.000 E1.8398
G1 X145.280 Y105.000 F360
G1 E-0.8000 F1800
; layer 2, Z = 0.830
M104 S200 T0
M106 S255
; tool H0.500 W0.800
G1 X146.080 Y95.763 F4800
G1 Z0.830 F1000
G1 E0.8000 F1800
G1 X146.080 Y143.577 E7.9515 F600
G1 X144.557 Y145.100 E0.3582
G1 X124.403 Y145.100 E3.3516
G1 X122.880 Y143.577 E0.3582
G1 X122.880 Y66.423 E12.8307
G1 X124.403 Y64.900 E0.3582
G1 X129.557 Y64.900 E0.8571
G1 X131.080 Y66.423 E0.3582
G1 X131.080 Y105.525 E6.5026
G1 X131.574 Y105.729 E0.0889
G1 X142.870 Y94.433 E2.6567
G1 X145.895 Y95.686 E0.5446
G1 X146.080 Y95.763 F600
G1 E-0.8000 F1800
G1 X121.100 Y66.423 F4800
G1 E0.8000 F1800
G1 X121.100 Y143.577 E12.8307 F600
G1 X119.577 Y145.100 E0.3582
G1 X27.423 Y145.100 E15.3253
G1 X25.900 Y143.577 E0.3582
G1 X25.900 Y66.423 E12.8307
G1 X27.423 Y64.900 E0.3582
G1 X119.577 Y64.900 E15.3253
G1 X120.959 Y66.282 E0.3249
G1 X121.100 Y66.423 F600
G1 E-0.8000 F1800
G1 X124.292 Y66.143 F4800
G1 E0.8000 F1800
G1 X129.668 Y66.143 E0.8942 F600
G1 X130.280 Y66.754 E0.1438
G1 X130.280 Y68.429 E0.2784
G1 X123.680 Y68.429 E1.0976
G1 X123.680 Y70.714 E0.3801
G1 X130.280 Y70.714 E1.0976
G1 X130.280 Y73.000 E0.3801
G1 X123.680 Y73.000 E1.0976
G1 X123.680 Y75.286 E0.3801
G1 X130.280 Y75.286 E1.0976
G1 X130.280 Y77.571 E0.3801
G1 X123.680 Y77.571 E1.0976
G1 X123.680 Y79.857 E0.3801
G1 X130.280 Y79.857 E1.0976
G1 X130.280 Y82.143 E0.3801
G1 X123.680 Y82.143 E1.0976
G1 X123.680 Y84.429 E0.3801
G1 X130.280 Y84.429 E1.0976
G1 X130.280 Y86.714 E0.3801
G1 X123.680 Y86.714 E1.0976
G1 X123.680 Y89.000 E0.3801
G1 X130.280 Y89.000 E1.0976
G1 X130.280 Y91.286 E0.3801
G1 X123.680 Y91.286 E1.0976
G1 X123.680 Y93.571 E0.3801
G1 X130.280 Y93.571 E1.0976
G1 X130.280 Y95.857 E0.3801
G1 X123.680 Y95.857 E1.0976
G1 X123.680 Y98.143 E0.3801
G1 X130.280 Y98.143 E1.0976
G1 X130.280 Y100.429 E0.3801
G1 X123.680 Y100.429 E1.0976
G1 X123.680 Y102.714 E0.3801
G1 X130.280 Y102.714 E1.0976
G1 X130.280 Y105.000 E0.3801
G1 X123.680 Y105.000 E1.0976
G1 X123.680 Y107.286 E0.3801
G1 X145.280 Y107.286 E3.5921
G1 X145.280 Y109.571 E0.3801
G1 X123.680 Y109.571 E3.5921
G1 X123.680 Y111.857 E0.3801
G1 X145.280 Y111.857 E3.5921
G1 X145.280 Y114.143 E0.3801
G1 X123.680 Y114.143 E3.5921
G1 X123.680 Y116.429 E0.3801
G1 X145.280 Y116.429 E3.5921
G1 X145.280 Y118.714 E0.3801
G1 X123.680 Y118.714 E3.5921
G1 X123.680 Y121.000 E0.3801
G1 X145.280 Y121.000 E3.5921
G1 X145.280 Y123.286 E0.3801
G1 X123.680 Y123.286 E3.5921
G1 X123.680 Y125.571 E0.3801
G1 X145.280 Y125.571 E3.5921
G1 X145.280 Y127.857 E0.3801
G1 X123.680 Y127.857 E3.5921
G1 X123.680 Y130.143 E0.3801
G1 X145.280 Y130.143 E3.5921
G1 X145.280 Y132.429 E0.3801
G1 X123.680 Y132.429 E3.5921
G1 X123.680 Y134.714 E0.3801
G1 X145.280 Y134.714 E3.5921
G1 X145.280 Y137.000 E0.3801
G1 X123.680 Y137.000 E3.5921
G1 X123.680 Y139.286 E0.3801
G1 X145.280 Y139.286 E3.5921
G1 X145.280 Y141.571 E0.3801
G1 X123.680 Y141.571 E3.5921
G1 X123.680 Y143.246 E0.2784
G1 X124.292 Y143.857 E0.1438
G1 X144.468 Y143.857 E3.3554
G1 X144.668 Y143.857 F600
G1 E-0.8000 F1800
G1 X119.688 Y143.857 F4800
G1 E0.8000 F1800
G1 X27.312 Y143.857 E15.3623 F600
G1 X26.700 Y143.246 E0.1438
G1 X26.700 Y141.571 E0.2784
G1 X120.300 Y141.571 E15.5658
G1 X120.300 Y139.286 E0.3801
G1 X26.700 Y139.286 E15.5658
G1 X26.700 Y137.000 E0.3801
