; G-Code generated by Simplify3D(R) Version 4.0.0
; Feb 20, 2018 at 6:10:46 PM
; Settings Summary
;   processName,Process1
;   applyToModels,gauge_holder
;   profileName,Original Prusa i3 MK2 RC4 (modified)
;   profileVersion,2016-08-30 14:21:19
;   baseProfile,Prusa Mendel (modified)
;   printMaterial,PLA
;   printQuality,FAST 0.3mm
;   printExtruders,
;   extruderName,Primary Extruder
;   extruderToolheadNumber,0
;   extruderDiameter,0.4
;   extruderAutoWidth,0
;   extruderWidth,0.45
;   extrusionMultiplier,1
;   extruderUseRetract,1
;   extruderRetractionDistance,0.8
;   extruderExtraRestartDistance,0
;   extruderRetractionZLift,0
;   extruderRetractionSpeed,1800
;   extruderUseCoasting,1
;   extruderCoastingDistance,0.2
;   extruderUseWipe,1
;   extruderWipeDistance,2
;   primaryExtruder,0
;   layerHeight,0.3
;   topSolidLayers,3
;   bottomSolidLayers,3
;   perimeterOutlines,2
;   printPerimetersInsideOut,1
;   startPointOption,2
;   startPointOriginX,0
;   startPointOriginY,0
;   sequentialIslands,0
;   spiralVaseMode,0
;   firstLayerHeightPercentage,66
;   firstLayerWidthPercentage,95
;   firstLayerUnderspeed,0.6
;   useRaft,1
;   raftExtruder,0
;   raftTopLayers,3
;   raftBaseLayers,2
;   raftOffset,3
;   raftSeparationDistance,0.25
;   raftTopInfill,90
;   aboveRaftSpeedMultiplier,0.3
;   useSkirt,1
;   skirtExtruder,0
;   skirtLayers,1
;   skirtOutlines,1
;   skirtOffset,1.8
;   usePrimePillar,0
;   primePillarExtruder,999
;   primePillarWidth,12
;   primePillarLocation,7
;   primePillarSpeedMultiplier,1
;   useOozeShield,0
;   oozeShieldExtruder,999
;   oozeShieldOffset,2
;   oozeShieldOutlines,1
;   oozeShieldSidewallShape,1
;   oozeShieldSidewallAngle,30
;   oozeShieldSpeedMultiplier,1
;   infillExtruder,0
;   internalInfillPattern,Grid
;   externalInfillPattern,Rectilinear
;   infillPercentage,20
;   outlineOverlapPercentage,21
;   infillExtrusionWidthPercentage,100
;   minInfillLength,2
;   infillLayerInterval,1
;   internalInfillAngles,45,-45
;   overlapInternalInfillAngles,1
;   externalInfillAngles,45,-45
;   generateSupport,1
;   supportExtruder,0
;   supportInfillPercentage,30
;   supportExtraInflation,1.4
;   supportBaseLayers,0
;   denseSupportExtruder,0
;   denseSupportLayers,0
;   denseSupportInfillPercentage,70
;   supportLayerInterval,1
;   supportHorizontalPartOffset,0.2
;   supportUpperSeparationLayers,1
;   supportLowerSeparationLayers,1
;   supportType,0
;   supportGridSpacing,4
;   maxOverhangAngle,45
;   supportAngles,0
;   temperatureName,Primary Extruder,Heated Bed
;   temperatureNumber,0,1
;   temperatureSetpointCount,2,1
;   temperatureSetpointLayers,1,2,1
;   temperatureSetpointTemperatures,215,200,55
;   temperatureStabilizeAtStartup,1,1
;   temperatureHeatedBed,0,1
;   temperatureRelayBetweenLayers,0,0
;   temperatureRelayBetweenLoops,0,0
;   fanLayers,1,2
;   fanSpeeds,0,100
;   blipFanToFullPower,1
;   adjustSpeedForCooling,1
;   minSpeedLayerTime,15
;   minCoolingSpeedSlowdown,5
;   increaseFanForCooling,0
;   minFanLayerTime,45
;   maxCoolingFanSpeed,100
;   increaseFanForBridging,1
;   bridgingFanSpeed,100
;   use5D,1
;   relativeEdistances,1
;   allowEaxisZeroing,1
;   independentExtruderAxes,0
;   includeM10123,0
;   stickySupport,1
;   applyToolheadOffsets,0
;   gcodeXoffset,0
;   gcodeYoffset,0
;   gcodeZoffset,0
;   overrideMachineDefinition,1
;   machineTypeOverride,0
;   strokeXoverride,250
;   strokeYoverride,210
;   strokeZoverride,200
;   originOffsetXoverride,0
;   originOffsetYoverride,0
;   originOffsetZoverride,0
;   homeXdirOverride,-1
;   homeYdirOverride,-1
;   homeZdirOverride,-1
;   flipXoverride,1
;   flipYoverride,-1
;   flipZoverride,1
;   toolheadOffsets,0,0|0,0|0,0|0,0|0,0|0,0
;   overrideFirmwareConfiguration,0
;   firmwareTypeOverride,RepRap (Marlin/Repetier/Sprinter)
;   GPXconfigOverride,r2
;   baudRateOverride,250000
;   overridePrinterModels,1
;   printerModelsOverride
;   startingGcode,M115 U3.0.7 ; tell the printer latest firmware varsion available,G28 W ; home all without mesh bed level,G80 ; mesh bed leveling,G1 Y-3.0 F1000.0 ; go outside printing area,G1 X60.0 E9.0  F1000.0 ; intro line,G1 X100.0 E12.5  F1000.0 ; intro line
;   layerChangeGcode,
;   retractionGcode,
;   toolChangeGcode,
;   endingGcode,M104 S0 ; turn off temperature,M140 S0 ; turn off heatbed,M107 ; turn off fan,G1 X0 Y200; home X axis,M84 ; disable motors
;   exportFileFormat,gcode
;   celebration,0
;   celebrationSong,Random Song
;   postProcessing,{REPLACE "; outer perimeter\n" "; outer perimeter\nM204 S600\n"},{REPLACE "; inner perimeter\n" "; inner perimeter\nM204 S1200\n"},{REPLACE "; solid layer\n" "; solid layer\nM204 S1500\n"},{REPLACE "; infill\n" "; infill\nM204 S2000\n"}
;   defaultSpeed,2400
;   outlineUnderspeed,1
;   solidInfillUnderspeed,0.8
;   supportUnderspeed,0.8
;   rapidXYspeed,4800
;   rapidZspeed,1000
;   minBridgingArea,50
;   bridgingExtraInflation,1
;   bridgingExtrusionMultiplier,1
;   bridgingSpeedMultiplier,1
;   useFixedBridgingAngle,0
;   fixedBridgingAngle,0
;   applyBridgingToPerimeters,0
;   filamentDiameters,1.75|1.75|1.75|1.75|1.75|1.75
;   filamentPricesPerKg,215|215|215|215|215|215
;   filamentDensities,1.25|1.25|1.25|1.25|1.25|1.25
;   useMinPrintHeight,0
;   minPrintHeight,0
;   useMaxPrintHeight,0
;   maxPrintHeight,35
;   useDiaphragm,0
;   diaphragmLayerInterval,20
;   robustSlicing,1
;   mergeAllIntoSolid,0
;   onlyRetractWhenCrossingOutline,0
;   retractBetweenLayers,1
;   useRetractionMinTravel,1
;   retractionMinTravel,3
;   retractWhileWiping,1
;   onlyWipeOutlines,1
;   avoidCrossingOutline,0
;   maxMovementDetourFactor,3
;   toolChangeRetractionDistance,12
;   toolChangeExtraRestartDistance,-0.5
;   toolChangeRetractionSpeed,600
;   externalThinWallType,0
;   internalThinWallType,2
;   thinWallAllowedOverlapPercentage,25
;   singleExtrusionMinLength,1
;   singleExtrusionMinPrintingWidthPercentage,50
;   singleExtrusionMaxPrintingWidthPercentage,200
;   singleExtrusionEndpointExtension,0.2
;   horizontalSizeCompensation,0
G90
M83
M106 S255
G4 P500
M106 S0
M140 S55
M190 S55
M104 S215 T0
M109 S215 T0
M115 U3.0.7 ; tell the printer latest firmware varsion available
G28 W ; home all without mesh bed level
G80 ; mesh bed leveling
G1 Y-3.0 F1000.0 ; go outside printing area
G1 X60.0 E9.0  F1000.0 ; intro line
G1 X100.0 E12.5  F1000.0 ; intro line
G1 E-0.8000 F1800
G1 Z0.330 F1000
; process Process1
; layer 1, Z = 0.330
T0
; tool H0.500 W0.428
; skirt
G1 X121.009 Y65.384 F4800
G1 E0.8000 F540
G1 X123.884 Y62.509 E0.3613 F1440
G1 X123.967 Y62.475 E0.0080
G1 X131.033 Y62.475 E0.6279
G1 X131.116 Y62.509 E0.0080
G1 X133.991 Y65.384 E0.3613
G1 X134.025 Y65.467 E0.0080
G1 X134.025 Y100.369 E3.1016
G1 X142.763 Y91.631 E1.0982
G1 X142.897 Y91.604 E0.0121
G1 X148.949 Y94.111 E0.5822
G1 X149.025 Y94.224 E0.0121
G1 X149.025 Y144.533 E4.4708
G1 X148.991 Y144.616 E0.0080
G1 X146.116 Y147.491 E0.3613
G1 X146.033 Y147.525 E0.0080
G1 X128.001 Y147.525 E1.6024
G1 X127.916 Y147.611 E0.0108
G1 X127.833 Y147.645 E0.0080
G1 X107.347 Y147.645 E1.8205
G1 X107.264 Y147.611 E0.0080
G1 X104.389 Y144.736 E0.3613
G1 X104.355 Y144.653 E0.0080
G1 X104.355 Y133.347 E1.0047
G1 X104.389 Y133.264 E0.0080
G1 X107.264 Y130.389 E0.3613
G1 X107.347 Y130.355 E0.0080
G1 X120.975 Y130.355 E1.2111
G1 X120.975 Y65.578 E5.7566
G1 X120.975 Y65.467 F1440
G1 X121.009 Y65.384 F1440
; tool H0.500 W0.760
; raft
G1 X123.400 Y66.423 F4800
G1 X124.923 Y64.900 E0.3403 F360
G1 X130.077 Y64.900 E0.8142
G1 X131.600 Y66.423 E0.3403
G1 X131.600 Y105.525 E6.1775
G1 X132.094 Y105.729 E0.0844
G1 X143.390 Y94.433 E2.5238
G1 X146.600 Y95.763 E0.5489
G1 X146.600 Y143.577 E7.5540
G1 X145.077 Y145.100 E0.3403
G1 X126.997 Y145.100 E2.8564
G1 X126.877 Y145.220 E0.0268
G1 X108.303 Y145.220 E2.9344
G1 X106.780 Y143.697 E0.3403
G1 X106.780 Y134.303 E1.4841
G1 X108.303 Y132.780 E0.3403
G1 X123.400 Y132.780 E2.3851
G1 X123.400 Y66.623 E10.4518
G1 X123.400 Y66.423 F360
G1 X124.812 Y66.143 F4800
G1 X130.188 Y66.143 E0.8495 F360
G1 X130.800 Y66.754 E0.1366
G1 X130.800 Y68.429 E0.2645
G1 X124.200 Y68.429 E1.0427
G1 X124.200 Y70.714 E0.3611
G1 X130.800 Y70.714 E1.0427
G1 X130.800 Y73.000 E0.3611
G1 X124.200 Y73.000 E1.0427
G1 X124.200 Y75.286 E0.3611
G1 X130.800 Y75.286 E1.0427
G1 X130.800 Y77.571 E0.3611
G1 X124.200 Y77.571 E1.0427
G1 X124.200 Y79.857 E0.3611
G1 X130.800 Y79.857 E1.0427
G1 X130.800 Y82.143 E0.3611
G1 X124.200 Y82.143 E1.0427
G1 X124.200 Y84.429 E0.3611
G1 X130.800 Y84.429 E1.0427
G1 X130.800 Y86.714 E0.3611
G1 X124.200 Y86.714 E1.0427
G1 X124.200 Y89.000 E0.3611
G1 X130.800 Y89.000 E1.0427
G1 X130.800 Y91.286 E0.3611
G1 X124.200 Y91.286 E1.0427
G1 X124.200 Y93.571 E0.3611
G1 X130.800 Y93.571 E1.0427
G1 X130.800 Y95.857 E0.3611
G1 X124.200 Y95.857 E1.0427
G1 X124.200 Y98.143 E0.3611
G1 X130.800 Y98.143 E1.0427
G1 X130.800 Y100.429 E0.3611
G1 X124.200 Y100.429 E1.0427
G1 X124.200 Y102.714 E0.3611
G1 X130.800 Y102.714 E1.0427
G1 X130.800 Y105.000 E0.3611
G1 X124.200 Y105.000 E1.0427
G1 X124.200 Y107.286 E0.3611
G1 X145.800 Y107.286 E3.4125
G1 X145.800 Y109.571 E0.3611
G1 X124.200 Y109.571 E3.4125
G1 X124.200 Y111.857 E0.3611
G1 X145.800 Y111.857 E3.4125
G1 X145.800 Y114.143 E0.3611
G1 X124.200 Y114.143 E3.4125
G1 X124.200 Y116.429 E0.3611
G1 X145.800 Y116.429 E3.4125
G1 X145.800 Y118.714 E0.3611
G1 X124.200 Y118.714 E3.4125
G1 X124.200 Y121.000 E0.3611
G1 X145.800 Y121.000 E3.4125
G1 X145.800 Y123.286 E0.3611
G1 X124.200 Y123.286 E3.4125
G1 X124.200 Y125.571 E0.3611
G1 X145.800 Y125.571 E3.4125
G1 X145.800 Y127.857 E0.3611
G1 X124.200 Y127.857 E3.4125
G1 X124.200 Y130.143 E0.3611
G1 X145.800 Y130.143 E3.4125
G1 X145.800 Y132.429 E0.3611
G1 X124.200 Y132.429 E3.4125
G1 X124.200 Y133.580 E0.1819
G1 X108.634 Y133.580 E2.4591
G1 X107.580 Y134.634 E0.2356
G1 X107.580 Y134.714 E0.0126
G1 X145.800 Y134.714 E6.0382
G1 X145.800 Y137.000 E0.3611
G1 X107.580 Y137.000 E6.0382
G1 X107.580 Y139.286 E0.3611
G1 X145.800 Y139.286 E6.0382
G1 X145.800 Y141.571 E0.3611
G1 X107.580 Y141.571 E6.0382
G1 X107.580 Y143.366 E0.2834
G1 X108.072 Y143.857 E0.1098
G1 X144.988 Y143.857 E5.8323
G1 X145.188 Y143.857 F360
G1 E-0.8000 F1800
G1 X145.800 Y105.000 F4800
G1 E0.8000 F1800
G1 X133.954 Y105.000 E1.8714 F360
G1 X136.240 Y102.714 E0.5107
G1 X145.800 Y102.714 E1.5103
G1 X145.800 Y100.429 E0.3611
G1 X138.526 Y100.429 E1.1492
G1 X140.812 Y98.143 E0.5107
G1 X145.800 Y98.143 E0.7881
G1 X145.800 Y96.297 E0.2916
G1 X144.737 Y95.857 E0.1817
G1 X143.297 Y95.857 E0.2275
G1 X143.097 Y95.857 F360
G1 E-0.8000 F1800
; layer 2, Z = 0.830
M104 S200 T0
M106 S255
; tool H0.500 W0.800
G1 X143.390 Y94.433 F4800
G1 Z0.830 F1000
G1 E0.8000 F1800
G1 X146.600 Y95.763 E0.5778 F600
G1 X146.600 Y143.577 E7.9515
G1 X145.077 Y145.100 E0.3582
G1 X126.997 Y145.100 E3.0067
G1 X126.877 Y145.220 E0.0282
G1 X108.303 Y145.220 E3.0889
G1 X106.780 Y143.697 E0.3582
G1 X106.780 Y134.303 E1.5622
G1 X108.303 Y132.780 E0.3582
G1 X123.400 Y132.780 E2.5106
G1 X123.400 Y66.423 E11.0352
G1 X124.923 Y64.900 E0.3582
G1 X130.077 Y64.900 E0.8571
G1 X131.600 Y66.423 E0.3582
G1 X131.600 Y105.525 E6.5026
G1 X132.094 Y105.729 E0.0889
G1 X143.249 Y94.575 E2.6234
G1 X143.390 Y94.433 F600
G1 X143.097 Y95.857 F4800
G1 X144.737 Y95.857 E0.2728 F600
G1 X145.800 Y96.297 E0.1913
G1 X145.800 Y98.143 E0.3069
G1 X140.812 Y98.143 E0.8296
G1 X138.526 Y100.429 E0.5376
G1 X145.800 Y100.429 E1.2097
G1 X145.800 Y102.714 E0.3801
G1 X136.240 Y102.714 E1.5898
G1 X133.954 Y105.000 E0.5376
G1 X145.600 Y105.000 E1.9367
G1 X145.800 Y105.000 F600
G1 E-0.8000 F1800
G1 X145.188 Y143.857 F4800
G1 E0.8000 F1800
G1 X108.072 Y143.857 E6.1726 F600
G1 X107.580 Y143.366 E0.1156
G1 X107.580 Y141.571 E0.2984
G1 X145.800 Y141.571 E6.3560
G1 X145.800 Y139.286 E0.3801
G1 X107.580 Y139.286 E6.3560
G1 X107.580 Y137.000 E0.3801
G1 X145.800 Y137.000 E6.3560
G1 X145.800 Y134.714 E0.3801
G1 X107.580 Y134.714 E6.3560
G1 X107.580 Y134.634 E0.0133
G1 X108.634 Y133.580 E0.2480
G1 X124.200 Y133.580 E2.5886
G1 X124.200 Y132.429 E0.1915
G1 X145.800 Y132.429 E3.5921
G1 X145.800 Y130.143 E0.3801
G1 X124.200 Y130.143 E3.5921
G1 X124.200 Y127.857 E0.3801
G1 X145.800 Y127.857 E3.5921
G1 X145.800 Y125.571 E0.3801
G1 X124.200 Y125.571 E3.5921
G1 X124.200 Y123.286 E0.3801
G1 X145.800 Y123.286 E3.5921
G1 X145.800 Y121.000 E0.3801
G1 X124.200 Y121.000 E3.5921
G1 X124.200 Y118.714 E0.3801
G1 X145.800 Y118.714 E3.5921
G1 X145.800 Y116.429 E0.3801
G1 X124.200 Y116.429 E3.5921
G1 X124.200 Y114.143 E0.3801
G1 X145.800 Y114.143 E3.5921
G1 X145.800 Y111.857 E0.3801
G1 X124.200 Y111.857 E3.5921
G1 X124.200 Y109.571 E0.3801
G1 X145.800 Y109.571 E3.5921
G1 X145.800 Y107.286 E0.3801
G1 X124.200 Y107.286 E3.5921
G1 X124.200 Y105.000 E0.3801
G1 X130.800 Y105.000 E1.0976
G1 X130.800 Y102.714 E0.3801
G1 X124.200 Y102.714 E1.0976
G1 X124.200 Y100.429 E0.3801
G1 X130.800 Y100.429 E1.0976
G1 X130.800 Y98.143 E0.3801
G1 X124.200 Y98.143 E1.0976
G1 X124.200 Y95.857 E0.3801
G1 X130.800 Y95.857 E1.0976
G1 X130.800 Y93.571 E0.3801
G1 X124.200 Y93.571 E1.0976
G1 X124.200 Y91.286 E0.3801
G1 X130.800 Y91.286 E1.0976
G1 X130.800 Y89.000 E0.3801
G1 X124.200 Y89.000 E1.0976
G1 X124.200 Y86.714 E0.3801
G1 X130.800 Y86.714 E1.0976
G1 X130.800 Y84.429 E0.3801
G1 X124.200 Y84.429 E1.0976
G1 X124.200 Y82.143 E0.3801
G1 X130.800 Y82.143 E1.0976
G1 X130.800 Y79.857 E0.3801
G1 X124.200 Y79.857 E1.0976
G1 X124.200 Y77.571 E0.3801
G1 X130.800 Y77.571 E1.0976
G1 X130.800 Y75.286 E0.3801
G1 X124.200 Y75.286 E1.0976
G1 X124.200 Y73.000 E0.3801
G1 X130.800 Y73.000 E1.0976
G1 X130.800 Y70.714 E0.3801
G1 X124.200 Y70.714 E1.0976
G1 X124.200 Y68.429 E0.3801
G1 X130.800 Y68.429 E1.0976
G1 X130.800 Y66.754 E0.2784
G1 X130.188 Y66.143 E0.1438
G1 X125.012 Y66.143 E0.8609
G1 X124.812 Y66.143 F600
G1 E-0.8000 F1800
; layer 3, Z = 1.052
; tool H0.222 W0.400
G1 X123.200 Y66.574 F4800
G1 Z1.052 F1000
G1 E0.8000 F1800
G1 X125.074 Y64.700 E0.0979 F1800
G1 X125.702 Y64.700 E0.0232
G1 X123.200 Y67.202 E0.1308
G1 X123.200 Y67.831 E0.0232
G1 X126.331 Y64.700 E0.1636
G1 X126.959 Y64.700 E0.0232
G1 X123.200 Y68.459 E0.1965
G1 X123.200 Y69.088 E0.0232
G1 X127.588 Y64.700 E0.2293
G1 X128.216 Y64.700 E0.0232
G1 X123.200 Y69.716 E0.2622
G1 X123.200 Y70.345 E0.0232
G1 X128.845 Y64.700 E0.2950
G1 X129.473 Y64.700 E0.0232
G1 X123.200 Y70.973 E0.3279
G1 X123.200 Y71.602 E0.0232
G1 X130.102 Y64.700 E0.3607
G1 X130.160 Y64.700 E0.0021
G1 X130.445 Y64.985 E0.0149
G1 X123.200 Y72.230 E0.3787
G1 X123.200 Y72.859 E0.0232
G1 X130.759 Y65.300 E0.3951
G1 X131.074 Y65.614 E0.0164
G1 X123.200 Y73.487 E0.4115
G1 X123.200 Y74.116 E0.0232
G1 X131.388 Y65.928 E0.4279
G1 X131.702 Y66.242 E0.0164
G1 X123.200 Y74.745 E0.4444
G1 X123.200 Y75.373 E0.0232
G1 X131.800 Y66.773 E0.4495
G1 X131.800 Y67.402 E0.0232
G1 X123.200 Y76.002 E0.4495
G1 X123.200 Y76.630 E0.0232
G1 X131.800 Y68.030 E0.4495
G1 X131.800 Y68.659 E0.0232
G1 X123.200 Y77.259 E0.4495
G1 X123.200 Y77.887 E0.0232
G1 X131.800 Y69.287 E0.4495
G1 X131.800 Y69.916 E0.0232
G1 X123.200 Y78.516 E0.4495
G1 X123.200 Y79.144 E0.0232
G1 X131.800 Y70.544 E0.4495
G1 X131.800 Y71.173 E0.0232
G1 X123.200 Y79.773 E0.4495
G1 X123.200 Y80.401 E0.0232
G1 X131.800 Y71.801 E0.4495
G1 X131.800 Y72.430 E0.0232
G1 X123.200 Y81.030 E0.4495
G1 X123.200 Y81.658 E0.0232
G1 X131.800 Y73.058 E0.4495
G1 X131.800 Y73.687 E0.0232
G1 X123.200 Y82.287 E0.4495
G1 X123.200 Y82.916 E0.0232
G1 X131.800 Y74.316 E0.4495
G1 X131.800 Y74.944 E0.0232
G1 X123.200 Y83.544 E0.4495
G1 X123.200 Y84.173 E0.0232
G1 X131.800 Y75.573 E0.4495
G1 X131.800 Y76.201 E0.0232
G1 X123.200 Y84.801 E0.4495
G1 X123.200 Y85.430 E0.0232
G1 X131.800 Y76.830 E0.4495
G1 X131.800 Y77.458 E0.0232
G1 X123.200 Y86.058 E0.4495
G1 X123.200 Y86.687 E0.0232
G1 X131.800 Y78.087 E0.4495
G1 X131.800 Y78.715 E0.0232
G1 X123.200 Y87.315 E0.4495
G1 X123.200 Y87.944 E0.0232
G1 X131.800 Y79.344 E0.4495
G1 X131.800 Y79.972 E0.0232
G1 X123.200 Y88.572 E0.4495
G1 X123.200 Y89.201 E0.0232
G1 X131.800 Y80.601 E0.4495
G1 X131.800 Y81.229 E0.0232
G1 X123.200 Y89.829 E0.4495
G1 X123.200 Y90.458 E0.0232
