; G-Code generated by Simplify3D(R) Version 4.0.0
; Jan 20, 2018 at 2:19:35 PM
; Settings Summary
;   processName,Process1
;   applyToModels,generic_holder
;   profileName,i3mk2s slow speed (modified)
;   profileVersion,2017-07-25 08:31:18
;   baseProfile,Prusa Research Original Prusa i3 MK2 (modified)
;   printMaterial,PLA
;   printQuality,Fast
;   printExtruders,
;   extruderName,Primary Extruder
;   extruderToolheadNumber,0
;   extruderDiameter,0.4
;   extruderAutoWidth,1
;   extruderWidth,0.48
;   extrusionMultiplier,1
;   extruderUseRetract,1
;   extruderRetractionDistance,4
;   extruderExtraRestartDistance,0
;   extruderRetractionZLift,0
;   extruderRetractionSpeed,1800
;   extruderUseCoasting,1
;   extruderCoastingDistance,0.2
;   extruderUseWipe,1
;   extruderWipeDistance,2
;   primaryExtruder,0
;   layerHeight,0.3
;   topSolidLayers,4
;   bottomSolidLayers,4
;   perimeterOutlines,4
;   printPerimetersInsideOut,1
;   startPointOption,1
;   startPointOriginX,0
;   startPointOriginY,0
;   sequentialIslands,0
;   spiralVaseMode,0
;   firstLayerHeightPercentage,110
;   firstLayerWidthPercentage,100
;   firstLayerUnderspeed,0.5
;   useRaft,1
;   raftExtruder,0
;   raftTopLayers,2
;   raftBaseLayers,1
;   raftOffset,3
;   raftSeparationDistance,0.25
;   raftTopInfill,40
;   aboveRaftSpeedMultiplier,0.9
;   useSkirt,1
;   skirtExtruder,0
;   skirtLayers,1
;   skirtOutlines,2
;   skirtOffset,4
;   usePrimePillar,0
;   primePillarExtruder,999
;   primePillarWidth,12
;   primePillarLocation,7
;   primePillarSpeedMultiplier,1
;   useOozeShield,0
;   oozeShieldExtruder,999
;   oozeShieldOffset,2
;   oozeShieldOutlines,1
;   oozeShieldSidewallShape,1
;   oozeShieldSidewallAngle,30
;   oozeShieldSpeedMultiplier,1
;   infillExtruder,0
;   internalInfillPattern,Fast Honeycomb
;   externalInfillPattern,Rectilinear
;   infillPercentage,10
;   outlineOverlapPercentage,20
;   infillExtrusionWidthPercentage,100
;   minInfillLength,5
;   infillLayerInterval,1
;   internalInfillAngles,0
;   overlapInternalInfillAngles,0
;   externalInfillAngles,45,-45
;   generateSupport,1
;   supportExtruder,0
;   supportInfillPercentage,20
;   supportExtraInflation,0
;   supportBaseLayers,0
;   denseSupportExtruder,0
;   denseSupportLayers,1
;   denseSupportInfillPercentage,15
;   supportLayerInterval,1
;   supportHorizontalPartOffset,0.3
;   supportUpperSeparationLayers,1
;   supportLowerSeparationLayers,1
;   supportType,0
;   supportGridSpacing,4
;   maxOverhangAngle,45
;   supportAngles,0
;   temperatureName,Primary Extruder,Heated Bed
;   temperatureNumber,0,0
;   temperatureSetpointCount,1,1
;   temperatureSetpointLayers,1,1
;   temperatureSetpointTemperatures,215,60
;   temperatureStabilizeAtStartup,1,1
;   temperatureHeatedBed,0,1
;   temperatureRelayBetweenLayers,0,0
;   temperatureRelayBetweenLoops,0,0
;   fanLayers,1,4,6
;   fanSpeeds,0,100,60
;   blipFanToFullPower,0
;   adjustSpeedForCooling,1
;   minSpeedLayerTime,15
;   minCoolingSpeedSlowdown,20
;   increaseFanForCooling,0
;   minFanLayerTime,45
;   maxCoolingFanSpeed,100
;   increaseFanForBridging,0
;   bridgingFanSpeed,100
;   use5D,1
;   relativeEdistances,0
;   allowEaxisZeroing,1
;   independentExtruderAxes,0
;   includeM10123,0
;   stickySupport,1
;   applyToolheadOffsets,0
;   gcodeXoffset,0
;   gcodeYoffset,0
;   gcodeZoffset,0
;   overrideMachineDefinition,1
;   machineTypeOverride,0
;   strokeXoverride,250
;   strokeYoverride,210
;   strokeZoverride,200
;   originOffsetXoverride,0
;   originOffsetYoverride,0
;   originOffsetZoverride,0
;   homeXdirOverride,-1
;   homeYdirOverride,-1
;   homeZdirOverride,-1
;   flipXoverride,1
;   flipYoverride,-1
;   flipZoverride,1
;   toolheadOffsets,0,0|0,0|0,0|0,0|0,0|0,0
;   overrideFirmwareConfiguration,1
;   firmwareTypeOverride,RepRap (Marlin/Repetier/Sprinter)
;   GPXconfigOverride,r2
;   baudRateOverride,250000
;   overridePrinterModels,1
;   printerModelsOverride
;   startingGcode,M115 U3.0.7 ; use the latest firmware version,G28 W ; home all axes without mesh bed leveling,G80 ; run mesh bed leveling routine,G1 Y-3.0 F1000.0 ; prepare to prime,G92 E0 ; reset extrusion distance,G1 X60.0 E9.0  F1000.0 ; priming,G1 X100.0 E12.5  F1000.0 ; priming
;   layerChangeGcode,
;   retractionGcode,
;   toolChangeGcode,
;   endingGcode,M106 S0 ; turn off cooling fan,M104 S0 ; turn off extruder,M140 S0 ; turn off bed,G1 X0 Y200 ; part removal,M84 ; disable motors
;   exportFileFormat,gcode
;   celebration,0
;   celebrationSong,Random Song
;   postProcessing,
;   defaultSpeed,2000
;   outlineUnderspeed,0.8
;   solidInfillUnderspeed,0.8
;   supportUnderspeed,0.8
;   rapidXYspeed,4400
;   rapidZspeed,8000
;   minBridgingArea,50
;   bridgingExtraInflation,0
;   bridgingExtrusionMultiplier,1
;   bridgingSpeedMultiplier,1
;   useFixedBridgingAngle,0
;   fixedBridgingAngle,0
;   applyBridgingToPerimeters,0
;   filamentDiameters,1.75|1.75|1.75|1.75|1.75|1.75
;   filamentPricesPerKg,46|46|46|46|46|46
;   filamentDensities,1.25|1.25|1.25|1.25|1.25|1.25
;   useMinPrintHeight,0
;   minPrintHeight,0
;   useMaxPrintHeight,0
;   maxPrintHeight,147
;   useDiaphragm,1
;   diaphragmLayerInterval,20
;   robustSlicing,1
;   mergeAllIntoSolid,0
;   onlyRetractWhenCrossingOutline,1
;   retractBetweenLayers,1
;   useRetractionMinTravel,0
;   retractionMinTravel,3
;   retractWhileWiping,1
;   onlyWipeOutlines,1
;   avoidCrossingOutline,0
;   maxMovementDetourFactor,3
;   toolChangeRetractionDistance,12
;   toolChangeExtraRestartDistance,-0.5
;   toolChangeRetractionSpeed,600
;   externalThinWallType,0
;   internalThinWallType,2
;   thinWallAllowedOverlapPercentage,25
;   singleExtrusionMinLength,1
;   singleExtrusionMinPrintingWidthPercentage,50
;   singleExtrusionMaxPrintingWidthPercentage,200
;   singleExtrusionEndpointExtension,0.2
;   horizontalSizeCompensation,0
G90
M82
M106 S0
M140 S60
M190 S60
M104 S215 T0
M109 S215 T0
M115 U3.0.7 ; use the latest firmware version
G28 W ; home all axes without mesh bed leveling
G80 ; run mesh bed leveling routine
G1 Y-3.0 F1000.0 ; prepare to prime
G92 E0 ; reset extrusion distance
G1 X60.0 E9.0  F1000.0 ; priming
G1 X100.0 E12.5  F1000.0 ; priming
G92 E0
G1 E-4.0000 F1800
G1 Z0.550 F8000
; process Process1
; layer 1, Z = 0.550
T0
; tool H0.550 W0.480
; skirt
G1 X108.390 Y64.193 F4400
G1 E0.0000 F540
G92 E0
G1 X112.693 Y59.890 E0.6679 F1000
G1 X112.957 Y59.780 E0.6994
G1 X122.043 Y59.780 E1.6966
G1 X122.307 Y59.890 E1.7280
G1 X126.610 Y64.193 E2.3959
G1 X126.720 Y64.457 E2.4274
G1 X126.720 Y93.862 E5.6548
G1 X132.003 Y88.579 E6.4748
G1 X132.431 Y88.494 E6.5228
G1 X141.477 Y92.241 E7.5975
G1 X141.720 Y92.604 E7.6454
G1 X141.720 Y145.543 E13.4558
G1 X141.610 Y145.807 E13.4873
G1 X137.307 Y150.110 E14.1552
G1 X137.043 Y150.220 E14.1866
G1 X112.957 Y150.220 E16.8302
G1 X112.693 Y150.110 E16.8617
G1 X108.390 Y145.807 E17.5296
G1 X108.280 Y145.543 E17.5610
G1 X108.280 Y64.457 E26.4608
G1 X108.313 Y64.377 E26.4703
G1 X108.390 Y64.193 F1000
G92 E0
G1 E-4.0000 F1800
G1 X108.797 Y64.465 F4400
G1 E0.0000 F1800
G92 E0
G1 X112.965 Y60.297 E0.6470 F1000
G1 X113.053 Y60.260 E0.6574
G1 X121.947 Y60.260 E1.6337
G1 X122.035 Y60.297 E1.6442
G1 X126.203 Y64.465 E2.2911
G1 X126.240 Y64.553 E2.3016
G1 X126.240 Y95.021 E5.6458
G1 X132.239 Y89.022 E6.5770
G1 X132.382 Y88.993 E6.5930
G1 X141.159 Y92.629 E7.6357
G1 X141.240 Y92.750 E7.6517
G1 X141.240 Y145.447 E13.4357
G1 X141.203 Y145.535 E13.4461
G1 X137.035 Y149.703 E14.0931
G1 X136.947 Y149.740 E14.1036
G1 X113.053 Y149.740 E16.7262
G1 X112.965 Y149.703 E16.7367
G1 X108.797 Y145.535 E17.3836
G1 X108.760 Y145.447 E17.3941
G1 X108.760 Y64.657 E26.2615
G1 X108.760 Y64.553 F1000
G1 X108.797 Y64.465 F1000
G92 E0
G1 E-4.0000 F1800
; tool H0.550 W0.800
; raft
G1 X113.400 Y66.423 F4400
G1 E0.0000 F1800
G92 E0
G1 X114.923 Y64.900 E0.3940 F250
G1 X120.077 Y64.900 E1.3368
G1 X121.600 Y66.423 E1.7308
G1 X121.600 Y105.525 E8.8837
G1 X122.094 Y105.729 E8.9815
G1 X133.390 Y94.433 E11.9038
G1 X136.600 Y95.763 E12.5394
G1 X136.600 Y143.577 E21.2861
G1 X135.077 Y145.100 E21.6802
G1 X114.923 Y145.100 E25.3669
G1 X113.400 Y143.577 E25.7609
G1 X113.400 Y66.623 E39.8382
G1 X113.400 Y66.423 F250
G92 E0
G1 E-4.0000 F1800
G1 X114.812 Y66.143 F4400
G1 E0.0000 F1800
G92 E0
G1 X120.188 Y66.143 E0.9836 F250
G1 X120.800 Y66.754 E1.1418
G1 X120.800 Y68.429 E1.4481
G1 X114.200 Y68.429 E2.6554
G1 X114.200 Y70.714 E3.0735
G1 X120.800 Y70.714 E4.2809
G1 X120.800 Y73.000 E4.6990
G1 X114.200 Y73.000 E5.9063
G1 X114.200 Y75.286 E6.3245
G1 X120.800 Y75.286 E7.5318
G1 X120.800 Y77.571 E7.9499
G1 X114.200 Y77.571 E9.1573
G1 X114.200 Y79.857 E9.5754
G1 X120.800 Y79.857 E10.7828
G1 X120.800 Y82.143 E11.2009
G1 X114.200 Y82.143 E12.4082
G1 X114.200 Y84.429 E12.8264
G1 X120.800 Y84.429 E14.0337
G1 X120.800 Y86.714 E14.4518
G1 X114.200 Y86.714 E15.6592
G1 X114.200 Y89.000 E16.0773
G1 X120.800 Y89.000 E17.2846
G1 X120.800 Y91.286 E17.7028
G1 X114.200 Y91.286 E18.9101
G1 X114.200 Y93.571 E19.3282
G1 X120.800 Y93.571 E20.5356
G1 X120.800 Y95.857 E20.9537
G1 X114.200 Y95.857 E22.1611
G1 X114.200 Y98.143 E22.5792
G1 X120.800 Y98.143 E23.7865
G1 X120.800 Y100.429 E24.2047
G1 X114.200 Y100.429 E25.4120
G1 X114.200 Y102.714 E25.8301
G1 X120.800 Y102.714 E27.0375
G1 X120.800 Y105.000 E27.4556
G1 X114.200 Y105.000 E28.6629
G1 X114.200 Y107.286 E29.0811
G1 X135.800 Y107.286 E33.0324
G1 X135.800 Y109.571 E33.4505
G1 X114.200 Y109.571 E37.4018
G1 X114.200 Y111.857 E37.8199
G1 X135.800 Y111.857 E41.7712
G1 X135.800 Y114.143 E42.1894
G1 X114.200 Y114.143 E46.1407
G1 X114.200 Y116.429 E46.5588
G1 X135.800 Y116.429 E50.5101
G1 X135.800 Y118.714 E50.9282
G1 X114.200 Y118.714 E54.8795
G1 X114.200 Y121.000 E55.2976
G1 X135.800 Y121.000 E59.2490
G1 X135.800 Y123.286 E59.6671
G1 X114.200 Y123.286 E63.6184
G1 X114.200 Y125.571 E64.0365
G1 X135.800 Y125.571 E67.9878
G1 X135.800 Y127.857 E68.4059
G1 X114.200 Y127.857 E72.3572
G1 X114.200 Y130.143 E72.7754
G1 X135.800 Y130.143 E76.7267
G1 X135.800 Y132.429 E77.1448
G1 X114.200 Y132.429 E81.0961
G1 X114.200 Y134.714 E81.5142
G1 X135.800 Y134.714 E85.4655
G1 X135.800 Y137.000 E85.8837
G1 X114.200 Y137.000 E89.8350
G1 X114.200 Y139.286 E90.2531
G1 X135.800 Y139.286 E94.2044
G1 X135.800 Y141.571 E94.6225
G1 X114.200 Y141.571 E98.5738
G1 X114.200 Y143.246 E98.8801
G1 X114.812 Y143.857 E99.0383
G1 X134.988 Y143.857 E102.7293
G1 X135.188 Y143.857 F250
G92 E0
G1 E-4.0000 F1800
G1 X135.800 Y105.000 F4400
G1 E0.0000 F1800
G92 E0
G1 X123.954 Y105.000 E2.1669 F250
G1 X126.240 Y102.714 E2.7582
G1 X135.800 Y102.714 E4.5070
G1 X135.800 Y100.429 E4.9252
G1 X128.526 Y100.429 E6.2558
G1 X130.812 Y98.143 E6.8472
G1 X135.800 Y98.143 E7.7597
G1 X135.800 Y96.297 E8.0973
G1 X134.737 Y95.857 E8.3077
G1 X133.297 Y95.857 E8.5712
G1 X133.097 Y95.857 F250
G92 E0
G1 E-4.0000 F1800
; layer 2, Z = 0.772
; tool H0.222 W0.400
G1 X134.458 Y94.659 F4400
G1 Z0.772 F8000
G1 E0.0000 F1800
G92 E0
G1 X136.800 Y97.001 E0.1224 F1500
G1 X136.800 Y98.415 E0.1747
G1 X132.962 Y94.578 E0.3752
G1 X132.255 Y95.285 E0.4122
G1 X136.800 Y99.829 E0.6497
G1 X136.800 Y101.244 E0.7020
G1 X131.548 Y95.992 E0.9764
G1 X130.841 Y96.699 E1.0134
G1 X136.800 Y102.658 E1.3248
G1 X136.800 Y104.072 E1.3771
G1 X130.134 Y97.406 E1.7255
G1 X129.427 Y98.113 E1.7624
G1 X136.800 Y105.486 E2.1478
G1 X136.800 Y106.900 E2.2000
G1 X128.720 Y98.820 E2.6223
G1 X128.013 Y99.527 E2.6593
G1 X136.800 Y108.315 E3.1185
G1 X136.800 Y109.729 E3.1708
G1 X127.306 Y100.235 E3.6670
G1 X126.599 Y100.942 E3.7039
G1 X136.800 Y111.143 E4.2371
G1 X136.800 Y112.557 E4.2894
G1 X125.891 Y101.649 E4.8595
G1 X125.184 Y102.356 E4.8964
G1 X136.800 Y113.972 E5.5035
G1 X136.800 Y115.386 E5.5558
G1 X124.477 Y103.063 E6.1998
G1 X123.770 Y103.770 E6.2368
G1 X136.800 Y116.800 E6.9177
G1 X136.800 Y118.214 E6.9700
G1 X123.063 Y104.477 E7.6880
G1 X122.356 Y105.184 E7.7249
G1 X136.659 Y119.487 E8.4724
G1 X136.800 Y119.628 F1500
G92 E0
G1 E-4.0000 F1800
G1 X115.803 Y145.300 F4400
G1 E0.0000 F1800
G92 E0
G1 X113.200 Y142.697 E0.1360 F1500
G1 X113.200 Y141.283 E0.1883
G1 X117.217 Y145.300 E0.3982
G1 X118.631 Y145.300 E0.4505
G1 X113.200 Y139.869 E0.7343
G1 X113.200 Y138.455 E0.7866
G1 X120.045 Y145.300 E1.1443
G1 X121.459 Y145.300 E1.1966
G1 X113.200 Y137.041 E1.6283
G1 X113.200 Y135.626 E1.6805
G1 X122.874 Y145.300 E2.1861
G1 X124.288 Y145.300 E2.2384
G1 X113.200 Y134.212 E2.8178
G1 X113.200 Y132.798 E2.8701
G1 X125.702 Y145.300 E3.5235
G1 X127.116 Y145.300 E3.5758
G1 X113.200 Y131.384 E4.3031
G1 X113.200 Y129.970 E4.3553
G1 X128.530 Y145.300 E5.1566
G1 X129.945 Y145.300 E5.2088
G1 X113.200 Y128.555 E6.0839
G1 X113.200 Y127.141 E6.1362
G1 X131.359 Y145.300 E7.0853
G1 X132.773 Y145.300 E7.1375
G1 X113.200 Y125.727 E8.1605
G1 X113.200 Y124.313 E8.2127
G1 X134.187 Y145.300 E9.3096
G1 X135.160 Y145.300 E9.3455
G1 X135.381 Y145.079 E9.3571
G1 X113.200 Y122.898 E10.5163
G1 X113.200 Y121.484 E10.5686
G1 X136.088 Y144.372 E11.7648
G1 X136.795 Y143.665 E11.8017
G1 X113.200 Y120.070 E13.0349
G1 X113.200 Y118.656 E13.0871
G1 X136.800 Y142.256 E14.3205
G1 X136.800 Y140.842 E14.3728
G1 X113.200 Y117.242 E15.6062
G1 X113.200 Y115.827 E15.6585
G1 X136.800 Y139.427 E16.8919
G1 X136.800 Y138.013 E16.9442
G1 X113.200 Y114.413 E18.1776
G1 X113.200 Y112.999 E18.2298
G1 X136.800 Y136.599 E19.4632
G1 X136.800 Y135.185 E19.5155
G1 X113.200 Y111.585 E20.7489
G1 X113.200 Y110.171 E20.8012
G1 X136.800 Y133.771 E22.0346
G1 X136.800 Y132.356 E22.0869
G1 X113.200 Y108.756 E23.3203
G1 X113.200 Y107.342 E23.3725
G1 X136.800 Y130.942 E24.6060
G1 X136.800 Y129.528 E24.6582
G1 X113.200 Y105.928 E25.8916
G1 X113.200 Y104.514 E25.9439
G1 X136.800 Y128.114 E27.1773
G1 X136.800 Y126.699 E27.2296
G1 X113.200 Y103.099 E28.4630
G1 X113.200 Y101.685 E28.5152
G1 X136.800 Y125.285 E29.7487
G1 X136.800 Y123.871 E29.8009
G1 X113.200 Y100.271 E31.0343
G1 X113.200 Y98.857 E31.0866
G1 X136.800 Y122.457 E32.3200
G1 X136.800 Y121.043 E32.3723
G1 X113.200 Y97.443 E33.6057
G1 X113.200 Y96.028 E33.6580
G1 X121.800 Y104.628 E34.1074
G1 X121.800 Y103.214 E34.1597
G1 X113.200 Y94.614 E34.6091
G1 X113.200 Y93.200 E34.6614
G1 X121.800 Y101.800 E35.1109
G1 X121.800 Y100.386 E35.1631
G1 X113.200 Y91.786 E35.6126
G1 X113.200 Y90.372 E35.6649
G1 X121.800 Y98.972 E36.1143
G1 X121.800 Y97.557 E36.1666
G1 X113.200 Y88.957 E36.6161
G1 X113.200 Y87.543 E36.6683
G1 X121.800 Y96.143 E37.1178
G1 X121.800 Y94.729 E37.1700
G1 X113.200 Y86.129 E37.6195
G1 X113.200 Y84.715 E37.6718
G1 X121.800 Y93.315 E38.1212
G1 X121.800 Y91.900 E38.1735
G1 X113.200 Y83.300 E38.6230
G1 X113.200 Y81.886 E38.6752
G1 X121.800 Y90.486 E39.1247
G1 X121.800 Y89.072 E39.1770
G1 X113.200 Y80.472 E39.6264
G1 X113.200 Y79.058 E39.6787
G1 X121.800 Y87.658 E40.1281
G1 X121.800 Y86.244 E40.1804
G1 X113.200 Y77.644 E40.6299
G1 X113.200 Y76.229 E40.6821
G1 X121.800 Y84.829 E41.1316
G1 X121.800 Y83.415 E41.1839
G1 X113.200 Y74.815 E41.6333
G1 X113.200 Y73.401 E41.6856
G1 X121.800 Y82.001 E42.1351
G1 X121.800 Y80.587 E42.1873
G1 X113.200 Y71.987 E42.6368
G1 X113.200 Y70.573 E42.6890
G1 X121.800 Y79.173 E43.1385
G1 X121.800 Y77.758 E43.1908
G1 X113.200 Y69.158 E43.6402
G1 X113.200 Y67.744 E43.6925
G1 X121.800 Y76.344 E44.1420
G1 X121.800 Y74.930 E44.1942
G1 X113.205 Y66.335 E44.6434
G1 X113.912 Y65.628 E44.6804
G1 X121.800 Y73.516 E45.0926
G1 X121.800 Y72.102 E45.1449
G1 X114.619 Y64.921 E45.5202
G1 X114.840 Y64.700 E45.5317
G1 X115.813 Y64.700 E45.5676
G1 X121.800 Y70.687 E45.8806
G1 X121.800 Y69.273 E45.9328
G1 X117.227 Y64.700 E46.1718
G1 X118.641 Y64.700 E46.2241
G1 X121.800 Y67.859 E46.3892
G1 X121.800 Y66.445 E46.4414
G1 X120.197 Y64.841 E46.5252
G1 X120.055 Y64.700 F1500
G92 E0
G1 E-4.0000 F1800
; layer 3, Z = 0.994
G1 X113.200 Y67.303 F4400
G1 Z0.994 F8000
G1 E0.0000 F1800
G92 E0
G1 X115.803 Y64.700 E0.1360 F1500
G1 X117.217 Y64.700 E0.1883
G1 X113.200 Y68.717 E0.3982
G1 X113.200 Y70.131 E0.4505
G1 X118.631 Y64.700 E0.7343
G1 X120.045 Y64.700 E0.7866
G1 X113.200 Y71.545 E1.1443
G1 X113.200 Y72.959 E1.1966
G1 X120.810 Y65.350 E1.5943
G1 X121.517 Y66.057 E1.6313
G1 X113.200 Y74.374 E2.0659
