; generated by Slic3r 1.37.2.1-prusa3d on 2018-03-22 at 17:08:22

; 

; external perimeters extrusion width = 0.45mm
; perimeters extrusion width = 0.45mm
; infill extrusion width = 0.45mm
; solid infill extrusion width = 0.45mm
; top infill extrusion width = 0.40mm
; support material extrusion width = 0.35mm
; first layer extrusion width = 0.42mm

M107 ; disable fan
M115 U3.1.1-RC5 ; tell printer latest fw version
M83  ; extruder relative mode
M104 S215 ; set extruder temp
M140 S60 ; set bed temp
M190 S60 ; wait for bed temp
M109 S215 ; wait for extruder temp
G28 W ; home all without mesh bed level
G80 ; mesh bed leveling
G1 Y-3.0 F1000.0 ; go outside print area
G92 E0.0
G1 X60.0 E9.0  F1000.0 ; intro line
G1 X100.0 E12.5  F1000.0 ; intro line
G92 E0.0
M221 S95
M900 K30
G21 ; set units to millimeters
G90 ; use absolute coordinates
M83 ; use relative distances for extrusion
;BEFORE_LAYER_CHANGE
;0.2


G1 E-0.80000 F2100.00000 ; retract
G1 Z0.600 F12000.000 ; lift Z
;AFTER_LAYER_CHANGE
;0.2
G1 X105.084 Y79.312 F12000.000 ; move to first skirt point
G1 Z0.200 F12000.000 ; restore layer Z
G1 E0.80000 F2100.00000 ; unretract
M204 S1000 ; adjust acceleration
G1 F1800
G1 X118.735 Y61.226 E0.71047 ; skirt
G1 X119.767 Y60.059 E0.04886 ; skirt
G1 X120.867 Y59.129 E0.04513 ; skirt
G1 X122.077 Y58.365 E0.04488 ; skirt
G1 X123.381 Y57.775 E0.04488 ; skirt
G1 X124.753 Y57.369 E0.04488 ; skirt
G1 X126.685 Y57.128 E0.06105 ; skirt
G1 X133.008 Y57.123 E0.19824 ; skirt
G1 X134.286 Y57.203 E0.04015 ; skirt
G1 X135.552 Y57.442 E0.04040 ; skirt
G1 X136.771 Y57.833 E0.04015 ; skirt
G1 X137.940 Y58.374 E0.04040 ; skirt
G1 X139.033 Y59.057 E0.04040 ; skirt
G1 X140.033 Y59.870 E0.04040 ; skirt
G1 X140.924 Y60.800 E0.04040 ; skirt
G1 X141.689 Y61.827 E0.04015 ; skirt
G1 X142.272 Y62.841 E0.03666 ; skirt
G1 X157.327 Y92.952 E1.05555 ; skirt
G1 X157.869 Y94.294 E0.04538 ; skirt
G1 X158.221 Y95.706 E0.04563 ; skirt
G1 X158.377 Y97.488 E0.05607 ; skirt
G1 X158.377 Y142.524 E1.41208 ; skirt
G1 X158.266 Y144.015 E0.04687 ; skirt
G1 X157.905 Y145.596 E0.05085 ; skirt
G1 X157.301 Y147.101 E0.05085 ; skirt
G1 X156.475 Y148.488 E0.05060 ; skirt
G1 X155.439 Y149.735 E0.05085 ; skirt
G1 X154.221 Y150.806 E0.05085 ; skirt
G1 X152.850 Y151.674 E0.05085 ; skirt
G1 X151.362 Y152.317 E0.05085 ; skirt
G1 X149.791 Y152.721 E0.05085 ; skirt
G1 X148.065 Y152.877 E0.05433 ; skirt
G1 X126.658 Y152.871 E0.67121 ; skirt
G1 X125.564 Y152.777 E0.03442 ; skirt
G1 X124.494 Y152.570 E0.03417 ; skirt
G1 X123.444 Y152.249 E0.03442 ; skirt
G1 X122.435 Y151.819 E0.03442 ; skirt
G1 X121.536 Y151.322 E0.03218 ; skirt
G1 X120.692 Y150.740 E0.03218 ; skirt
G1 X92.929 Y129.222 E1.10132 ; skirt
G1 X91.701 Y127.955 E0.05533 ; skirt
G1 X90.705 Y126.498 E0.05533 ; skirt
G1 X89.970 Y124.894 E0.05533 ; skirt
G1 X89.517 Y123.188 E0.05533 ; skirt
G1 X89.361 Y121.462 E0.05433 ; skirt
G1 X89.380 Y102.949 E0.58046 ; skirt
G1 X89.549 Y101.616 E0.04214 ; skirt
G1 X89.892 Y100.308 E0.04239 ; skirt
G1 X90.401 Y99.056 E0.04239 ; skirt
G1 X91.069 Y97.881 E0.04239 ; skirt
G1 X105.048 Y79.360 E0.72755 ; skirt
G1 F9600
G1 X107.251 Y76.441 E-0.76000 ; wipe and retract
G1 E-0.04000 F2100.00000 ; retract
G1 Z0.800 F12000.000 ; lift Z
G1 X141.480 Y92.102 F12000.000 ; move to first brim point
G1 Z0.200 F12000.000 ; restore layer Z
G1 E0.80000 F2100.00000 ; unretract
G1 F1800
G1 X143.139 Y90.483 E0.07269 ; brim
G1 X145.249 Y89.381 E0.07464 ; brim
G1 X147.669 Y88.937 E0.07716 ; brim
G1 X150.136 Y89.243 E0.07794 ; brim
G1 X152.951 Y90.531 E0.09707 ; brim
G1 X154.318 Y91.710 E0.05661 ; brim
G1 X155.464 Y93.279 E0.06090 ; brim
G1 X156.405 Y95.993 E0.09007 ; brim
G1 X156.480 Y143.219 E1.48073 ; brim
G1 X155.840 Y145.829 E0.08426 ; brim
G1 X154.420 Y148.086 E0.08362 ; brim
G1 X152.542 Y149.714 E0.07793 ; brim
G1 X151.306 Y150.352 E0.04361 ; brim
G1 X149.966 Y150.797 E0.04426 ; brim
G1 X126.335 Y150.986 E0.74095 ; brim
G1 X123.401 Y150.226 E0.09506 ; brim
G1 X121.635 Y149.106 E0.06555 ; brim
G1 X120.201 Y147.621 E0.06473 ; brim
G1 X119.158 Y145.820 E0.06526 ; brim
G1 X118.595 Y143.853 E0.06413 ; brim
G1 X118.524 Y129.886 E0.43795 ; brim
G1 X100.064 Y129.894 E0.57881 ; brim
G1 X98.222 Y129.787 E0.05787 ; brim
G1 X95.891 Y129.084 E0.07633 ; brim
G1 X93.867 Y127.725 E0.07645 ; brim
G1 X92.334 Y125.931 E0.07399 ; brim
G1 X91.697 Y124.696 E0.04355 ; brim
G1 X91.252 Y123.358 E0.04420 ; brim
G1 X91.063 Y103.001 E0.63831 ; brim
G1 X91.446 Y100.956 E0.06523 ; brim
G1 X92.313 Y99.089 E0.06455 ; brim
G1 X94.665 Y96.605 E0.10726 ; brim
G1 X96.397 Y95.674 E0.06166 ; brim
G1 X98.326 Y95.162 E0.06257 ; brim
G1 X99.627 Y95.119 E0.04081 ; brim
G1 X100.053 Y95.082 E0.01342 ; brim
G1 X118.516 Y95.091 E0.57888 ; brim
G1 X118.516 Y66.934 E0.88281 ; brim
G1 X118.926 Y64.778 E0.06884 ; brim
G1 X119.862 Y62.859 E0.06692 ; brim
G1 X121.229 Y61.260 E0.06596 ; brim
G1 X122.874 Y60.049 E0.06405 ; brim
G1 X124.796 Y59.262 E0.06513 ; brim
G1 X125.244 Y59.174 E0.01431 ; brim
G1 X134.648 Y59.135 E0.29486 ; brim
G1 X135.944 Y59.505 E0.04226 ; brim
G1 X137.157 Y60.050 E0.04168 ; brim
G1 X139.173 Y61.655 E0.08081 ; brim
G1 X140.682 Y63.822 E0.08279 ; brim
G1 X141.429 Y66.334 E0.08217 ; brim
G1 X141.479 Y92.042 E0.80607 ; brim
G1 F9600
G1 X143.139 Y90.483 E-0.47318 ; wipe and retract
G1 F9600
G1 X144.362 Y89.844 E-0.28682 ; wipe and retract
G1 E-0.04000 F2100.00000 ; retract
G1 Z0.800 F12000.000 ; lift Z
G1 X141.104 Y93.004 F12000.000 ; move to first brim point
G1 Z0.200 F12000.000 ; restore layer Z
G1 E0.80000 F2100.00000 ; unretract
G1 F1800
G1 X143.340 Y90.803 E0.09835 ; brim
G1 X145.347 Y89.747 E0.07112 ; brim
G1 X147.653 Y89.315 E0.07358 ; brim
G1 X150.006 Y89.598 E0.07430 ; brim
G1 X152.770 Y90.862 E0.09528 ; brim
G1 X154.055 Y91.981 E0.05342 ; brim
G1 X155.118 Y93.430 E0.05636 ; brim
G1 X156.028 Y96.026 E0.08624 ; brim
G1 X156.108 Y143.153 E1.47763 ; brim
G1 X155.504 Y145.655 E0.08072 ; brim
G1 X154.151 Y147.820 E0.08005 ; brim
G1 X152.348 Y149.390 E0.07495 ; brim
G1 X151.173 Y149.999 E0.04151 ; brim
G1 X149.875 Y150.430 E0.04286 ; brim
G1 X126.357 Y150.609 E0.73743 ; brim
G1 X123.577 Y149.891 E0.09003 ; brim
G1 X121.890 Y148.828 E0.06251 ; brim
G1 X120.488 Y147.376 E0.06328 ; brim
G1 X119.497 Y145.652 E0.06235 ; brim
G1 X118.965 Y143.775 E0.06116 ; brim
G1 X118.900 Y129.508 E0.44734 ; brim
G1 X100.069 Y129.517 E0.59043 ; brim
G1 X98.307 Y129.419 E0.05532 ; brim
G1 X96.076 Y128.755 E0.07300 ; brim
G1 X94.136 Y127.460 E0.07315 ; brim
G1 X92.658 Y125.738 E0.07114 ; brim
G1 X92.050 Y124.563 E0.04147 ; brim
G1 X91.619 Y123.268 E0.04281 ; brim
G1 X91.440 Y103.016 E0.63500 ; brim
G1 X91.798 Y101.093 E0.06131 ; brim
G1 X92.642 Y99.276 E0.06284 ; brim
G1 X94.870 Y96.922 E0.10160 ; brim
G1 X96.556 Y96.017 E0.06000 ; brim
G1 X98.400 Y95.532 E0.05980 ; brim
G1 X99.648 Y95.495 E0.03915 ; brim
G1 X100.061 Y95.459 E0.01300 ; brim
G1 X118.893 Y95.468 E0.59045 ; brim
G1 X118.893 Y66.952 E0.89409 ; brim
G1 X119.277 Y64.919 E0.06486 ; brim
G1 X120.165 Y63.086 E0.06387 ; brim
G1 X121.501 Y61.522 E0.06451 ; brim
G1 X123.078 Y60.367 E0.06127 ; brim
G1 X124.921 Y59.618 E0.06238 ; brim
G1 X125.264 Y59.551 E0.01095 ; brim
G1 X134.571 Y59.505 E0.29183 ; brim
G1 X135.802 Y59.854 E0.04013 ; brim
G1 X136.980 Y60.384 E0.04049 ; brim
G1 X138.916 Y61.932 E0.07771 ; brim
G1 X140.355 Y64.011 E0.07927 ; brim
G1 X141.060 Y66.414 E0.07852 ; brim
G1 X141.104 Y92.944 E0.83183 ; brim
G1 F9600
G1 X143.340 Y90.803 E-0.64321 ; wipe and retract
G1 F9600
G1 X143.837 Y90.542 E-0.11679 ; wipe and retract
G1 E-0.04000 F2100.00000 ; retract
G1 Z0.800 F12000.000 ; lift Z
G1 X140.728 Y93.903 F12000.000 ; move to first brim point
G1 Z0.200 F12000.000 ; restore layer Z
G1 E0.80000 F2100.00000 ; unretract
G1 F1800
G1 X143.584 Y91.092 E0.12564 ; brim
G1 X145.496 Y90.094 E0.06763 ; brim
G1 X147.637 Y89.693 E0.06830 ; brim
G1 X149.932 Y89.969 E0.07246 ; brim
G1 X152.586 Y91.193 E0.09166 ; brim
G1 X153.791 Y92.250 E0.05025 ; brim
G1 X154.772 Y93.583 E0.05189 ; brim
G1 X155.651 Y96.059 E0.08237 ; brim
G1 X155.731 Y143.131 E1.47592 ; brim
G1 X155.168 Y145.483 E0.07582 ; brim
G1 X153.881 Y147.555 E0.07649 ; brim
G1 X152.154 Y149.066 E0.07195 ; brim
G1 X151.037 Y149.647 E0.03947 ; brim
G1 X149.842 Y150.053 E0.03959 ; brim
G1 X126.378 Y150.232 E0.73569 ; brim
G1 X123.752 Y149.556 E0.08503 ; brim
G1 X122.145 Y148.548 E0.05948 ; brim
G1 X120.803 Y147.166 E0.06040 ; brim
G1 X119.853 Y145.527 E0.05942 ; brim
G1 X119.335 Y143.697 E0.05961 ; brim
G1 X119.276 Y129.131 E0.45672 ; brim
G1 X100.074 Y129.139 E0.60206 ; brim
G1 X98.392 Y129.051 E0.05280 ; brim
G1 X96.260 Y128.425 E0.06966 ; brim
G1 X94.404 Y127.193 E0.06984 ; brim
G1 X92.983 Y125.544 E0.06828 ; brim
G1 X92.402 Y124.428 E0.03945 ; brim
G1 X91.996 Y123.233 E0.03954 ; brim
G1 X91.817 Y103.031 E0.63347 ; brim
G1 X92.150 Y101.229 E0.05745 ; brim
G1 X92.938 Y99.511 E0.05925 ; brim
G1 X95.076 Y97.239 E0.09781 ; brim
G1 X96.674 Y96.376 E0.05694 ; brim
G1 X98.475 Y95.902 E0.05839 ; brim
G1 X99.669 Y95.872 E0.03747 ; brim
G1 X100.070 Y95.837 E0.01260 ; brim
G1 X119.270 Y95.845 E0.60201 ; brim
G1 X119.270 Y66.969 E0.90538 ; brim
G1 X119.627 Y65.061 E0.06088 ; brim
G1 X120.493 Y63.272 E0.06230 ; brim
G1 X121.772 Y61.784 E0.06153 ; brim
G1 X123.280 Y60.686 E0.05850 ; brim
G1 X125.045 Y59.975 E0.05964 ; brim
G1 X125.283 Y59.928 E0.00762 ; brim
G1 X134.494 Y59.875 E0.28879 ; brim
G1 X135.686 Y60.213 E0.03885 ; brim
G1 X136.803 Y60.718 E0.03843 ; brim
G1 X138.658 Y62.208 E0.07461 ; brim
G1 X140.027 Y64.199 E0.07574 ; brim
G1 X140.690 Y66.493 E0.07487 ; brim
G1 X140.728 Y93.843 E0.85754 ; brim
G1 F9600
G1 X143.362 Y91.306 E-0.76000 ; wipe and retract
G1 E-0.04000 F2100.00000 ; retract
G1 Z0.800 F12000.000 ; lift Z
G1 X140.352 Y94.802 F12000.000 ; move to first brim point
G1 Z0.200 F12000.000 ; restore layer Z
G1 E0.80000 F2100.00000 ; unretract
G1 F1800
G1 X143.828 Y91.381 E0.15293 ; brim
G1 X145.644 Y90.441 E0.06412 ; brim
G1 X147.621 Y90.071 E0.06304 ; brim
G1 X149.857 Y90.340 E0.07061 ; brim
G1 X152.402 Y91.523 E0.08801 ; brim
G1 X153.526 Y92.519 E0.04709 ; brim
G1 X154.427 Y93.737 E0.04750 ; brim
G1 X155.274 Y96.092 E0.07848 ; brim
G1 X155.353 Y143.109 E1.47418 ; brim
G1 X154.809 Y145.364 E0.07274 ; brim
G1 X153.577 Y147.331 E0.07278 ; brim
G1 X151.959 Y148.742 E0.06729 ; brim
G1 X150.902 Y149.295 E0.03741 ; brim
G1 X149.749 Y149.686 E0.03818 ; brim
G1 X126.400 Y149.854 E0.73211 ; brim
G1 X123.927 Y149.221 E0.08003 ; brim
G1 X122.365 Y148.241 E0.05783 ; brim
G1 X121.090 Y146.922 E0.05752 ; brim
G1 X120.192 Y145.359 E0.05651 ; brim
G1 X119.705 Y143.620 E0.05662 ; brim
G1 X119.651 Y128.754 E0.46614 ; brim
G1 X100.078 Y128.762 E0.61371 ; brim
G1 X98.475 Y128.682 E0.05032 ; brim
G1 X96.443 Y128.094 E0.06632 ; brim
G1 X94.672 Y126.927 E0.06652 ; brim
G1 X93.306 Y125.349 E0.06541 ; brim
G1 X92.754 Y124.292 E0.03739 ; brim
G1 X92.363 Y123.141 E0.03814 ; brim
G1 X92.195 Y103.046 E0.63008 ; brim
G1 X92.516 Y101.322 E0.05500 ; brim
G1 X93.268 Y99.697 E0.05611 ; brim
G1 X95.282 Y97.557 E0.09216 ; brim
G1 X96.833 Y96.719 E0.05527 ; brim
G1 X98.548 Y96.273 E0.05556 ; brim
G1 X99.690 Y96.249 E0.03583 ; brim
G1 X100.078 Y96.214 E0.01222 ; brim
G1 X119.647 Y96.222 E0.61357 ; brim
G1 X119.647 Y66.986 E0.91667 ; brim
G1 X119.978 Y65.201 E0.05693 ; brim
G1 X120.795 Y63.499 E0.05920 ; brim
G1 X122.044 Y62.047 E0.06004 ; brim
G1 X123.482 Y61.005 E0.05569 ; brim
G1 X125.168 Y60.332 E0.05691 ; brim
G1 X125.303 Y60.305 E0.00433 ; brim
G1 X134.417 Y60.246 E0.28577 ; brim
G1 X135.544 Y60.563 E0.03669 ; brim
G1 X136.625 Y61.051 E0.03722 ; brim
G1 X138.399 Y62.484 E0.07148 ; brim
G1 X139.698 Y64.386 E0.07221 ; brim
G1 X140.320 Y66.571 E0.07123 ; brim
G1 X140.352 Y94.742 E0.88330 ; brim
G1 F9600
G1 X142.981 Y92.200 E-0.76000 ; wipe and retract
G1 E-0.04000 F2100.00000 ; retract
G1 Z0.800 F12000.000 ; lift Z
G1 X139.975 Y95.705 F12000.000 ; move to first brim point
G1 Z0.200 F12000.000 ; restore layer Z
G1 E0.80000 F2100.00000 ; unretract
G1 F1800
G1 X144.028 Y91.702 E0.17861 ; brim
G1 X145.743 Y90.806 E0.06068 ; brim
G1 X147.607 Y90.448 E0.05949 ; brim
G1 X149.726 Y90.695 E0.06691 ; brim
G1 X152.173 Y91.824 E0.08447 ; brim
G1 X153.261 Y92.788 E0.04558 ; brim
G1 X154.107 Y93.939 E0.04478 ; brim
G1 X154.897 Y96.126 E0.07291 ; brim
G1 X154.976 Y143.087 E1.47243 ; brim
G1 X154.450 Y145.245 E0.06966 ; brim
G1 X153.307 Y147.066 E0.06740 ; brim
G1 X151.764 Y148.419 E0.06435 ; brim
G1 X150.767 Y148.942 E0.03532 ; brim
G1 X149.657 Y149.319 E0.03676 ; brim
G1 X126.422 Y149.477 E0.72853 ; brim
G1 X124.102 Y148.886 E0.07507 ; brim
G1 X122.619 Y147.962 E0.05478 ; brim
G1 X121.405 Y146.712 E0.05463 ; brim
G1 X120.548 Y145.234 E0.05354 ; brim
G1 X120.075 Y143.543 E0.05507 ; brim
G1 X120.027 Y128.377 E0.47555 ; brim
G1 X100.090 Y128.385 E0.62513 ; brim
G1 X99.760 Y128.356 E0.01037 ; brim
G1 X98.555 Y128.313 E0.03781 ; brim
G1 X96.625 Y127.762 E0.06292 ; brim
G1 X94.939 Y126.659 E0.06319 ; brim
G1 X93.630 Y125.154 E0.06253 ; brim
G1 X93.106 Y124.157 E0.03532 ; brim
G1 X92.730 Y123.048 E0.03672 ; brim
G1 X92.572 Y103.061 E0.62671 ; brim
G1 X92.869 Y101.456 E0.05116 ; brim
G1 X93.564 Y99.932 E0.05254 ; brim
G1 X95.488 Y97.874 E0.08834 ; brim
G1 X96.992 Y97.061 E0.05358 ; brim
G1 X98.577 Y96.649 E0.05137 ; brim
G1 X99.712 Y96.625 E0.03557 ; brim
G1 X100.087 Y96.591 E0.01182 ; brim
G1 X120.024 Y96.599 E0.62512 ; brim
G1 X120.024 Y67.003 E0.92797 ; brim
G1 X120.329 Y65.341 E0.05297 ; brim
G1 X121.124 Y63.685 E0.05761 ; brim
G1 X122.314 Y62.311 E0.05700 ; brim
G1 X123.683 Y61.325 E0.05290 ; brim
G1 X125.323 Y60.682 E0.05523 ; brim
G1 X134.341 Y60.616 E0.28274 ; brim
G1 X135.427 Y60.922 E0.03540 ; brim
G1 X136.447 Y61.385 E0.03511 ; brim
G1 X138.140 Y62.759 E0.06835 ; brim
G1 X139.368 Y64.572 E0.06866 ; brim
G1 X139.950 Y66.647 E0.06759 ; brim
G1 X139.975 Y95.645 E0.90922 ; brim
G1 F9600
G1 X142.596 Y93.095 E-0.76000 ; wipe and retract
G1 E-0.04000 F2100.00000 ; retract
G1 Z0.800 F12000.000 ; lift Z
G1 X139.599 Y96.610 F12000.000 ; move to first brim point
G1 Z0.200 F12000.000 ; restore layer Z
G1 E0.80000 F2100.00000 ; unretract
G1 F1800
G1 X144.229 Y92.022 E0.20438 ; brim
G1 X145.844 Y91.171 E0.05724 ; brim
G1 X147.594 Y90.826 E0.05593 ; brim
G1 X149.597 Y91.050 E0.06320 ; brim
G1 X151.945 Y92.125 E0.08094 ; brim
G1 X152.969 Y93.028 E0.04282 ; brim
G1 X153.788 Y94.140 E0.04330 ; brim
G1 X154.520 Y96.159 E0.06733 ; brim
G1 X154.599 Y143.065 E1.47070 ; brim
G1 X154.113 Y145.072 E0.06474 ; brim
G1 X153.037 Y146.802 E0.06389 ; brim
G1 X151.568 Y148.096 E0.06138 ; brim
G1 X150.628 Y148.592 E0.03331 ; brim
G1 X149.622 Y148.943 E0.03341 ; brim
G1 X126.443 Y149.100 E0.72678 ; brim
G1 X124.276 Y148.550 E0.07009 ; brim
G1 X122.838 Y147.654 E0.05313 ; brim
G1 X121.693 Y146.467 E0.05172 ; brim
G1 X120.887 Y145.068 E0.05063 ; brim
G1 X120.445 Y143.467 E0.05206 ; brim
G1 X120.403 Y127.999 E0.48500 ; brim
G1 X100.098 Y128.008 E0.63666 ; brim
G1 X99.783 Y127.980 E0.00993 ; brim
G1 X98.634 Y127.944 E0.03603 ; brim
G1 X96.806 Y127.430 E0.05954 ; brim
G1 X95.205 Y126.391 E0.05985 ; brim
G1 X93.953 Y124.959 E0.05965 ; brim
G1 X93.457 Y124.019 E0.03332 ; brim
G1 X93.107 Y123.013 E0.03339 ; brim
G1 X92.949 Y103.076 E0.62515 ; brim
G1 X93.223 Y101.590 E0.04738 ; brim
G1 X93.862 Y100.165 E0.04896 ; brim
G1 X95.696 Y98.190 E0.08451 ; brim
G1 X97.110 Y97.420 E0.05049 ; brim
G1 X98.608 Y97.026 E0.04856 ; brim
G1 X99.733 Y97.002 E0.03530 ; brim
G1 X100.096 Y96.968 E0.01141 ; brim
G1 X120.401 Y96.977 E0.63666 ; brim
G1 X120.401 Y67.020 E0.93927 ; brim
G1 X120.680 Y65.480 E0.04906 ; brim
G1 X121.426 Y63.913 E0.05444 ; brim
G1 X122.584 Y62.575 E0.05548 ; brim
G1 X123.883 Y61.645 E0.05007 ; brim
G1 X125.379 Y61.059 E0.05037 ; brim
G1 X134.265 Y60.986 E0.27863 ; brim
G1 X135.285 Y61.271 E0.03321 ; brim
G1 X136.269 Y61.718 E0.03388 ; brim
G1 X137.879 Y63.033 E0.06518 ; brim
G1 X139.038 Y64.756 E0.06511 ; brim
G1 X139.580 Y66.723 E0.06396 ; brim
G1 X139.599 Y96.550 E0.93523 ; brim
G1 F9600
G1 X142.213 Y93.993 E-0.76000 ; wipe and retract
G1 E-0.04000 F2100.00000 ; retract
G1 Z0.800 F12000.000 ; lift Z
