; G-Code generated by Simplify3D(R) Version 4.0.0
; Feb 17, 2018 at 11:02:53 AM
; Settings Summary
;   processName,Process1
;   applyToModels,knife_holder
;   profileName,Original Prusa i3 MK2 RC4 (modified)
;   profileVersion,2016-08-30 14:21:19
;   baseProfile,Prusa Mendel (modified)
;   printMaterial,PLA
;   printQuality,FAST 0.3mm
;   printExtruders,
;   extruderName,Primary Extruder
;   extruderToolheadNumber,0
;   extruderDiameter,0.4
;   extruderAutoWidth,0
;   extruderWidth,0.45
;   extrusionMultiplier,1
;   extruderUseRetract,1
;   extruderRetractionDistance,0.8
;   extruderExtraRestartDistance,0
;   extruderRetractionZLift,0
;   extruderRetractionSpeed,1800
;   extruderUseCoasting,1
;   extruderCoastingDistance,0.2
;   extruderUseWipe,1
;   extruderWipeDistance,2
;   primaryExtruder,0
;   layerHeight,0.3
;   topSolidLayers,3
;   bottomSolidLayers,3
;   perimeterOutlines,2
;   printPerimetersInsideOut,1
;   startPointOption,2
;   startPointOriginX,0
;   startPointOriginY,0
;   sequentialIslands,0
;   spiralVaseMode,0
;   firstLayerHeightPercentage,66
;   firstLayerWidthPercentage,95
;   firstLayerUnderspeed,0.6
;   useRaft,1
;   raftExtruder,0
;   raftTopLayers,3
;   raftBaseLayers,2
;   raftOffset,3
;   raftSeparationDistance,0.25
;   raftTopInfill,90
;   aboveRaftSpeedMultiplier,0.3
;   useSkirt,1
;   skirtExtruder,0
;   skirtLayers,1
;   skirtOutlines,1
;   skirtOffset,1.8
;   usePrimePillar,0
;   primePillarExtruder,999
;   primePillarWidth,12
;   primePillarLocation,7
;   primePillarSpeedMultiplier,1
;   useOozeShield,0
;   oozeShieldExtruder,999
;   oozeShieldOffset,2
;   oozeShieldOutlines,1
;   oozeShieldSidewallShape,1
;   oozeShieldSidewallAngle,30
;   oozeShieldSpeedMultiplier,1
;   infillExtruder,0
;   internalInfillPattern,Grid
;   externalInfillPattern,Rectilinear
;   infillPercentage,20
;   outlineOverlapPercentage,21
;   infillExtrusionWidthPercentage,100
;   minInfillLength,2
;   infillLayerInterval,1
;   internalInfillAngles,45,-45
;   overlapInternalInfillAngles,1
;   externalInfillAngles,45,-45
;   generateSupport,0
;   supportExtruder,0
;   supportInfillPercentage,30
;   supportExtraInflation,1.4
;   supportBaseLayers,0
;   denseSupportExtruder,0
;   denseSupportLayers,0
;   denseSupportInfillPercentage,70
;   supportLayerInterval,1
;   supportHorizontalPartOffset,0.2
;   supportUpperSeparationLayers,1
;   supportLowerSeparationLayers,1
;   supportType,0
;   supportGridSpacing,4
;   maxOverhangAngle,45
;   supportAngles,0
;   temperatureName,Primary Extruder,Heated Bed
;   temperatureNumber,0,1
;   temperatureSetpointCount,2,1
;   temperatureSetpointLayers,1,2,1
;   temperatureSetpointTemperatures,215,200,55
;   temperatureStabilizeAtStartup,1,1
;   temperatureHeatedBed,0,1
;   temperatureRelayBetweenLayers,0,0
;   temperatureRelayBetweenLoops,0,0
;   fanLayers,1,2
;   fanSpeeds,0,100
;   blipFanToFullPower,1
;   adjustSpeedForCooling,1
;   minSpeedLayerTime,15
;   minCoolingSpeedSlowdown,5
;   increaseFanForCooling,0
;   minFanLayerTime,45
;   maxCoolingFanSpeed,100
;   increaseFanForBridging,1
;   bridgingFanSpeed,100
;   use5D,1
;   relativeEdistances,1
;   allowEaxisZeroing,1
;   independentExtruderAxes,0
;   includeM10123,0
;   stickySupport,1
;   applyToolheadOffsets,0
;   gcodeXoffset,0
;   gcodeYoffset,0
;   gcodeZoffset,0
;   overrideMachineDefinition,1
;   machineTypeOverride,0
;   strokeXoverride,250
;   strokeYoverride,210
;   strokeZoverride,200
;   originOffsetXoverride,0
;   originOffsetYoverride,0
;   originOffsetZoverride,0
;   homeXdirOverride,-1
;   homeYdirOverride,-1
;   homeZdirOverride,-1
;   flipXoverride,1
;   flipYoverride,-1
;   flipZoverride,1
;   toolheadOffsets,0,0|0,0|0,0|0,0|0,0|0,0
;   overrideFirmwareConfiguration,0
;   firmwareTypeOverride,RepRap (Marlin/Repetier/Sprinter)
;   GPXconfigOverride,r2
;   baudRateOverride,250000
;   overridePrinterModels,1
;   printerModelsOverride
;   startingGcode,M115 U3.0.7 ; tell the printer latest firmware varsion available,G28 W ; home all without mesh bed level,G80 ; mesh bed leveling,G1 Y-3.0 F1000.0 ; go outside printing area,G1 X60.0 E9.0  F1000.0 ; intro line,G1 X100.0 E12.5  F1000.0 ; intro line
;   layerChangeGcode,
;   retractionGcode,
;   toolChangeGcode,
;   endingGcode,M104 S0 ; turn off temperature,M140 S0 ; turn off heatbed,M107 ; turn off fan,G1 X0 Y200; home X axis,M84 ; disable motors
;   exportFileFormat,gcode
;   celebration,0
;   celebrationSong,Random Song
;   postProcessing,{REPLACE "; outer perimeter\n" "; outer perimeter\nM204 S600\n"},{REPLACE "; inner perimeter\n" "; inner perimeter\nM204 S1200\n"},{REPLACE "; solid layer\n" "; solid layer\nM204 S1500\n"},{REPLACE "; infill\n" "; infill\nM204 S2000\n"}
;   defaultSpeed,2400
;   outlineUnderspeed,1
;   solidInfillUnderspeed,0.8
;   supportUnderspeed,0.8
;   rapidXYspeed,4800
;   rapidZspeed,1000
;   minBridgingArea,50
;   bridgingExtraInflation,1
;   bridgingExtrusionMultiplier,1
;   bridgingSpeedMultiplier,1
;   useFixedBridgingAngle,0
;   fixedBridgingAngle,0
;   applyBridgingToPerimeters,0
;   filamentDiameters,1.75|1.75|1.75|1.75|1.75|1.75
;   filamentPricesPerKg,215|215|215|215|215|215
;   filamentDensities,1.25|1.25|1.25|1.25|1.25|1.25
;   useMinPrintHeight,0
;   minPrintHeight,0
;   useMaxPrintHeight,0
;   maxPrintHeight,35
;   useDiaphragm,0
;   diaphragmLayerInterval,20
;   robustSlicing,1
;   mergeAllIntoSolid,0
;   onlyRetractWhenCrossingOutline,0
;   retractBetweenLayers,1
;   useRetractionMinTravel,1
;   retractionMinTravel,3
;   retractWhileWiping,1
;   onlyWipeOutlines,1
;   avoidCrossingOutline,0
;   maxMovementDetourFactor,3
;   toolChangeRetractionDistance,12
;   toolChangeExtraRestartDistance,-0.5
;   toolChangeRetractionSpeed,600
;   externalThinWallType,0
;   internalThinWallType,2
;   thinWallAllowedOverlapPercentage,25
;   singleExtrusionMinLength,1
;   singleExtrusionMinPrintingWidthPercentage,50
;   singleExtrusionMaxPrintingWidthPercentage,200
;   singleExtrusionEndpointExtension,0.2
;   horizontalSizeCompensation,0
G90
M83
M106 S255
G4 P500
M106 S0
M140 S55
M190 S55
M104 S215 T0
M109 S215 T0
M115 U3.0.7 ; tell the printer latest firmware varsion available
G28 W ; home all without mesh bed level
G80 ; mesh bed leveling
G1 Y-3.0 F1000.0 ; go outside printing area
G1 X60.0 E9.0  F1000.0 ; intro line
G1 X100.0 E12.5  F1000.0 ; intro line
G1 E-0.8000 F1800
G1 Z0.330 F1000
; process Process1
; layer 1, Z = 0.330
T0
; tool H0.500 W0.428
; skirt
G1 X113.259 Y65.384 F4800
G1 E0.8000 F540
G1 X116.134 Y62.509 E0.3613 F1440
G1 X116.217 Y62.475 E0.0080
G1 X123.283 Y62.475 E0.6279
G1 X123.366 Y62.509 E0.0080
G1 X126.241 Y65.384 E0.3613
G1 X126.275 Y65.467 E0.0080
G1 X126.275 Y100.369 E3.1016
G1 X135.013 Y91.631 E1.0982
G1 X135.147 Y91.604 E0.0121
G1 X141.199 Y94.111 E0.5822
G1 X141.275 Y94.224 E0.0121
G1 X141.275 Y144.533 E4.4708
G1 X141.241 Y144.616 E0.0080
G1 X138.366 Y147.491 E0.3613
G1 X138.283 Y147.525 E0.0080
G1 X111.717 Y147.525 E2.3608
G1 X111.634 Y147.491 E0.0080
G1 X108.759 Y144.616 E0.3613
G1 X108.725 Y144.533 E0.0080
G1 X108.725 Y110.467 E3.0273
G1 X108.759 Y110.384 E0.0080
G1 X111.634 Y107.509 E0.3613
G1 X111.717 Y107.475 E0.0080
G1 X113.225 Y107.475 E0.1340
G1 X113.225 Y65.578 E3.7233
G1 X113.225 Y65.467 F1440
G1 X113.259 Y65.384 F1440
; tool H0.500 W0.760
; raft
G1 X115.650 Y66.423 F4800
G1 X117.173 Y64.900 E0.3403 F360
G1 X122.327 Y64.900 E0.8142
G1 X123.850 Y66.423 E0.3403
G1 X123.850 Y105.525 E6.1775
G1 X124.344 Y105.729 E0.0844
G1 X135.640 Y94.433 E2.5238
G1 X138.850 Y95.763 E0.5489
G1 X138.850 Y143.577 E7.5540
G1 X137.327 Y145.100 E0.3403
G1 X112.673 Y145.100 E3.8950
G1 X111.150 Y143.577 E0.3403
G1 X111.150 Y111.423 E5.0799
G1 X112.673 Y109.900 E0.3403
G1 X115.650 Y109.900 E0.4703
G1 X115.650 Y66.623 E6.8371
G1 X115.650 Y66.423 F360
G1 X117.062 Y66.143 F4800
G1 X122.438 Y66.143 E0.8495 F360
G1 X123.050 Y66.754 E0.1366
G1 X123.050 Y68.429 E0.2645
G1 X116.450 Y68.429 E1.0427
G1 X116.450 Y70.714 E0.3611
G1 X123.050 Y70.714 E1.0427
G1 X123.050 Y73.000 E0.3611
G1 X116.450 Y73.000 E1.0427
G1 X116.450 Y75.286 E0.3611
G1 X123.050 Y75.286 E1.0427
G1 X123.050 Y77.571 E0.3611
G1 X116.450 Y77.571 E1.0427
G1 X116.450 Y79.857 E0.3611
G1 X123.050 Y79.857 E1.0427
G1 X123.050 Y82.143 E0.3611
G1 X116.450 Y82.143 E1.0427
G1 X116.450 Y84.429 E0.3611
G1 X123.050 Y84.429 E1.0427
G1 X123.050 Y86.714 E0.3611
G1 X116.450 Y86.714 E1.0427
G1 X116.450 Y89.000 E0.3611
G1 X123.050 Y89.000 E1.0427
G1 X123.050 Y91.286 E0.3611
G1 X116.450 Y91.286 E1.0427
G1 X116.450 Y93.571 E0.3611
G1 X123.050 Y93.571 E1.0427
G1 X123.050 Y95.857 E0.3611
G1 X116.450 Y95.857 E1.0427
G1 X116.450 Y98.143 E0.3611
G1 X123.050 Y98.143 E1.0427
G1 X123.050 Y100.429 E0.3611
G1 X116.450 Y100.429 E1.0427
G1 X116.450 Y102.714 E0.3611
G1 X123.050 Y102.714 E1.0427
G1 X123.050 Y105.000 E0.3611
G1 X116.450 Y105.000 E1.0427
G1 X116.450 Y107.286 E0.3611
G1 X138.050 Y107.286 E3.4125
G1 X138.050 Y109.571 E0.3611
G1 X116.450 Y109.571 E3.4125
G1 X116.450 Y110.700 E0.1783
G1 X113.004 Y110.700 E0.5444
G1 X111.950 Y111.754 E0.2356
G1 X111.950 Y111.857 E0.0162
G1 X138.050 Y111.857 E4.1234
G1 X138.050 Y114.143 E0.3611
G1 X111.950 Y114.143 E4.1234
G1 X111.950 Y116.429 E0.3611
G1 X138.050 Y116.429 E4.1234
G1 X138.050 Y118.714 E0.3611
G1 X111.950 Y118.714 E4.1234
G1 X111.950 Y121.000 E0.3611
G1 X138.050 Y121.000 E4.1234
G1 X138.050 Y123.286 E0.3611
G1 X111.950 Y123.286 E4.1234
G1 X111.950 Y125.571 E0.3611
G1 X138.050 Y125.571 E4.1234
G1 X138.050 Y127.857 E0.3611
G1 X111.950 Y127.857 E4.1234
G1 X111.950 Y130.143 E0.3611
G1 X138.050 Y130.143 E4.1234
G1 X138.050 Y132.429 E0.3611
G1 X111.950 Y132.429 E4.1234
G1 X111.950 Y134.714 E0.3611
G1 X138.050 Y134.714 E4.1234
G1 X138.050 Y137.000 E0.3611
G1 X111.950 Y137.000 E4.1234
G1 X111.950 Y139.286 E0.3611
G1 X138.050 Y139.286 E4.1234
G1 X138.050 Y141.571 E0.3611
G1 X111.950 Y141.571 E4.1234
G1 X111.950 Y143.246 E0.2645
G1 X112.562 Y143.857 E0.1366
G1 X137.238 Y143.857 E3.8986
G1 X137.438 Y143.857 F360
G1 E-0.8000 F1800
G1 X138.050 Y105.000 F4800
G1 E0.8000 F1800
G1 X126.204 Y105.000 E1.8714 F360
G1 X128.490 Y102.714 E0.5107
G1 X138.050 Y102.714 E1.5103
G1 X138.050 Y100.429 E0.3611
G1 X130.776 Y100.429 E1.1492
G1 X133.062 Y98.143 E0.5107
G1 X138.050 Y98.143 E0.7881
G1 X138.050 Y96.297 E0.2916
G1 X136.987 Y95.857 E0.1817
G1 X135.547 Y95.857 E0.2275
G1 X135.347 Y95.857 F360
G1 E-0.8000 F1800
; layer 2, Z = 0.830
M104 S200 T0
M106 S255
; tool H0.500 W0.800
G1 X135.640 Y94.433 F4800
G1 Z0.830 F1000
G1 E0.8000 F1800
G1 X138.850 Y95.763 E0.5778 F600
G1 X138.850 Y143.577 E7.9515
G1 X137.327 Y145.100 E0.3582
G1 X112.673 Y145.100 E4.1000
G1 X111.150 Y143.577 E0.3582
G1 X111.150 Y111.423 E5.3472
G1 X112.673 Y109.900 E0.3582
G1 X115.650 Y109.900 E0.4951
G1 X115.650 Y66.423 E7.2302
G1 X117.173 Y64.900 E0.3582
G1 X122.327 Y64.900 E0.8571
G1 X123.850 Y66.423 E0.3582
G1 X123.850 Y105.525 E6.5026
G1 X124.344 Y105.729 E0.0889
G1 X135.499 Y94.575 E2.6234
G1 X135.640 Y94.433 F600
G1 X135.347 Y95.857 F4800
G1 X136.987 Y95.857 E0.2728 F600
G1 X138.050 Y96.297 E0.1913
G1 X138.050 Y98.143 E0.3069
G1 X133.062 Y98.143 E0.8296
G1 X130.776 Y100.429 E0.5376
G1 X138.050 Y100.429 E1.2097
G1 X138.050 Y102.714 E0.3801
G1 X128.490 Y102.714 E1.5898
G1 X126.204 Y105.000 E0.5376
G1 X137.850 Y105.000 E1.9367
G1 X138.050 Y105.000 F600
G1 E-0.8000 F1800
G1 X137.438 Y143.857 F4800
G1 E0.8000 F1800
G1 X112.562 Y143.857 E4.1370 F600
G1 X111.950 Y143.246 E0.1438
G1 X111.950 Y141.571 E0.2784
G1 X138.050 Y141.571 E4.3404
G1 X138.050 Y139.286 E0.3801
G1 X111.950 Y139.286 E4.3404
G1 X111.950 Y137.000 E0.3801
G1 X138.050 Y137.000 E4.3404
G1 X138.050 Y134.714 E0.3801
G1 X111.950 Y134.714 E4.3404
G1 X111.950 Y132.429 E0.3801
G1 X138.050 Y132.429 E4.3404
G1 X138.050 Y130.143 E0.3801
G1 X111.950 Y130.143 E4.3404
G1 X111.950 Y127.857 E0.3801
G1 X138.050 Y127.857 E4.3404
G1 X138.050 Y125.571 E0.3801
G1 X111.950 Y125.571 E4.3404
G1 X111.950 Y123.286 E0.3801
G1 X138.050 Y123.286 E4.3404
G1 X138.050 Y121.000 E0.3801
G1 X111.950 Y121.000 E4.3404
G1 X111.950 Y118.714 E0.3801
G1 X138.050 Y118.714 E4.3404
G1 X138.050 Y116.429 E0.3801
G1 X111.950 Y116.429 E4.3404
G1 X111.950 Y114.143 E0.3801
G1 X138.050 Y114.143 E4.3404
G1 X138.050 Y111.857 E0.3801
G1 X111.950 Y111.857 E4.3404
G1 X111.950 Y111.754 E0.0171
G1 X113.004 Y110.700 E0.2480
G1 X116.450 Y110.700 E0.5730
G1 X116.450 Y109.571 E0.1877
G1 X138.050 Y109.571 E3.5921
G1 X138.050 Y107.286 E0.3801
G1 X116.450 Y107.286 E3.5921
G1 X116.450 Y105.000 E0.3801
G1 X123.050 Y105.000 E1.0976
G1 X123.050 Y102.714 E0.3801
G1 X116.450 Y102.714 E1.0976
G1 X116.450 Y100.429 E0.3801
G1 X123.050 Y100.429 E1.0976
G1 X123.050 Y98.143 E0.3801
G1 X116.450 Y98.143 E1.0976
G1 X116.450 Y95.857 E0.3801
G1 X123.050 Y95.857 E1.0976
G1 X123.050 Y93.571 E0.3801
G1 X116.450 Y93.571 E1.0976
G1 X116.450 Y91.286 E0.3801
G1 X123.050 Y91.286 E1.0976
G1 X123.050 Y89.000 E0.3801
G1 X116.450 Y89.000 E1.0976
G1 X116.450 Y86.714 E0.3801
G1 X123.050 Y86.714 E1.0976
G1 X123.050 Y84.429 E0.3801
G1 X116.450 Y84.429 E1.0976
G1 X116.450 Y82.143 E0.3801
G1 X123.050 Y82.143 E1.0976
G1 X123.050 Y79.857 E0.3801
G1 X116.450 Y79.857 E1.0976
G1 X116.450 Y77.571 E0.3801
G1 X123.050 Y77.571 E1.0976
G1 X123.050 Y75.286 E0.3801
G1 X116.450 Y75.286 E1.0976
G1 X116.450 Y73.000 E0.3801
G1 X123.050 Y73.000 E1.0976
G1 X123.050 Y70.714 E0.3801
G1 X116.450 Y70.714 E1.0976
G1 X116.450 Y68.429 E0.3801
G1 X123.050 Y68.429 E1.0976
G1 X123.050 Y66.754 E0.2784
G1 X122.438 Y66.143 E0.1438
G1 X117.262 Y66.143 E0.8609
G1 X117.062 Y66.143 F600
G1 E-0.8000 F1800
; layer 3, Z = 1.052
; tool H0.222 W0.400
G1 X115.450 Y66.781 F4800
G1 Z1.052 F1000
G1 E0.8000 F1800
G1 X117.531 Y64.700 E0.1088 F1800
G1 X118.160 Y64.700 E0.0232
G1 X115.450 Y67.410 E0.1416
G1 X115.450 Y68.038 E0.0232
G1 X118.788 Y64.700 E0.1745
G1 X119.417 Y64.700 E0.0232
G1 X115.450 Y68.667 E0.2073
G1 X115.450 Y69.295 E0.0232
G1 X120.045 Y64.700 E0.2402
G1 X120.674 Y64.700 E0.0232
G1 X115.450 Y69.924 E0.2730
G1 X115.450 Y70.552 E0.0232
G1 X121.302 Y64.700 E0.3059
G1 X121.931 Y64.700 E0.0232
G1 X115.450 Y71.181 E0.3387
G1 X115.450 Y71.809 E0.0232
G1 X122.485 Y64.775 E0.3676
G1 X122.799 Y65.089 E0.0164
G1 X115.450 Y72.438 E0.3841
G1 X115.450 Y73.066 E0.0232
G1 X123.113 Y65.403 E0.4005
G1 X123.427 Y65.718 E0.0164
G1 X115.450 Y73.695 E0.4169
G1 X115.450 Y74.324 E0.0232
G1 X123.742 Y66.032 E0.4333
G1 X124.050 Y66.340 E0.0161
G1 X124.050 Y66.352 E0.0004
G1 X115.450 Y74.952 E0.4495
G1 X115.450 Y75.581 E0.0232
G1 X124.050 Y66.981 E0.4495
G1 X124.050 Y67.609 E0.0232
G1 X115.450 Y76.209 E0.4495
G1 X115.450 Y76.838 E0.0232
G1 X124.050 Y68.238 E0.4495
G1 X124.050 Y68.866 E0.0232
G1 X115.450 Y77.466 E0.4495
G1 X115.450 Y78.095 E0.0232
G1 X124.050 Y69.495 E0.4495
G1 X124.050 Y70.123 E0.0232
G1 X115.450 Y78.723 E0.4495
G1 X115.450 Y79.352 E0.0232
G1 X124.050 Y70.752 E0.4495
G1 X124.050 Y71.380 E0.0232
G1 X115.450 Y79.980 E0.4495
G1 X115.450 Y80.609 E0.0232
G1 X124.050 Y72.009 E0.4495
G1 X124.050 Y72.637 E0.0232
G1 X115.450 Y81.237 E0.4495
G1 X115.450 Y81.866 E0.0232
G1 X124.050 Y73.266 E0.4495
G1 X124.050 Y73.895 E0.0232
G1 X115.450 Y82.495 E0.4495
G1 X115.450 Y83.123 E0.0232
G1 X124.050 Y74.523 E0.4495
G1 X124.050 Y75.152 E0.0232
G1 X115.450 Y83.752 E0.4495
G1 X115.450 Y84.380 E0.0232
G1 X124.050 Y75.780 E0.4495
G1 X124.050 Y76.409 E0.0232
G1 X115.450 Y85.009 E0.4495
G1 X115.450 Y85.637 E0.0232
G1 X124.050 Y77.037 E0.4495
G1 X124.050 Y77.666 E0.0232
G1 X115.450 Y86.266 E0.4495
G1 X115.450 Y86.894 E0.0232
G1 X124.050 Y78.294 E0.4495
G1 X124.050 Y78.923 E0.0232
G1 X115.450 Y87.523 E0.4495
G1 X115.450 Y88.151 E0.0232
G1 X124.050 Y79.551 E0.4495
G1 X124.050 Y80.180 E0.0232
G1 X115.450 Y88.780 E0.4495
G1 X115.450 Y89.408 E0.0232
G1 X124.050 Y80.808 E0.4495
G1 X124.050 Y81.437 E0.0232
G1 X115.450 Y90.037 E0.4495
G1 X115.450 Y90.666 E0.0232
G1 X124.050 Y82.066 E0.4495
G1 X124.050 Y82.694 E0.0232
G1 X115.450 Y91.294 E0.4495
G1 X115.450 Y91.923 E0.0232
G1 X124.050 Y83.323 E0.4495
G1 X124.050 Y83.951 E0.0232
G1 X115.450 Y92.551 E0.4495
G1 X115.450 Y93.180 E0.0232
