; G-Code generated by Simplify3D(R) Version 4.0.0
; Feb 27, 2018 at 9:32:45 AM
; Settings Summary
;   processName,Process1
;   applyToModels,left_tape_holder
;   profileName,Original Prusa i3 MK2 RC4 (modified)
;   profileVersion,2016-08-30 14:21:19
;   baseProfile,Prusa Mendel (modified)
;   printMaterial,PLA
;   printQuality,FAST 0.3mm
;   printExtruders,
;   extruderName,Primary Extruder
;   extruderToolheadNumber,0
;   extruderDiameter,0.4
;   extruderAutoWidth,0
;   extruderWidth,0.45
;   extrusionMultiplier,1
;   extruderUseRetract,1
;   extruderRetractionDistance,0.8
;   extruderExtraRestartDistance,0
;   extruderRetractionZLift,0
;   extruderRetractionSpeed,1800
;   extruderUseCoasting,1
;   extruderCoastingDistance,0.2
;   extruderUseWipe,1
;   extruderWipeDistance,2
;   primaryExtruder,0
;   layerHeight,0.3
;   topSolidLayers,3
;   bottomSolidLayers,3
;   perimeterOutlines,2
;   printPerimetersInsideOut,1
;   startPointOption,2
;   startPointOriginX,0
;   startPointOriginY,0
;   sequentialIslands,0
;   spiralVaseMode,0
;   firstLayerHeightPercentage,66
;   firstLayerWidthPercentage,95
;   firstLayerUnderspeed,0.6
;   useRaft,1
;   raftExtruder,0
;   raftTopLayers,3
;   raftBaseLayers,2
;   raftOffset,3
;   raftSeparationDistance,0.2
;   raftTopInfill,80
;   aboveRaftSpeedMultiplier,0.3
;   useSkirt,1
;   skirtExtruder,0
;   skirtLayers,1
;   skirtOutlines,1
;   skirtOffset,1.8
;   usePrimePillar,0
;   primePillarExtruder,999
;   primePillarWidth,12
;   primePillarLocation,7
;   primePillarSpeedMultiplier,1
;   useOozeShield,0
;   oozeShieldExtruder,999
;   oozeShieldOffset,2
;   oozeShieldOutlines,1
;   oozeShieldSidewallShape,1
;   oozeShieldSidewallAngle,30
;   oozeShieldSpeedMultiplier,1
;   infillExtruder,0
;   internalInfillPattern,Grid
;   externalInfillPattern,Rectilinear
;   infillPercentage,20
;   outlineOverlapPercentage,21
;   infillExtrusionWidthPercentage,100
;   minInfillLength,2
;   infillLayerInterval,1
;   internalInfillAngles,45,-45
;   overlapInternalInfillAngles,1
;   externalInfillAngles,45,-45
;   generateSupport,0
;   supportExtruder,0
;   supportInfillPercentage,30
;   supportExtraInflation,1.4
;   supportBaseLayers,0
;   denseSupportExtruder,0
;   denseSupportLayers,0
;   denseSupportInfillPercentage,70
;   supportLayerInterval,1
;   supportHorizontalPartOffset,0.2
;   supportUpperSeparationLayers,1
;   supportLowerSeparationLayers,1
;   supportType,0
;   supportGridSpacing,4
;   maxOverhangAngle,45
;   supportAngles,0
;   temperatureName,Primary Extruder,Heated Bed
;   temperatureNumber,0,1
;   temperatureSetpointCount,2,1
;   temperatureSetpointLayers,1,2,1
;   temperatureSetpointTemperatures,215,200,55
;   temperatureStabilizeAtStartup,1,1
;   temperatureHeatedBed,0,1
;   temperatureRelayBetweenLayers,0,0
;   temperatureRelayBetweenLoops,0,0
;   fanLayers,1,2
;   fanSpeeds,0,100
;   blipFanToFullPower,1
;   adjustSpeedForCooling,1
;   minSpeedLayerTime,15
;   minCoolingSpeedSlowdown,5
;   increaseFanForCooling,0
;   minFanLayerTime,45
;   maxCoolingFanSpeed,100
;   increaseFanForBridging,1
;   bridgingFanSpeed,100
;   use5D,1
;   relativeEdistances,1
;   allowEaxisZeroing,1
;   independentExtruderAxes,0
;   includeM10123,0
;   stickySupport,1
;   applyToolheadOffsets,0
;   gcodeXoffset,0
;   gcodeYoffset,0
;   gcodeZoffset,0
;   overrideMachineDefinition,1
;   machineTypeOverride,0
;   strokeXoverride,250
;   strokeYoverride,210
;   strokeZoverride,200
;   originOffsetXoverride,0
;   originOffsetYoverride,0
;   originOffsetZoverride,0
;   homeXdirOverride,-1
;   homeYdirOverride,-1
;   homeZdirOverride,-1
;   flipXoverride,1
;   flipYoverride,-1
;   flipZoverride,1
;   toolheadOffsets,0,0|0,0|0,0|0,0|0,0|0,0
;   overrideFirmwareConfiguration,0
;   firmwareTypeOverride,RepRap (Marlin/Repetier/Sprinter)
;   GPXconfigOverride,r2
;   baudRateOverride,250000
;   overridePrinterModels,1
;   printerModelsOverride
;   startingGcode,M115 U3.0.7 ; tell the printer latest firmware varsion available,G28 W ; home all without mesh bed level,G80 ; mesh bed leveling,G1 Y-3.0 F1000.0 ; go outside printing area,G1 X60.0 E9.0  F1000.0 ; intro line,G1 X100.0 E12.5  F1000.0 ; intro line
;   layerChangeGcode,
;   retractionGcode,
;   toolChangeGcode,
;   endingGcode,M104 S0 ; turn off temperature,M140 S0 ; turn off heatbed,M107 ; turn off fan,G1 X0 Y200; home X axis,M84 ; disable motors
;   exportFileFormat,gcode
;   celebration,0
;   celebrationSong,Random Song
;   postProcessing,{REPLACE "; outer perimeter\n" "; outer perimeter\nM204 S600\n"},{REPLACE "; inner perimeter\n" "; inner perimeter\nM204 S1200\n"},{REPLACE "; solid layer\n" "; solid layer\nM204 S1500\n"},{REPLACE "; infill\n" "; infill\nM204 S2000\n"}
;   defaultSpeed,2400
;   outlineUnderspeed,1
;   solidInfillUnderspeed,0.8
;   supportUnderspeed,0.8
;   rapidXYspeed,4800
;   rapidZspeed,1000
;   minBridgingArea,50
;   bridgingExtraInflation,1
;   bridgingExtrusionMultiplier,1
;   bridgingSpeedMultiplier,1
;   useFixedBridgingAngle,0
;   fixedBridgingAngle,0
;   applyBridgingToPerimeters,0
;   filamentDiameters,1.75|1.75|1.75|1.75|1.75|1.75
;   filamentPricesPerKg,50|215|215|215|215|215
;   filamentDensities,1.25|1.25|1.25|1.25|1.25|1.25
;   useMinPrintHeight,0
;   minPrintHeight,0
;   useMaxPrintHeight,0
;   maxPrintHeight,35
;   useDiaphragm,0
;   diaphragmLayerInterval,20
;   robustSlicing,1
;   mergeAllIntoSolid,0
;   onlyRetractWhenCrossingOutline,0
;   retractBetweenLayers,1
;   useRetractionMinTravel,1
;   retractionMinTravel,3
;   retractWhileWiping,1
;   onlyWipeOutlines,1
;   avoidCrossingOutline,0
;   maxMovementDetourFactor,3
;   toolChangeRetractionDistance,12
;   toolChangeExtraRestartDistance,-0.5
;   toolChangeRetractionSpeed,600
;   externalThinWallType,0
;   internalThinWallType,2
;   thinWallAllowedOverlapPercentage,25
;   singleExtrusionMinLength,1
;   singleExtrusionMinPrintingWidthPercentage,50
;   singleExtrusionMaxPrintingWidthPercentage,200
;   singleExtrusionEndpointExtension,0.2
;   horizontalSizeCompensation,0
G90
M83
M106 S255
G4 P500
M106 S0
M140 S55
M190 S55
M104 S215 T0
M109 S215 T0
M115 U3.0.7 ; tell the printer latest firmware varsion available
G28 W ; home all without mesh bed level
G80 ; mesh bed leveling
G1 Y-3.0 F1000.0 ; go outside printing area
G1 X60.0 E9.0  F1000.0 ; intro line
G1 X100.0 E12.5  F1000.0 ; intro line
G1 E-0.8000 F1800
G1 Z0.330 F1000
; process Process1
; layer 1, Z = 0.330
T0
; tool H0.500 W0.428
; skirt
G1 X51.724 Y88.475 F4800
G1 E0.8000 F540
G1 X102.033 Y88.475 E4.4708 F1440
G1 X102.116 Y88.509 E0.0080
G1 X104.991 Y91.384 E0.3613
G1 X105.025 Y91.467 E0.0080
G1 X105.025 Y103.475 E1.0671
G1 X182.869 Y103.475 E6.9177
G1 X174.131 Y94.737 E1.0982
G1 X174.104 Y94.603 E0.0121
G1 X176.611 Y88.551 E0.5822
G1 X176.724 Y88.475 E0.0121
G1 X227.033 Y88.475 E4.4708
G1 X227.116 Y88.509 E0.0080
G1 X229.991 Y91.384 E0.3613
G1 X230.025 Y91.467 E0.0080
G1 X230.025 Y118.533 E2.4053
G1 X229.991 Y118.616 E0.0080
G1 X227.116 Y121.491 E0.3613
G1 X227.033 Y121.525 E0.0080
G1 X97.967 Y121.525 E11.4697
G1 X97.884 Y121.491 E0.0080
G1 X95.009 Y118.616 E0.3613
G1 X94.975 Y118.533 E0.0080
G1 X94.975 Y116.525 E0.1784
G1 X22.967 Y116.525 E6.3991
G1 X22.884 Y116.491 E0.0080
G1 X20.009 Y113.616 E0.3613
G1 X19.975 Y113.533 E0.0080
G1 X19.975 Y106.467 E0.6279
G1 X20.009 Y106.384 E0.0080
G1 X22.884 Y103.509 E0.3613
G1 X22.967 Y103.475 E0.0080
G1 X57.869 Y103.475 E3.1016
G1 X49.131 Y94.737 E1.0982
G1 X49.104 Y94.603 E0.0121
G1 X51.587 Y88.610 E0.5765
G1 X51.611 Y88.551 F1440
G1 X51.724 Y88.475 F1440
; tool H0.500 W0.760
; raft
G1 X53.263 Y90.900 F4800
G1 X101.077 Y90.900 E7.5540 F360
G1 X102.600 Y92.423 E0.3403
G1 X102.600 Y105.900 E2.1292
G1 X188.025 Y105.900 E13.4959
G1 X188.229 Y105.406 E0.0844
G1 X176.933 Y94.110 E2.5238
G1 X178.263 Y90.900 E0.5489
G1 X226.077 Y90.900 E7.5540
G1 X227.600 Y92.423 E0.3403
G1 X227.600 Y117.577 E3.9740
G1 X226.077 Y119.100 E0.3403
G1 X98.923 Y119.100 E20.0885
G1 X97.400 Y117.577 E0.3403
G1 X97.400 Y114.100 E0.5493
G1 X23.923 Y114.100 E11.6083
G1 X22.400 Y112.577 E0.3403
G1 X22.400 Y107.423 E0.8142
G1 X23.923 Y105.900 E0.3403
G1 X63.025 Y105.900 E6.1775
G1 X63.229 Y105.406 E0.0844
G1 X51.933 Y94.110 E2.5238
G1 X53.186 Y91.085 E0.5173
G1 X53.263 Y90.900 F360
G1 X53.022 Y93.571 F4800
G1 X101.800 Y93.571 E7.7062 F360
G1 X101.800 Y95.857 E0.3611
G1 X54.812 Y95.857 E7.4235
G1 X57.097 Y98.143 E0.5107
G1 X101.800 Y98.143 E7.0624
G1 X101.800 Y100.429 E0.3611
G1 X59.383 Y100.429 E6.7013
G1 X61.669 Y102.714 E0.5107
G1 X101.800 Y102.714 E6.3402
G1 X101.800 Y105.000 E0.3611
G1 X63.954 Y105.000 E5.9791
G1 X64.173 Y105.218 E0.0488
G1 X63.559 Y106.700 E0.2534
G1 X24.254 Y106.700 E6.2096
G1 X23.669 Y107.286 E0.1309
G1 X226.800 Y107.286 E32.0918
G1 X226.800 Y109.571 E0.3611
G1 X23.200 Y109.571 E32.1659
G1 X23.200 Y111.857 E0.3611
G1 X226.800 Y111.857 E32.1659
G1 X226.800 Y114.143 E0.3611
G1 X98.200 Y114.143 E20.3170
G1 X98.200 Y116.429 E0.3611
G1 X226.600 Y116.429 E20.2854
G1 X226.800 Y116.429 F360
G1 E-0.8000 F1800
G1 X188.954 Y105.000 F4800
G1 E0.8000 F1800
G1 X226.800 Y105.000 E5.9791 F360
G1 X226.800 Y102.714 E0.3611
G1 X186.669 Y102.714 E6.3402
G1 X184.383 Y100.429 E0.5107
G1 X226.800 Y100.429 E6.7013
G1 X226.800 Y98.143 E0.3611
G1 X182.097 Y98.143 E7.0624
G1 X179.812 Y95.857 E0.5107
G1 X226.800 Y95.857 E7.4235
G1 X226.800 Y93.571 E0.3611
G1 X178.222 Y93.571 E7.6746
G1 X178.022 Y93.571 F360
G1 E-0.8000 F1800
; layer 2, Z = 0.830
M104 S200 T0
M106 S255
; tool H0.500 W0.800
G1 X176.933 Y94.110 F4800
G1 Z0.830 F1000
G1 E0.8000 F1800
G1 X178.263 Y90.900 E0.5778 F600
G1 X226.077 Y90.900 E7.9515
G1 X227.600 Y92.423 E0.3582
G1 X227.600 Y117.577 E4.1831
G1 X226.077 Y119.100 E0.3582
G1 X98.923 Y119.100 E21.1458
G1 X97.400 Y117.577 E0.3582
G1 X97.400 Y114.100 E0.5782
G1 X23.923 Y114.100 E12.2193
G1 X22.400 Y112.577 E0.3582
G1 X22.400 Y107.423 E0.8571
G1 X23.923 Y105.900 E0.3582
G1 X63.025 Y105.900 E6.5026
G1 X63.229 Y105.406 E0.0889
G1 X51.933 Y94.110 E2.6567
G1 X53.263 Y90.900 E0.5778
G1 X101.077 Y90.900 E7.9515
G1 X102.600 Y92.423 E0.3582
G1 X102.600 Y105.900 E2.2412
G1 X188.025 Y105.900 E14.2062
G1 X188.229 Y105.406 E0.0889
G1 X177.075 Y94.251 E2.6234
G1 X176.933 Y94.110 F600
G1 X178.022 Y93.571 F4800
G1 X226.800 Y93.571 E8.1118 F600
G1 X226.800 Y95.857 E0.3801
G1 X179.812 Y95.857 E7.8142
G1 X182.097 Y98.143 E0.5376
G1 X226.800 Y98.143 E7.4341
G1 X226.800 Y100.429 E0.3801
G1 X184.383 Y100.429 E7.0540
G1 X186.669 Y102.714 E0.5376
G1 X226.800 Y102.714 E6.6739
G1 X226.800 Y105.000 E0.3801
G1 X189.154 Y105.000 E6.2605
G1 X188.954 Y105.000 F600
G1 E-0.8000 F1800
G1 X226.800 Y116.429 F4800
G1 E0.8000 F1800
G1 X98.200 Y116.429 E21.3863 F600
G1 X98.200 Y114.143 E0.3801
G1 X226.800 Y114.143 E21.3863
G1 X226.800 Y111.857 E0.3801
G1 X23.200 Y111.857 E33.8588
G1 X23.200 Y109.571 E0.3801
G1 X226.800 Y109.571 E33.8588
G1 X226.800 Y107.286 E0.3801
G1 X23.669 Y107.286 E33.7809
G1 X24.254 Y106.700 E0.1378
G1 X63.559 Y106.700 E6.5364
G1 X64.173 Y105.218 E0.2667
G1 X63.954 Y105.000 E0.0514
G1 X101.800 Y105.000 E6.2937
G1 X101.800 Y102.714 E0.3801
G1 X61.669 Y102.714 E6.6739
G1 X59.383 Y100.429 E0.5376
G1 X101.800 Y100.429 E7.0540
G1 X101.800 Y98.143 E0.3801
G1 X57.097 Y98.143 E7.4341
G1 X54.812 Y95.857 E0.5376
G1 X101.800 Y95.857 E7.8142
G1 X101.800 Y93.571 E0.3801
G1 X53.222 Y93.571 E8.0785
G1 X53.022 Y93.571 F600
G1 E-0.8000 F1800
; layer 3, Z = 1.052
; tool H0.222 W0.400
G1 X52.697 Y91.743 F4800
G1 Z1.052 F1000
G1 E0.8000 F1800
G1 X53.740 Y90.700 E0.0545 F1800
G1 X54.447 Y90.700 E0.0261
G1 X52.197 Y92.950 E0.1176
G1 X51.697 Y94.157 E0.0483
G1 X55.154 Y90.700 E0.1807
G1 X55.861 Y90.700 E0.0261
G1 X52.051 Y94.511 E0.1992
G1 X52.404 Y94.864 E0.0185
G1 X56.569 Y90.700 E0.2176
G1 X57.276 Y90.700 E0.0261
G1 X52.758 Y95.218 E0.2361
G1 X53.111 Y95.571 E0.0185
G1 X57.983 Y90.700 E0.2546
G1 X58.690 Y90.700 E0.0261
G1 X53.465 Y95.925 E0.2731
G1 X53.819 Y96.278 E0.0185
G1 X59.397 Y90.700 E0.2915
G1 X60.104 Y90.700 E0.0261
G1 X54.172 Y96.632 E0.3100
G1 X54.526 Y96.985 E0.0185
G1 X60.811 Y90.700 E0.3285
G1 X61.518 Y90.700 E0.0261
G1 X54.879 Y97.339 E0.3470
G1 X55.233 Y97.693 E0.0185
G1 X62.225 Y90.700 E0.3655
G1 X62.933 Y90.700 E0.0261
G1 X55.586 Y98.046 E0.3839
G1 X55.940 Y98.400 E0.0185
G1 X63.640 Y90.700 E0.4024
G1 X64.347 Y90.700 E0.0261
G1 X56.293 Y98.753 E0.4209
G1 X56.647 Y99.107 E0.0185
G1 X65.054 Y90.700 E0.4394
G1 X65.761 Y90.700 E0.0261
G1 X57.001 Y99.460 E0.4578
G1 X57.354 Y99.814 E0.0185
G1 X66.468 Y90.700 E0.4763
G1 X67.175 Y90.700 E0.0261
G1 X57.708 Y100.167 E0.4948
G1 X58.061 Y100.521 E0.0185
G1 X67.882 Y90.700 E0.5133
G1 X68.589 Y90.700 E0.0261
G1 X58.415 Y100.875 E0.5318
G1 X58.768 Y101.228 E0.0185
G1 X69.296 Y90.700 E0.5502
G1 X70.004 Y90.700 E0.0261
G1 X59.122 Y101.582 E0.5687
G1 X59.475 Y101.935 E0.0185
G1 X70.711 Y90.700 E0.5872
G1 X71.418 Y90.700 E0.0261
G1 X59.829 Y102.289 E0.6057
G1 X60.183 Y102.642 E0.0185
G1 X72.125 Y90.700 E0.6241
G1 X72.832 Y90.700 E0.0261
G1 X60.536 Y102.996 E0.6426
G1 X60.890 Y103.349 E0.0185
G1 X73.539 Y90.700 E0.6611
G1 X74.246 Y90.700 E0.0261
G1 X61.243 Y103.703 E0.6796
G1 X61.597 Y104.057 E0.0185
G1 X74.953 Y90.700 E0.6981
G1 X75.660 Y90.700 E0.0261
G1 X61.950 Y104.410 E0.7165
G1 X62.304 Y104.764 E0.0185
G1 X76.368 Y90.700 E0.7350
G1 X77.075 Y90.700 E0.0261
G1 X62.657 Y105.117 E0.7535
G1 X62.993 Y105.453 E0.0176
G1 X62.968 Y105.513 E0.0024
G1 X77.640 Y90.841 E0.7668
G1 X77.782 Y90.700 F1800
G1 E-0.8000 F1800
G1 X22.200 Y107.391 F4800
G1 E0.8000 F1800
G1 X23.891 Y105.700 E0.0884 F1800
G1 X24.598 Y105.700 E0.0261
G1 X22.200 Y108.098 E0.1253
G1 X22.200 Y108.805 E0.0261
G1 X25.305 Y105.700 E0.1623
G1 X26.012 Y105.700 E0.0261
G1 X22.200 Y109.512 E0.1992
G1 X22.200 Y110.219 E0.0261
G1 X26.719 Y105.700 E0.2362
G1 X27.426 Y105.700 E0.0261
G1 X22.200 Y110.926 E0.2731
G1 X22.200 Y111.634 E0.0261
G1 X28.134 Y105.700 E0.3101
G1 X28.841 Y105.700 E0.0261
G1 X22.200 Y112.341 E0.3471
G1 X22.200 Y112.660 E0.0118
G1 X22.394 Y112.854 E0.0101
G1 X29.548 Y105.700 E0.3739
G1 X30.255 Y105.700 E0.0261
G1 X22.748 Y113.207 E0.3924
G1 X23.101 Y113.561 E0.0185
G1 X30.962 Y105.700 E0.4108
G1 X31.669 Y105.700 E0.0261
G1 X23.455 Y113.914 E0.4293
G1 X23.808 Y114.268 E0.0185
G1 X32.376 Y105.700 E0.4478
G1 X33.083 Y105.700 E0.0261
G1 X24.483 Y114.300 E0.4495
G1 X25.190 Y114.300 E0.0261
G1 X33.790 Y105.700 E0.4495
G1 X34.497 Y105.700 E0.0261
G1 X25.897 Y114.300 E0.4495
G1 X26.605 Y114.300 E0.0261
G1 X35.205 Y105.700 E0.4495
G1 X35.912 Y105.700 E0.0261
G1 X27.312 Y114.300 E0.4495
G1 X28.019 Y114.300 E0.0261
G1 X36.619 Y105.700 E0.4495
G1 X37.326 Y105.700 E0.0261
G1 X28.726 Y114.300 E0.4495
G1 X29.433 Y114.300 E0.0261
G1 X38.033 Y105.700 E0.4495
G1 X38.740 Y105.700 E0.0261
G1 X30.140 Y114.300 E0.4495
G1 X30.847 Y114.300 E0.0261
G1 X39.447 Y105.700 E0.4495
G1 X40.154 Y105.700 E0.0261
G1 X31.554 Y114.300 E0.4495
G1 X32.261 Y114.300 E0.0261
G1 X40.861 Y105.700 E0.4495
G1 X41.569 Y105.700 E0.0261
G1 X32.969 Y114.300 E0.4495
G1 X33.676 Y114.300 E0.0261
G1 X42.276 Y105.700 E0.4495
G1 X42.983 Y105.700 E0.0261
G1 X34.383 Y114.300 E0.4495
G1 X35.090 Y114.300 E0.0261
G1 X43.690 Y105.700 E0.4495
G1 X44.397 Y105.700 E0.0261
G1 X35.797 Y114.300 E0.4495
G1 X36.504 Y114.300 E0.0261
G1 X45.104 Y105.700 E0.4495
G1 X45.811 Y105.700 E0.0261
G1 X37.211 Y114.300 E0.4495
G1 X37.918 Y114.300 E0.0261
G1 X46.518 Y105.700 E0.4495
G1 X47.225 Y105.700 E0.0261
G1 X38.625 Y114.300 E0.4495
G1 X39.333 Y114.300 E0.0261
G1 X47.933 Y105.700 E0.4495
G1 X48.640 Y105.700 E0.0261
G1 X40.040 Y114.300 E0.4495
G1 X40.747 Y114.300 E0.0261
G1 X49.347 Y105.700 E0.4495
G1 X50.054 Y105.700 E0.0261
G1 X41.454 Y114.300 E0.4495
G1 X42.161 Y114.300 E0.0261
G1 X50.761 Y105.700 E0.4495
G1 X51.468 Y105.700 E0.0261
G1 X42.868 Y114.300 E0.4495
G1 X43.575 Y114.300 E0.0261
G1 X52.175 Y105.700 E0.4495
G1 X52.882 Y105.700 E0.0261
G1 X44.282 Y114.300 E0.4495
G1 X44.989 Y114.300 E0.0261
G1 X53.589 Y105.700 E0.4495
G1 X54.296 Y105.700 E0.0261
G1 X45.696 Y114.300 E0.4495
G1 X46.404 Y114.300 E0.0261
G1 X55.004 Y105.700 E0.4495
G1 X55.711 Y105.700 E0.0261
