; G-Code generated by Simplify3D(R) Version 4.0.0
; Feb 18, 2018 at 12:24:54 PM
; Settings Summary
;   processName,Process1
;   applyToModels,plier_holder,plier adapter
;   profileName,Original Prusa i3 MK2 RC4 (modified)
;   profileVersion,2016-08-30 14:21:19
;   baseProfile,Prusa Mendel (modified)
;   printMaterial,PLA
;   printQuality,FAST 0.3mm
;   printExtruders,
;   extruderName,Primary Extruder
;   extruderToolheadNumber,0
;   extruderDiameter,0.4
;   extruderAutoWidth,0
;   extruderWidth,0.45
;   extrusionMultiplier,1
;   extruderUseRetract,1
;   extruderRetractionDistance,0.8
;   extruderExtraRestartDistance,0
;   extruderRetractionZLift,0
;   extruderRetractionSpeed,1800
;   extruderUseCoasting,1
;   extruderCoastingDistance,0.2
;   extruderUseWipe,1
;   extruderWipeDistance,2
;   primaryExtruder,0
;   layerHeight,0.3
;   topSolidLayers,3
;   bottomSolidLayers,3
;   perimeterOutlines,2
;   printPerimetersInsideOut,1
;   startPointOption,2
;   startPointOriginX,0
;   startPointOriginY,0
;   sequentialIslands,0
;   spiralVaseMode,0
;   firstLayerHeightPercentage,66
;   firstLayerWidthPercentage,95
;   firstLayerUnderspeed,0.6
;   useRaft,1
;   raftExtruder,0
;   raftTopLayers,3
;   raftBaseLayers,2
;   raftOffset,3
;   raftSeparationDistance,0.25
;   raftTopInfill,90
;   aboveRaftSpeedMultiplier,0.3
;   useSkirt,1
;   skirtExtruder,0
;   skirtLayers,1
;   skirtOutlines,1
;   skirtOffset,1.8
;   usePrimePillar,0
;   primePillarExtruder,999
;   primePillarWidth,12
;   primePillarLocation,7
;   primePillarSpeedMultiplier,1
;   useOozeShield,0
;   oozeShieldExtruder,999
;   oozeShieldOffset,2
;   oozeShieldOutlines,1
;   oozeShieldSidewallShape,1
;   oozeShieldSidewallAngle,30
;   oozeShieldSpeedMultiplier,1
;   infillExtruder,0
;   internalInfillPattern,Grid
;   externalInfillPattern,Rectilinear
;   infillPercentage,20
;   outlineOverlapPercentage,21
;   infillExtrusionWidthPercentage,100
;   minInfillLength,2
;   infillLayerInterval,1
;   internalInfillAngles,45,-45
;   overlapInternalInfillAngles,1
;   externalInfillAngles,45,-45
;   generateSupport,0
;   supportExtruder,0
;   supportInfillPercentage,30
;   supportExtraInflation,1.4
;   supportBaseLayers,0
;   denseSupportExtruder,0
;   denseSupportLayers,0
;   denseSupportInfillPercentage,70
;   supportLayerInterval,1
;   supportHorizontalPartOffset,0.2
;   supportUpperSeparationLayers,1
;   supportLowerSeparationLayers,1
;   supportType,0
;   supportGridSpacing,4
;   maxOverhangAngle,45
;   supportAngles,0
;   temperatureName,Primary Extruder,Heated Bed
;   temperatureNumber,0,1
;   temperatureSetpointCount,2,1
;   temperatureSetpointLayers,1,2,1
;   temperatureSetpointTemperatures,215,200,55
;   temperatureStabilizeAtStartup,1,1
;   temperatureHeatedBed,0,1
;   temperatureRelayBetweenLayers,0,0
;   temperatureRelayBetweenLoops,0,0
;   fanLayers,1,2
;   fanSpeeds,0,100
;   blipFanToFullPower,1
;   adjustSpeedForCooling,1
;   minSpeedLayerTime,15
;   minCoolingSpeedSlowdown,5
;   increaseFanForCooling,0
;   minFanLayerTime,45
;   maxCoolingFanSpeed,100
;   increaseFanForBridging,1
;   bridgingFanSpeed,100
;   use5D,1
;   relativeEdistances,1
;   allowEaxisZeroing,1
;   independentExtruderAxes,0
;   includeM10123,0
;   stickySupport,1
;   applyToolheadOffsets,0
;   gcodeXoffset,0
;   gcodeYoffset,0
;   gcodeZoffset,0
;   overrideMachineDefinition,1
;   machineTypeOverride,0
;   strokeXoverride,250
;   strokeYoverride,210
;   strokeZoverride,200
;   originOffsetXoverride,0
;   originOffsetYoverride,0
;   originOffsetZoverride,0
;   homeXdirOverride,-1
;   homeYdirOverride,-1
;   homeZdirOverride,-1
;   flipXoverride,1
;   flipYoverride,-1
;   flipZoverride,1
;   toolheadOffsets,0,0|0,0|0,0|0,0|0,0|0,0
;   overrideFirmwareConfiguration,0
;   firmwareTypeOverride,RepRap (Marlin/Repetier/Sprinter)
;   GPXconfigOverride,r2
;   baudRateOverride,250000
;   overridePrinterModels,1
;   printerModelsOverride
;   startingGcode,M115 U3.0.7 ; tell the printer latest firmware varsion available,G28 W ; home all without mesh bed level,G80 ; mesh bed leveling,G1 Y-3.0 F1000.0 ; go outside printing area,G1 X60.0 E9.0  F1000.0 ; intro line,G1 X100.0 E12.5  F1000.0 ; intro line
;   layerChangeGcode,
;   retractionGcode,
;   toolChangeGcode,
;   endingGcode,M104 S0 ; turn off temperature,M140 S0 ; turn off heatbed,M107 ; turn off fan,G1 X0 Y200; home X axis,M84 ; disable motors
;   exportFileFormat,gcode
;   celebration,0
;   celebrationSong,Random Song
;   postProcessing,{REPLACE "; outer perimeter\n" "; outer perimeter\nM204 S600\n"},{REPLACE "; inner perimeter\n" "; inner perimeter\nM204 S1200\n"},{REPLACE "; solid layer\n" "; solid layer\nM204 S1500\n"},{REPLACE "; infill\n" "; infill\nM204 S2000\n"}
;   defaultSpeed,2400
;   outlineUnderspeed,1
;   solidInfillUnderspeed,0.8
;   supportUnderspeed,0.8
;   rapidXYspeed,4800
;   rapidZspeed,1000
;   minBridgingArea,50
;   bridgingExtraInflation,1
;   bridgingExtrusionMultiplier,1
;   bridgingSpeedMultiplier,1
;   useFixedBridgingAngle,0
;   fixedBridgingAngle,0
;   applyBridgingToPerimeters,0
;   filamentDiameters,1.75|1.75|1.75|1.75|1.75|1.75
;   filamentPricesPerKg,215|215|215|215|215|215
;   filamentDensities,1.25|1.25|1.25|1.25|1.25|1.25
;   useMinPrintHeight,0
;   minPrintHeight,0
;   useMaxPrintHeight,0
;   maxPrintHeight,35
;   useDiaphragm,0
;   diaphragmLayerInterval,20
;   robustSlicing,1
;   mergeAllIntoSolid,0
;   onlyRetractWhenCrossingOutline,0
;   retractBetweenLayers,1
;   useRetractionMinTravel,1
;   retractionMinTravel,3
;   retractWhileWiping,1
;   onlyWipeOutlines,1
;   avoidCrossingOutline,0
;   maxMovementDetourFactor,3
;   toolChangeRetractionDistance,12
;   toolChangeExtraRestartDistance,-0.5
;   toolChangeRetractionSpeed,600
;   externalThinWallType,0
;   internalThinWallType,2
;   thinWallAllowedOverlapPercentage,25
;   singleExtrusionMinLength,1
;   singleExtrusionMinPrintingWidthPercentage,50
;   singleExtrusionMaxPrintingWidthPercentage,200
;   singleExtrusionEndpointExtension,0.2
;   horizontalSizeCompensation,0
G90
M83
M106 S255
G4 P500
M106 S0
M140 S55
M190 S55
M104 S215 T0
M109 S215 T0
M115 U3.0.7 ; tell the printer latest firmware varsion available
G28 W ; home all without mesh bed level
G80 ; mesh bed leveling
G1 Y-3.0 F1000.0 ; go outside printing area
G1 X60.0 E9.0  F1000.0 ; intro line
G1 X100.0 E12.5  F1000.0 ; intro line
G1 E-0.8000 F1800
G1 Z0.330 F1000
; process Process1
; layer 1, Z = 0.330
T0
; tool H0.500 W0.428
; skirt
G1 X60.785 Y36.497 F4800
G1 E0.8000 F540
G1 X61.763 Y35.175 E0.1461 F1440
G1 X61.790 Y35.149 E0.0033
G1 X62.973 Y34.337 E0.1275
G1 X62.986 Y34.330 E0.0013
G1 X63.547 Y34.042 E0.0560
G1 X63.560 Y34.036 E0.0013
G1 X64.493 Y33.701 E0.0881
G1 X64.507 Y33.697 E0.0012
G1 X65.097 Y33.563 E0.0538
G1 X65.111 Y33.561 E0.0012
G1 X66.080 Y33.465 E0.0865
G1 X66.085 Y33.464 E0.0005
G1 X66.329 Y33.452 E0.0216
G1 X66.334 Y33.452 E0.0005
G1 X114.583 Y33.452 E4.2877
G1 X114.666 Y33.486 E0.0080
G1 X117.541 Y36.361 E0.3613
G1 X117.575 Y36.444 E0.0080
G1 X117.575 Y62.475 E2.3133
G1 X121.033 Y62.475 E0.3073
G1 X121.116 Y62.509 E0.0080
G1 X123.991 Y65.384 E0.3613
G1 X124.025 Y65.467 E0.0080
G1 X124.025 Y100.369 E3.1016
G1 X132.763 Y91.631 E1.0982
G1 X132.897 Y91.604 E0.0121
G1 X138.949 Y94.111 E0.5822
G1 X139.025 Y94.224 E0.0121
G1 X139.025 Y144.533 E4.4708
G1 X138.991 Y144.616 E0.0080
G1 X136.116 Y147.491 E0.3613
G1 X136.033 Y147.525 E0.0080
G1 X117.575 Y147.525 E1.6403
G1 X117.575 Y169.556 E1.9578
G1 X117.541 Y169.639 E0.0080
G1 X114.666 Y172.514 E0.3613
G1 X114.583 Y172.548 E0.0080
G1 X66.334 Y172.548 E4.2877
G1 X66.329 Y172.548 E0.0005
G1 X66.085 Y172.536 E0.0216
G1 X66.080 Y172.535 E0.0005
G1 X65.111 Y172.439 E0.0865
G1 X65.097 Y172.437 E0.0012
G1 X64.507 Y172.303 E0.0538
G1 X64.493 Y172.299 E0.0012
G1 X63.560 Y171.964 E0.0881
G1 X63.547 Y171.958 E0.0013
G1 X62.986 Y171.670 E0.0560
G1 X62.973 Y171.663 E0.0013
G1 X61.790 Y170.851 E0.1275
G1 X61.764 Y170.825 E0.0033
G1 X60.785 Y169.503 E0.1461
G1 X60.768 Y169.470 E0.0033
G1 X60.353 Y168.153 E0.1227
G1 X60.349 Y168.137 E0.0015
G1 X60.234 Y167.393 E0.0668
G1 X60.233 Y167.376 E0.0015
G1 X60.233 Y38.624 E11.4418
G1 X60.234 Y38.607 E0.0015
G1 X60.349 Y37.863 E0.0668
G1 X60.353 Y37.847 E0.0015
G1 X60.719 Y36.685 E0.1082
G1 X60.768 Y36.530 F1440
G1 X60.785 Y36.497 F1440
; tool H0.500 W0.760
; raft
G1 X62.924 Y37.756 F4800
G1 X63.233 Y37.237 E0.0955 F360
G1 X63.589 Y36.868 E0.0810
G1 X63.835 Y36.669 E0.0500
G1 X64.296 Y36.380 E0.0859
G1 X64.547 Y36.259 E0.0440
G1 X65.180 Y36.031 E0.1064
G1 X65.493 Y35.960 E0.0506
G1 X66.263 Y35.883 E0.1223
G1 X66.392 Y35.877 E0.0204
G1 X113.627 Y35.877 E7.4625
G1 X115.150 Y37.400 E0.3403
G1 X115.150 Y64.900 E4.3446
G1 X120.077 Y64.900 E0.7784
G1 X121.600 Y66.423 E0.3403
G1 X121.600 Y105.525 E6.1775
G1 X122.094 Y105.729 E0.0844
G1 X133.390 Y94.433 E2.5238
G1 X136.600 Y95.763 E0.5489
G1 X136.600 Y143.577 E7.5540
G1 X135.077 Y145.100 E0.3403
G1 X115.150 Y145.100 E3.1482
G1 X115.150 Y168.600 E3.7126
G1 X113.627 Y170.123 E0.3403
G1 X66.392 Y170.123 E7.4625
G1 X66.263 Y170.116 E0.0204
G1 X65.493 Y170.040 E0.1223
G1 X65.180 Y169.969 E0.0506
G1 X64.547 Y169.741 E0.1064
G1 X64.296 Y169.620 E0.0440
G1 X63.835 Y169.331 E0.0859
G1 X63.590 Y169.132 E0.0500
G1 X63.233 Y168.763 E0.0810
G1 X62.924 Y168.244 E0.0955
G1 X62.718 Y167.593 E0.1079
G1 X62.658 Y167.199 E0.0629
G1 X62.658 Y38.801 E20.2851
G1 X62.718 Y38.407 E0.0629
G1 X62.864 Y37.947 E0.0763
G1 X62.924 Y37.756 F360
G1 E-0.8000 F1800
G1 X79.689 Y50.600 F4800
G1 E0.8000 F1800
G1 X79.701 Y55.985 E0.8508 F360
G1 X79.701 Y55.992 E0.0010
G1 X79.686 Y60.905 E0.7762
G1 X79.686 Y144.200 E13.1594
G1 X79.700 Y155.400 E1.7694
G1 X107.428 Y155.400 E4.3806
G1 X107.430 Y152.343 E0.4830
G1 X107.427 Y50.600 E16.0739
G1 X79.889 Y50.600 E4.3506
G1 X79.689 Y50.600 F360
G1 E-0.8000 F1800
G1 X65.993 Y36.714 F4800
G1 E0.8000 F1800
G1 X113.333 Y36.714 E7.4790 F360
G1 X114.350 Y37.732 E0.2273
G1 X114.350 Y39.000 E0.2004
G1 X63.458 Y39.000 E8.0402
G1 X63.458 Y41.286 E0.3611
G1 X114.350 Y41.286 E8.0402
G1 X114.350 Y43.571 E0.3611
G1 X63.458 Y43.571 E8.0402
G1 X63.458 Y45.857 E0.3611
G1 X114.350 Y45.857 E8.0402
G1 X114.350 Y48.143 E0.3611
G1 X63.458 Y48.143 E8.0402
G1 X63.458 Y50.429 E0.3611
G1 X78.889 Y50.429 E2.4379
G1 X78.894 Y52.714 E0.3611
G1 X63.458 Y52.714 E2.4387
G1 X63.458 Y55.000 E0.3611
G1 X78.899 Y55.000 E2.4395
G1 X78.901 Y55.988 E0.1561
G1 X78.901 Y55.993 E0.0008
G1 X78.897 Y57.286 E0.2042
G1 X63.458 Y57.286 E2.4392
G1 X63.458 Y59.571 E0.3611
G1 X78.890 Y59.571 E2.4381
G1 X78.886 Y60.904 E0.2105
G1 X78.886 Y61.857 E0.1506
G1 X63.458 Y61.857 E2.4375
G1 X63.458 Y64.143 E0.3611
G1 X78.886 Y64.143 E2.4375
G1 X78.886 Y66.429 E0.3611
G1 X63.458 Y66.429 E2.4375
G1 X63.458 Y68.714 E0.3611
G1 X78.886 Y68.714 E2.4375
G1 X78.886 Y71.000 E0.3611
G1 X63.458 Y71.000 E2.4375
G1 X63.458 Y73.286 E0.3611
G1 X78.886 Y73.286 E2.4375
G1 X78.886 Y75.571 E0.3611
G1 X63.458 Y75.571 E2.4375
G1 X63.458 Y77.857 E0.3611
G1 X78.886 Y77.857 E2.4375
G1 X78.886 Y80.143 E0.3611
G1 X63.458 Y80.143 E2.4375
G1 X63.458 Y82.429 E0.3611
G1 X78.886 Y82.429 E2.4375
G1 X78.886 Y84.714 E0.3611
G1 X63.458 Y84.714 E2.4375
G1 X63.458 Y87.000 E0.3611
G1 X78.886 Y87.000 E2.4375
G1 X78.886 Y89.286 E0.3611
G1 X63.458 Y89.286 E2.4375
G1 X63.458 Y91.571 E0.3611
G1 X78.886 Y91.571 E2.4375
G1 X78.886 Y93.857 E0.3611
G1 X63.458 Y93.857 E2.4375
G1 X63.458 Y96.143 E0.3611
G1 X78.886 Y96.143 E2.4375
G1 X78.886 Y98.429 E0.3611
G1 X63.458 Y98.429 E2.4375
G1 X63.458 Y100.714 E0.3611
G1 X78.886 Y100.714 E2.4375
G1 X78.886 Y103.000 E0.3611
G1 X63.458 Y103.000 E2.4375
G1 X63.458 Y105.286 E0.3611
G1 X78.886 Y105.286 E2.4375
G1 X78.886 Y107.571 E0.3611
G1 X63.458 Y107.571 E2.4375
G1 X63.458 Y109.857 E0.3611
G1 X78.886 Y109.857 E2.4375
G1 X78.886 Y112.143 E0.3611
G1 X63.458 Y112.143 E2.4375
G1 X63.458 Y114.429 E0.3611
G1 X78.886 Y114.429 E2.4375
G1 X78.886 Y116.714 E0.3611
G1 X63.458 Y116.714 E2.4375
G1 X63.458 Y119.000 E0.3611
G1 X78.886 Y119.000 E2.4375
G1 X78.886 Y121.286 E0.3611
G1 X63.458 Y121.286 E2.4375
G1 X63.458 Y123.571 E0.3611
G1 X78.886 Y123.571 E2.4375
G1 X78.886 Y125.857 E0.3611
G1 X63.458 Y125.857 E2.4375
G1 X63.458 Y128.143 E0.3611
G1 X78.886 Y128.143 E2.4375
G1 X78.886 Y130.429 E0.3611
G1 X63.458 Y130.429 E2.4375
G1 X63.458 Y132.714 E0.3611
G1 X78.886 Y132.714 E2.4375
G1 X78.886 Y135.000 E0.3611
G1 X63.458 Y135.000 E2.4375
G1 X63.458 Y137.286 E0.3611
G1 X78.886 Y137.286 E2.4375
G1 X78.886 Y139.571 E0.3611
G1 X63.458 Y139.571 E2.4375
G1 X63.458 Y141.857 E0.3611
G1 X78.886 Y141.857 E2.4375
G1 X78.886 Y144.143 E0.3611
G1 X63.458 Y144.143 E2.4375
G1 X63.458 Y146.429 E0.3611
G1 X78.889 Y146.429 E2.4379
G1 X78.892 Y148.714 E0.3611
G1 X63.458 Y148.714 E2.4383
G1 X63.458 Y151.000 E0.3611
G1 X78.894 Y151.000 E2.4388
G1 X78.897 Y153.286 E0.3611
G1 X63.458 Y153.286 E2.4392
G1 X63.458 Y155.571 E0.3611
G1 X78.900 Y155.571 E2.4396
G1 X78.901 Y156.200 E0.0993
G1 X108.227 Y156.200 E4.6331
G1 X108.227 Y155.571 E0.0993
G1 X114.350 Y155.571 E0.9673
G1 X114.350 Y157.857 E0.3611
G1 X63.458 Y157.857 E8.0402
G1 X63.458 Y160.143 E0.3611
G1 X114.350 Y160.143 E8.0402
G1 X114.350 Y162.429 E0.3611
G1 X63.458 Y162.429 E8.0402
G1 X63.458 Y164.714 E0.3611
G1 X114.350 Y164.714 E8.0402
G1 X114.350 Y167.000 E0.3611
G1 X63.458 Y167.000 E8.0402
G1 X63.458 Y167.138 E0.0218
G1 X63.500 Y167.410 E0.0435
G1 X63.659 Y167.915 E0.0836
G1 X63.873 Y168.274 E0.0661
G1 X64.131 Y168.541 E0.0586
G1 X64.301 Y168.679 E0.0346
G1 X64.684 Y168.919 E0.0715
G1 X64.858 Y169.003 E0.0305
G1 X65.405 Y169.200 E0.0918
G1 X65.621 Y169.249 E0.0350
G1 X65.993 Y169.286 E0.0591
G1 X113.133 Y169.286 E7.4474
G1 X113.333 Y169.286 F360
G1 E-0.8000 F1800
G1 X108.229 Y153.286 F4800
G1 E0.8000 F1800
G1 X114.350 Y153.286 E0.9670 F360
G1 X114.350 Y151.000 E0.3611
G1 X108.230 Y151.000 E0.9669
G1 X108.230 Y148.714 E0.3611
G1 X114.350 Y148.714 E0.9669
G1 X114.350 Y146.429 E0.3611
G1 X108.230 Y146.429 E0.9669
G1 X108.230 Y144.143 E0.3611
G1 X134.903 Y144.143 E4.2140
G1 X135.800 Y143.246 E0.2005
G1 X135.800 Y141.857 E0.2194
G1 X108.230 Y141.857 E4.3557
G1 X108.230 Y139.571 E0.3611
G1 X135.800 Y139.571 E4.3557
G1 X135.800 Y137.286 E0.3611
G1 X108.229 Y137.286 E4.3558
G1 X108.229 Y135.000 E0.3611
G1 X135.800 Y135.000 E4.3558
G1 X135.800 Y132.714 E0.3611
G1 X108.229 Y132.714 E4.3558
G1 X108.229 Y130.429 E0.3611
G1 X135.800 Y130.429 E4.3558
G1 X135.800 Y128.143 E0.3611
G1 X108.229 Y128.143 E4.3558
G1 X108.229 Y125.857 E0.3611
G1 X135.800 Y125.857 E4.3558
G1 X135.800 Y123.571 E0.3611
G1 X108.229 Y123.571 E4.3558
G1 X108.229 Y121.286 E0.3611
G1 X135.800 Y121.286 E4.3558
G1 X135.800 Y119.000 E0.3611
G1 X108.229 Y119.000 E4.3558
G1 X108.229 Y116.714 E0.3611
G1 X135.800 Y116.714 E4.3558
G1 X135.800 Y114.429 E0.3611
G1 X108.229 Y114.429 E4.3558
G1 X108.229 Y112.143 E0.3611
G1 X135.800 Y112.143 E4.3559
G1 X135.800 Y109.857 E0.3611
G1 X108.229 Y109.857 E4.3559
G1 X108.229 Y107.571 E0.3611
G1 X135.800 Y107.571 E4.3559
G1 X135.800 Y105.286 E0.3611
G1 X123.669 Y105.286 E1.9166
G1 X122.282 Y106.673 E0.3099
G1 X120.800 Y106.059 E0.2534
G1 X120.800 Y105.286 E0.1222
G1 X108.229 Y105.286 E1.9861
G1 X108.229 Y103.000 E0.3611
G1 X120.800 Y103.000 E1.9861
G1 X120.800 Y100.714 E0.3611
G1 X108.228 Y100.714 E1.9861
G1 X108.228 Y98.429 E0.3611
G1 X120.800 Y98.429 E1.9861
G1 X120.800 Y96.143 E0.3611
G1 X108.228 Y96.143 E1.9861
G1 X108.228 Y93.857 E0.3611
G1 X120.800 Y93.857 E1.9862
G1 X120.800 Y91.571 E0.3611
G1 X108.228 Y91.571 E1.9862
G1 X108.228 Y89.286 E0.3611
G1 X120.800 Y89.286 E1.9862
G1 X120.800 Y87.000 E0.3611
G1 X108.228 Y87.000 E1.9862
G1 X108.228 Y84.714 E0.3611
G1 X120.800 Y84.714 E1.9862
G1 X120.800 Y82.429 E0.3611
G1 X108.228 Y82.429 E1.9862
G1 X108.228 Y80.143 E0.3611
G1 X120.800 Y80.143 E1.9862
G1 X120.800 Y77.857 E0.3611
G1 X108.228 Y77.857 E1.9862
G1 X108.228 Y75.571 E0.3611
G1 X120.800 Y75.571 E1.9862
G1 X120.800 Y73.286 E0.3611
G1 X108.228 Y73.286 E1.9862
G1 X108.228 Y71.000 E0.3611
G1 X120.800 Y71.000 E1.9862
G1 X120.800 Y68.714 E0.3611
G1 X108.228 Y68.714 E1.9863
G1 X108.228 Y66.429 E0.3611
