; G-Code generated by Simplify3D(R) Version 4.0.0
; Feb 26, 2018 at 9:38:15 AM
; Settings Summary
;   processName,Process1
;   applyToModels,right_tape_holder
;   profileName,Original Prusa i3 MK2 RC4 (modified)
;   profileVersion,2016-08-30 14:21:19
;   baseProfile,Prusa Mendel (modified)
;   printMaterial,PLA
;   printQuality,FAST 0.3mm
;   printExtruders,
;   extruderName,Primary Extruder
;   extruderToolheadNumber,0
;   extruderDiameter,0.4
;   extruderAutoWidth,0
;   extruderWidth,0.45
;   extrusionMultiplier,1
;   extruderUseRetract,1
;   extruderRetractionDistance,0.8
;   extruderExtraRestartDistance,0
;   extruderRetractionZLift,0
;   extruderRetractionSpeed,1800
;   extruderUseCoasting,1
;   extruderCoastingDistance,0.2
;   extruderUseWipe,1
;   extruderWipeDistance,2
;   primaryExtruder,0
;   layerHeight,0.3
;   topSolidLayers,3
;   bottomSolidLayers,3
;   perimeterOutlines,2
;   printPerimetersInsideOut,1
;   startPointOption,2
;   startPointOriginX,0
;   startPointOriginY,0
;   sequentialIslands,0
;   spiralVaseMode,0
;   firstLayerHeightPercentage,66
;   firstLayerWidthPercentage,95
;   firstLayerUnderspeed,0.6
;   useRaft,1
;   raftExtruder,0
;   raftTopLayers,3
;   raftBaseLayers,2
;   raftOffset,3
;   raftSeparationDistance,0.25
;   raftTopInfill,90
;   aboveRaftSpeedMultiplier,0.3
;   useSkirt,1
;   skirtExtruder,0
;   skirtLayers,1
;   skirtOutlines,1
;   skirtOffset,1.8
;   usePrimePillar,0
;   primePillarExtruder,999
;   primePillarWidth,12
;   primePillarLocation,7
;   primePillarSpeedMultiplier,1
;   useOozeShield,0
;   oozeShieldExtruder,999
;   oozeShieldOffset,2
;   oozeShieldOutlines,1
;   oozeShieldSidewallShape,1
;   oozeShieldSidewallAngle,30
;   oozeShieldSpeedMultiplier,1
;   infillExtruder,0
;   internalInfillPattern,Grid
;   externalInfillPattern,Rectilinear
;   infillPercentage,20
;   outlineOverlapPercentage,21
;   infillExtrusionWidthPercentage,100
;   minInfillLength,2
;   infillLayerInterval,1
;   internalInfillAngles,45,-45
;   overlapInternalInfillAngles,1
;   externalInfillAngles,45,-45
;   generateSupport,0
;   supportExtruder,0
;   supportInfillPercentage,30
;   supportExtraInflation,1.4
;   supportBaseLayers,0
;   denseSupportExtruder,0
;   denseSupportLayers,0
;   denseSupportInfillPercentage,70
;   supportLayerInterval,1
;   supportHorizontalPartOffset,0.2
;   supportUpperSeparationLayers,1
;   supportLowerSeparationLayers,1
;   supportType,0
;   supportGridSpacing,4
;   maxOverhangAngle,45
;   supportAngles,0
;   temperatureName,Primary Extruder,Heated Bed
;   temperatureNumber,0,1
;   temperatureSetpointCount,2,1
;   temperatureSetpointLayers,1,2,1
;   temperatureSetpointTemperatures,215,200,55
;   temperatureStabilizeAtStartup,1,1
;   temperatureHeatedBed,0,1
;   temperatureRelayBetweenLayers,0,0
;   temperatureRelayBetweenLoops,0,0
;   fanLayers,1,2
;   fanSpeeds,0,100
;   blipFanToFullPower,1
;   adjustSpeedForCooling,1
;   minSpeedLayerTime,15
;   minCoolingSpeedSlowdown,5
;   increaseFanForCooling,0
;   minFanLayerTime,45
;   maxCoolingFanSpeed,100
;   increaseFanForBridging,1
;   bridgingFanSpeed,100
;   use5D,1
;   relativeEdistances,1
;   allowEaxisZeroing,1
;   independentExtruderAxes,0
;   includeM10123,0
;   stickySupport,1
;   applyToolheadOffsets,0
;   gcodeXoffset,0
;   gcodeYoffset,0
;   gcodeZoffset,0
;   overrideMachineDefinition,1
;   machineTypeOverride,0
;   strokeXoverride,250
;   strokeYoverride,210
;   strokeZoverride,200
;   originOffsetXoverride,0
;   originOffsetYoverride,0
;   originOffsetZoverride,0
;   homeXdirOverride,-1
;   homeYdirOverride,-1
;   homeZdirOverride,-1
;   flipXoverride,1
;   flipYoverride,-1
;   flipZoverride,1
;   toolheadOffsets,0,0|0,0|0,0|0,0|0,0|0,0
;   overrideFirmwareConfiguration,0
;   firmwareTypeOverride,RepRap (Marlin/Repetier/Sprinter)
;   GPXconfigOverride,r2
;   baudRateOverride,250000
;   overridePrinterModels,1
;   printerModelsOverride
;   startingGcode,M115 U3.0.7 ; tell the printer latest firmware varsion available,G28 W ; home all without mesh bed level,G80 ; mesh bed leveling,G1 Y-3.0 F1000.0 ; go outside printing area,G1 X60.0 E9.0  F1000.0 ; intro line,G1 X100.0 E12.5  F1000.0 ; intro line
;   layerChangeGcode,
;   retractionGcode,
;   toolChangeGcode,
;   endingGcode,M104 S0 ; turn off temperature,M140 S0 ; turn off heatbed,M107 ; turn off fan,G1 X0 Y200; home X axis,M84 ; disable motors
;   exportFileFormat,gcode
;   celebration,0
;   celebrationSong,Random Song
;   postProcessing,{REPLACE "; outer perimeter\n" "; outer perimeter\nM204 S600\n"},{REPLACE "; inner perimeter\n" "; inner perimeter\nM204 S1200\n"},{REPLACE "; solid layer\n" "; solid layer\nM204 S1500\n"},{REPLACE "; infill\n" "; infill\nM204 S2000\n"}
;   defaultSpeed,2400
;   outlineUnderspeed,1
;   solidInfillUnderspeed,0.8
;   supportUnderspeed,0.8
;   rapidXYspeed,4800
;   rapidZspeed,1000
;   minBridgingArea,50
;   bridgingExtraInflation,1
;   bridgingExtrusionMultiplier,1
;   bridgingSpeedMultiplier,1
;   useFixedBridgingAngle,0
;   fixedBridgingAngle,0
;   applyBridgingToPerimeters,0
;   filamentDiameters,1.75|1.75|1.75|1.75|1.75|1.75
;   filamentPricesPerKg,50|215|215|215|215|215
;   filamentDensities,1.25|1.25|1.25|1.25|1.25|1.25
;   useMinPrintHeight,0
;   minPrintHeight,0
;   useMaxPrintHeight,0
;   maxPrintHeight,35
;   useDiaphragm,0
;   diaphragmLayerInterval,20
;   robustSlicing,1
;   mergeAllIntoSolid,0
;   onlyRetractWhenCrossingOutline,0
;   retractBetweenLayers,1
;   useRetractionMinTravel,1
;   retractionMinTravel,3
;   retractWhileWiping,1
;   onlyWipeOutlines,1
;   avoidCrossingOutline,0
;   maxMovementDetourFactor,3
;   toolChangeRetractionDistance,12
;   toolChangeExtraRestartDistance,-0.5
;   toolChangeRetractionSpeed,600
;   externalThinWallType,0
;   internalThinWallType,2
;   thinWallAllowedOverlapPercentage,25
;   singleExtrusionMinLength,1
;   singleExtrusionMinPrintingWidthPercentage,50
;   singleExtrusionMaxPrintingWidthPercentage,200
;   singleExtrusionEndpointExtension,0.2
;   horizontalSizeCompensation,0
G90
M83
M106 S255
G4 P500
M106 S0
M140 S55
M190 S55
M104 S215 T0
M109 S215 T0
M115 U3.0.7 ; tell the printer latest firmware varsion available
G28 W ; home all without mesh bed level
G80 ; mesh bed leveling
G1 Y-3.0 F1000.0 ; go outside printing area
G1 X60.0 E9.0  F1000.0 ; intro line
G1 X100.0 E12.5  F1000.0 ; intro line
G1 E-0.8000 F1800
G1 Z0.330 F1000
; process Process1
; layer 1, Z = 0.330
T0
; tool H0.500 W0.428
; skirt
G1 X32.958 Y103.897 F4800
G1 E0.8000 F540
G1 X197.731 Y23.933 E16.2761 F1440
G1 X197.755 Y23.925 E0.0023
G1 X198.841 Y23.675 E0.0990
G1 X198.867 Y23.672 E0.0023
G1 X222.457 Y23.672 E2.0964
G1 X222.540 Y23.707 E0.0080
G1 X225.415 Y26.582 E0.3613
G1 X225.449 Y26.664 E0.0080
G1 X225.449 Y76.973 E4.4708
G1 X225.373 Y77.086 E0.0121
G1 X219.321 Y79.593 E0.5822
G1 X219.187 Y79.567 E0.0121
G1 X210.449 Y70.829 E1.0982
G1 X210.449 Y185.730 E10.2109
G1 X210.415 Y185.812 E0.0080
G1 X207.541 Y188.687 E0.3612
G1 X207.458 Y188.722 E0.0080
G1 X199.315 Y188.725 E0.7236
G1 X119.466 Y190.025 E7.0969
G1 X119.464 Y190.025 E0.0002
G1 X119.385 Y190.025 E0.0071
G1 X119.383 Y190.025 E0.0002
G1 X116.287 Y189.975 E0.2752
G1 X116.285 Y189.975 E0.0002
G1 X116.206 Y189.973 E0.0070
G1 X116.205 Y189.973 E0.0002
G1 X113.112 Y189.824 E0.2751
G1 X113.110 Y189.824 E0.0002
G1 X113.032 Y189.819 E0.0070
G1 X113.030 Y189.819 E0.0002
G1 X109.944 Y189.571 E0.2751
G1 X109.942 Y189.571 E0.0002
G1 X109.864 Y189.563 E0.0070
G1 X109.862 Y189.563 E0.0002
G1 X106.785 Y189.216 E0.2751
G1 X106.784 Y189.216 E0.0002
G1 X106.706 Y189.206 E0.0070
G1 X106.704 Y189.206 E0.0002
G1 X103.640 Y188.761 E0.2751
G1 X103.638 Y188.761 E0.0002
G1 X103.560 Y188.748 E0.0070
G1 X103.558 Y188.748 E0.0002
G1 X100.510 Y188.205 E0.2751
G1 X100.509 Y188.204 E0.0002
G1 X100.431 Y188.189 E0.0070
G1 X100.430 Y188.189 E0.0002
G1 X97.400 Y187.549 E0.2751
G1 X97.399 Y187.548 E0.0002
G1 X97.322 Y187.531 E0.0070
G1 X97.320 Y187.530 E0.0002
G1 X94.313 Y186.793 E0.2751
G1 X94.311 Y186.793 E0.0002
G1 X94.235 Y186.773 E0.0070
G1 X94.234 Y186.772 E0.0002
G1 X91.252 Y185.939 E0.2751
G1 X91.250 Y185.939 E0.0002
G1 X91.174 Y185.916 E0.0070
G1 X91.173 Y185.916 E0.0002
G1 X88.219 Y184.988 E0.2751
G1 X88.217 Y184.987 E0.0002
G1 X88.143 Y184.962 E0.0070
G1 X88.141 Y184.962 E0.0002
G1 X85.219 Y183.939 E0.2751
G1 X85.217 Y183.939 E0.0002
G1 X85.143 Y183.912 E0.0070
G1 X85.141 Y183.911 E0.0002
G1 X82.253 Y182.795 E0.2751
G1 X82.251 Y182.795 E0.0002
G1 X82.178 Y182.765 E0.0070
G1 X82.177 Y182.765 E0.0002
G1 X79.326 Y181.557 E0.2751
G1 X79.324 Y181.556 E0.0002
G1 X79.252 Y181.524 E0.0070
G1 X79.251 Y181.524 E0.0002
G1 X76.440 Y180.226 E0.2751
G1 X76.438 Y180.225 E0.0002
G1 X76.367 Y180.191 E0.0070
G1 X76.366 Y180.190 E0.0002
G1 X73.598 Y178.802 E0.2751
G1 X73.596 Y178.801 E0.0002
G1 X73.527 Y178.765 E0.0070
G1 X73.525 Y178.764 E0.0002
G1 X70.803 Y177.288 E0.2751
G1 X70.802 Y177.288 E0.0002
G1 X70.733 Y177.249 E0.0070
G1 X70.731 Y177.248 E0.0002
G1 X68.058 Y175.686 E0.2751
G1 X68.057 Y175.685 E0.0002
G1 X67.989 Y175.644 E0.0070
G1 X67.988 Y175.643 E0.0002
G1 X65.366 Y173.996 E0.2751
G1 X65.365 Y173.995 E0.0002
G1 X65.299 Y173.953 E0.0070
G1 X65.297 Y173.952 E0.0002
G1 X62.730 Y172.221 E0.2751
G1 X62.728 Y172.220 E0.0002
G1 X62.664 Y172.175 E0.0070
G1 X62.662 Y172.174 E0.0002
G1 X60.151 Y170.363 E0.2751
G1 X60.150 Y170.362 E0.0002
G1 X60.087 Y170.315 E0.0070
G1 X60.085 Y170.314 E0.0002
G1 X57.634 Y168.423 E0.2751
G1 X57.632 Y168.422 E0.0002
G1 X57.571 Y168.372 E0.0070
G1 X57.570 Y168.371 E0.0002
G1 X55.180 Y166.403 E0.2751
G1 X55.179 Y166.402 E0.0002
G1 X55.119 Y166.351 E0.0070
G1 X55.117 Y166.349 E0.0002
G1 X52.792 Y164.305 E0.2751
G1 X52.791 Y164.304 E0.0002
G1 X52.732 Y164.251 E0.0070
G1 X52.731 Y164.250 E0.0002
G1 X50.472 Y162.132 E0.2751
G1 X50.471 Y162.131 E0.0002
G1 X50.414 Y162.076 E0.0070
G1 X50.413 Y162.075 E0.0002
G1 X48.224 Y159.886 E0.2751
G1 X48.222 Y159.885 E0.0002
G1 X48.168 Y159.828 E0.0070
G1 X48.166 Y159.827 E0.0002
G1 X46.048 Y157.569 E0.2751
G1 X46.047 Y157.568 E0.0002
G1 X45.994 Y157.509 E0.0070
G1 X45.993 Y157.508 E0.0002
G1 X43.948 Y155.183 E0.2751
G1 X43.947 Y155.182 E0.0002
G1 X43.896 Y155.122 E0.0070
G1 X43.894 Y155.121 E0.0002
G1 X41.925 Y152.732 E0.2751
G1 X41.924 Y152.730 E0.0002
G1 X41.875 Y152.669 E0.0070
G1 X41.874 Y152.667 E0.0002
G1 X39.982 Y150.216 E0.2751
G1 X39.981 Y150.215 E0.0002
G1 X39.934 Y150.152 E0.0070
G1 X39.933 Y150.150 E0.0002
G1 X38.120 Y147.640 E0.2751
G1 X38.119 Y147.639 E0.0002
G1 X38.074 Y147.574 E0.0070
G1 X38.073 Y147.573 E0.0002
G1 X36.342 Y145.006 E0.2751
G1 X36.341 Y145.004 E0.0002
G1 X36.298 Y144.938 E0.0070
G1 X36.298 Y144.937 E0.0002
G1 X34.650 Y142.315 E0.2751
G1 X34.649 Y142.314 E0.0002
G1 X34.608 Y142.247 E0.0070
G1 X34.607 Y142.245 E0.0002
G1 X33.044 Y139.572 E0.2751
G1 X33.043 Y139.571 E0.0002
G1 X33.005 Y139.502 E0.0070
G1 X33.004 Y139.501 E0.0002
G1 X31.527 Y136.779 E0.2751
G1 X31.527 Y136.778 E0.0002
G1 X31.490 Y136.708 E0.0070
G1 X31.489 Y136.706 E0.0002
G1 X30.101 Y133.939 E0.2751
G1 X30.100 Y133.937 E0.0002
G1 X30.066 Y133.866 E0.0070
G1 X30.065 Y133.865 E0.0002
G1 X28.766 Y131.054 E0.2751
G1 X28.765 Y131.053 E0.0002
G1 X28.733 Y130.981 E0.0070
G1 X28.733 Y130.979 E0.0002
G1 X27.524 Y128.129 E0.2751
G1 X27.524 Y128.127 E0.0002
G1 X27.494 Y128.054 E0.0070
G1 X27.493 Y128.052 E0.0002
G1 X26.377 Y125.165 E0.2751
G1 X26.376 Y125.163 E0.0002
G1 X26.349 Y125.089 E0.0070
G1 X26.349 Y125.087 E0.0002
G1 X25.312 Y122.128 E0.2786
G1 X25.311 Y122.125 E0.0003
G1 X25.264 Y121.975 E0.0140
G1 X25.263 Y121.971 E0.0003
G1 X24.952 Y120.858 E0.1027
G1 X24.950 Y120.853 E0.0005
G1 X24.898 Y120.623 E0.0210
G1 X24.897 Y120.618 E0.0005
G1 X24.686 Y119.441 E0.1062
G1 X24.685 Y119.436 E0.0005
G1 X24.655 Y119.202 E0.0210
G1 X24.655 Y119.196 E0.0005
G1 X24.558 Y118.005 E0.1062
G1 X24.558 Y118.000 E0.0005
G1 X24.550 Y117.764 E0.0210
G1 X24.550 Y117.759 E0.0005
G1 X24.568 Y116.563 E0.1062
G1 X24.568 Y116.558 E0.0005
G1 X24.583 Y116.323 E0.0210
G1 X24.584 Y116.317 E0.0005
G1 X24.716 Y115.129 E0.1062
G1 X24.717 Y115.124 E0.0005
G1 X24.754 Y114.891 E0.0209
G1 X24.755 Y114.886 E0.0005
G1 X25.001 Y113.716 E0.1062
G1 X25.002 Y113.711 E0.0005
G1 X25.062 Y113.483 E0.0210
G1 X25.063 Y113.477 E0.0005
G1 X25.420 Y112.337 E0.1062
G1 X25.422 Y112.332 E0.0005
G1 X25.503 Y112.110 E0.0210
G1 X25.505 Y112.105 E0.0005
G1 X25.969 Y111.004 E0.1062
G1 X25.972 Y110.999 E0.0005
G1 X26.073 Y110.786 E0.0210
G1 X26.076 Y110.781 E0.0005
G1 X26.644 Y109.730 E0.1062
G1 X26.647 Y109.725 E0.0005
G1 X26.768 Y109.523 E0.0210
G1 X26.771 Y109.518 E0.0005
G1 X27.437 Y108.526 E0.1062
G1 X27.440 Y108.522 E0.0005
G1 X27.581 Y108.332 E0.0210
G1 X27.584 Y108.328 E0.0005
G1 X28.343 Y107.404 E0.1062
G1 X28.346 Y107.400 E0.0005
G1 X28.504 Y107.225 E0.0210
G1 X28.508 Y107.221 E0.0005
G1 X29.351 Y106.374 E0.1062
G1 X29.355 Y106.370 E0.0005
G1 X29.529 Y106.211 E0.0210
G1 X29.533 Y106.207 E0.0005
G1 X30.454 Y105.445 E0.1062
G1 X30.458 Y105.442 E0.0005
G1 X30.647 Y105.300 E0.0210
G1 X30.651 Y105.297 E0.0005
G1 X31.640 Y104.626 E0.1062
G1 X31.645 Y104.623 E0.0005
G1 X31.846 Y104.500 E0.0210
G1 X31.851 Y104.498 E0.0005
G1 X32.781 Y103.990 E0.0942
G1 X32.848 Y103.953 F1440
G1 X32.851 Y103.952 F1440
G1 X32.955 Y103.898 F1440
G1 X32.958 Y103.897 F1440
; tool H0.500 W0.760
; raft
G1 X34.042 Y106.066 F4800
G1 X198.554 Y26.229 E28.8895 F360
G1 X199.129 Y26.097 E0.0932
G1 X221.501 Y26.097 E3.5344
G1 X223.024 Y27.620 E0.3403
G1 X223.024 Y75.435 E7.5540
G1 X219.814 Y76.764 E0.5489
G1 X208.518 Y65.468 E2.5238
G1 X208.024 Y65.673 E0.0844
G1 X208.024 Y184.774 E18.8163
G1 X206.502 Y186.297 E0.3402
G1 X199.295 Y186.300 E1.1385
G1 X119.445 Y187.600 E12.6169
G1 X119.403 Y187.600 E0.0066
G1 X116.344 Y187.551 E0.4834
G1 X116.303 Y187.550 E0.0065
G1 X113.247 Y187.403 E0.4833
G1 X113.206 Y187.400 E0.0066
G1 X110.156 Y187.155 E0.4833
G1 X110.115 Y187.151 E0.0065
G1 X107.075 Y186.809 E0.4834
G1 X107.034 Y186.803 E0.0064
G1 X104.006 Y186.364 E0.4834
G1 X103.966 Y186.357 E0.0065
G1 X100.954 Y185.821 E0.4833
G1 X100.913 Y185.813 E0.0067
G1 X97.921 Y185.180 E0.4832
G1 X97.879 Y185.171 E0.0067
G1 X94.909 Y184.442 E0.4832
G1 X94.868 Y184.432 E0.0066
G1 X91.922 Y183.609 E0.4832
G1 X91.882 Y183.597 E0.0067
G1 X88.964 Y182.680 E0.4832
G1 X88.924 Y182.667 E0.0066
G1 X86.037 Y181.657 E0.4833
G1 X85.998 Y181.642 E0.0065
G1 X83.144 Y180.540 E0.4834
G1 X83.105 Y180.524 E0.0066
G1 X80.289 Y179.332 E0.4831
G1 X80.250 Y179.314 E0.0068
G1 X77.474 Y178.032 E0.4832
G1 X77.436 Y178.014 E0.0065
G1 X74.701 Y176.643 E0.4834
G1 X74.664 Y176.623 E0.0065
G1 X71.975 Y175.165 E0.4833
G1 X71.939 Y175.145 E0.0066
G1 X69.298 Y173.602 E0.4833
G1 X69.262 Y173.580 E0.0066
G1 X66.672 Y171.953 E0.4832
G1 X66.637 Y171.930 E0.0066
G1 X64.100 Y170.221 E0.4832
G1 X64.066 Y170.197 E0.0066
G1 X61.585 Y168.407 E0.4832
G1 X61.552 Y168.382 E0.0066
G1 X59.130 Y166.514 E0.4833
G1 X59.097 Y166.488 E0.0066
G1 X56.736 Y164.543 E0.4832
G1 X56.704 Y164.516 E0.0066
G1 X54.407 Y162.496 E0.4833
G1 X54.376 Y162.468 E0.0066
G1 X52.145 Y160.376 E0.4832
G1 X52.115 Y160.347 E0.0066
G1 X49.951 Y158.184 E0.4833
G1 X49.922 Y158.154 E0.0065
G1 X47.829 Y155.923 E0.4833
G1 X47.801 Y155.892 E0.0066
G1 X45.781 Y153.596 E0.4832
G1 X45.754 Y153.564 E0.0066
G1 X43.808 Y151.203 E0.4833
G1 X43.782 Y151.171 E0.0065
G1 X41.913 Y148.749 E0.4833
G1 X41.888 Y148.716 E0.0066
G1 X40.098 Y146.236 E0.4832
G1 X40.074 Y146.201 E0.0066
G1 X38.364 Y143.665 E0.4832
G1 X38.341 Y143.630 E0.0066
G1 X36.713 Y141.040 E0.4833
G1 X36.691 Y141.005 E0.0065
G1 X35.147 Y138.364 E0.4834
G1 X35.127 Y138.328 E0.0064
G1 X33.668 Y135.639 E0.4834
G1 X33.648 Y135.602 E0.0066
G1 X32.277 Y132.868 E0.4832
G1 X32.258 Y132.830 E0.0067
G1 X30.975 Y130.054 E0.4832
G1 X30.958 Y130.016 E0.0066
G1 X29.764 Y127.199 E0.4833
G1 X29.749 Y127.161 E0.0065
G1 X28.646 Y124.307 E0.4833
G1 X28.631 Y124.268 E0.0066
G1 X27.613 Y121.362 E0.4865
G1 X27.588 Y121.282 E0.0132
G1 X27.302 Y120.258 E0.1680
G1 X27.274 Y120.136 E0.0197
G1 X27.083 Y119.069 E0.1713
G1 X27.067 Y118.945 E0.0197
G1 X26.980 Y117.864 E0.1713
