; G-Code generated by Simplify3D(R) Version 4.0.0
; Feb 19, 2018 at 5:25:26 PM
; Settings Summary
;   processName,Process1
;   applyToModels,ring_wrench_adapter,ring_wrench_holder
;   profileName,Original Prusa i3 MK2 RC4 (modified)
;   profileVersion,2016-08-30 14:21:19
;   baseProfile,Prusa Mendel (modified)
;   printMaterial,PLA
;   printQuality,FAST 0.3mm
;   printExtruders,
;   extruderName,Primary Extruder
;   extruderToolheadNumber,0
;   extruderDiameter,0.4
;   extruderAutoWidth,0
;   extruderWidth,0.45
;   extrusionMultiplier,1
;   extruderUseRetract,1
;   extruderRetractionDistance,0.8
;   extruderExtraRestartDistance,0
;   extruderRetractionZLift,0
;   extruderRetractionSpeed,1800
;   extruderUseCoasting,1
;   extruderCoastingDistance,0.2
;   extruderUseWipe,1
;   extruderWipeDistance,2
;   primaryExtruder,0
;   layerHeight,0.3
;   topSolidLayers,3
;   bottomSolidLayers,3
;   perimeterOutlines,2
;   printPerimetersInsideOut,1
;   startPointOption,2
;   startPointOriginX,0
;   startPointOriginY,0
;   sequentialIslands,0
;   spiralVaseMode,0
;   firstLayerHeightPercentage,66
;   firstLayerWidthPercentage,95
;   firstLayerUnderspeed,0.6
;   useRaft,1
;   raftExtruder,0
;   raftTopLayers,3
;   raftBaseLayers,2
;   raftOffset,3
;   raftSeparationDistance,0.25
;   raftTopInfill,90
;   aboveRaftSpeedMultiplier,0.3
;   useSkirt,1
;   skirtExtruder,0
;   skirtLayers,1
;   skirtOutlines,1
;   skirtOffset,1.8
;   usePrimePillar,0
;   primePillarExtruder,999
;   primePillarWidth,12
;   primePillarLocation,7
;   primePillarSpeedMultiplier,1
;   useOozeShield,0
;   oozeShieldExtruder,999
;   oozeShieldOffset,2
;   oozeShieldOutlines,1
;   oozeShieldSidewallShape,1
;   oozeShieldSidewallAngle,30
;   oozeShieldSpeedMultiplier,1
;   infillExtruder,0
;   internalInfillPattern,Grid
;   externalInfillPattern,Rectilinear
;   infillPercentage,20
;   outlineOverlapPercentage,21
;   infillExtrusionWidthPercentage,100
;   minInfillLength,2
;   infillLayerInterval,1
;   internalInfillAngles,45,-45
;   overlapInternalInfillAngles,1
;   externalInfillAngles,45,-45
;   generateSupport,1
;   supportExtruder,0
;   supportInfillPercentage,30
;   supportExtraInflation,1.4
;   supportBaseLayers,0
;   denseSupportExtruder,0
;   denseSupportLayers,0
;   denseSupportInfillPercentage,70
;   supportLayerInterval,1
;   supportHorizontalPartOffset,0.2
;   supportUpperSeparationLayers,1
;   supportLowerSeparationLayers,1
;   supportType,0
;   supportGridSpacing,4
;   maxOverhangAngle,45
;   supportAngles,0
;   temperatureName,Primary Extruder,Heated Bed
;   temperatureNumber,0,1
;   temperatureSetpointCount,2,1
;   temperatureSetpointLayers,1,2,1
;   temperatureSetpointTemperatures,215,200,55
;   temperatureStabilizeAtStartup,1,1
;   temperatureHeatedBed,0,1
;   temperatureRelayBetweenLayers,0,0
;   temperatureRelayBetweenLoops,0,0
;   fanLayers,1,2
;   fanSpeeds,0,100
;   blipFanToFullPower,1
;   adjustSpeedForCooling,1
;   minSpeedLayerTime,15
;   minCoolingSpeedSlowdown,5
;   increaseFanForCooling,0
;   minFanLayerTime,45
;   maxCoolingFanSpeed,100
;   increaseFanForBridging,1
;   bridgingFanSpeed,100
;   use5D,1
;   relativeEdistances,1
;   allowEaxisZeroing,1
;   independentExtruderAxes,0
;   includeM10123,0
;   stickySupport,1
;   applyToolheadOffsets,0
;   gcodeXoffset,0
;   gcodeYoffset,0
;   gcodeZoffset,0
;   overrideMachineDefinition,1
;   machineTypeOverride,0
;   strokeXoverride,250
;   strokeYoverride,210
;   strokeZoverride,200
;   originOffsetXoverride,0
;   originOffsetYoverride,0
;   originOffsetZoverride,0
;   homeXdirOverride,-1
;   homeYdirOverride,-1
;   homeZdirOverride,-1
;   flipXoverride,1
;   flipYoverride,-1
;   flipZoverride,1
;   toolheadOffsets,0,0|0,0|0,0|0,0|0,0|0,0
;   overrideFirmwareConfiguration,0
;   firmwareTypeOverride,RepRap (Marlin/Repetier/Sprinter)
;   GPXconfigOverride,r2
;   baudRateOverride,250000
;   overridePrinterModels,1
;   printerModelsOverride
;   startingGcode,M115 U3.0.7 ; tell the printer latest firmware varsion available,G28 W ; home all without mesh bed level,G80 ; mesh bed leveling,G1 Y-3.0 F1000.0 ; go outside printing area,G1 X60.0 E9.0  F1000.0 ; intro line,G1 X100.0 E12.5  F1000.0 ; intro line
;   layerChangeGcode,
;   retractionGcode,
;   toolChangeGcode,
;   endingGcode,M104 S0 ; turn off temperature,M140 S0 ; turn off heatbed,M107 ; turn off fan,G1 X0 Y200; home X axis,M84 ; disable motors
;   exportFileFormat,gcode
;   celebration,0
;   celebrationSong,Random Song
;   postProcessing,{REPLACE "; outer perimeter\n" "; outer perimeter\nM204 S600\n"},{REPLACE "; inner perimeter\n" "; inner perimeter\nM204 S1200\n"},{REPLACE "; solid layer\n" "; solid layer\nM204 S1500\n"},{REPLACE "; infill\n" "; infill\nM204 S2000\n"}
;   defaultSpeed,2400
;   outlineUnderspeed,1
;   solidInfillUnderspeed,0.8
;   supportUnderspeed,0.8
;   rapidXYspeed,4800
;   rapidZspeed,1000
;   minBridgingArea,50
;   bridgingExtraInflation,1
;   bridgingExtrusionMultiplier,1
;   bridgingSpeedMultiplier,1
;   useFixedBridgingAngle,0
;   fixedBridgingAngle,0
;   applyBridgingToPerimeters,0
;   filamentDiameters,1.75|1.75|1.75|1.75|1.75|1.75
;   filamentPricesPerKg,215|215|215|215|215|215
;   filamentDensities,1.25|1.25|1.25|1.25|1.25|1.25
;   useMinPrintHeight,0
;   minPrintHeight,0
;   useMaxPrintHeight,0
;   maxPrintHeight,35
;   useDiaphragm,0
;   diaphragmLayerInterval,20
;   robustSlicing,1
;   mergeAllIntoSolid,0
;   onlyRetractWhenCrossingOutline,0
;   retractBetweenLayers,1
;   useRetractionMinTravel,1
;   retractionMinTravel,3
;   retractWhileWiping,1
;   onlyWipeOutlines,1
;   avoidCrossingOutline,0
;   maxMovementDetourFactor,3
;   toolChangeRetractionDistance,12
;   toolChangeExtraRestartDistance,-0.5
;   toolChangeRetractionSpeed,600
;   externalThinWallType,0
;   internalThinWallType,2
;   thinWallAllowedOverlapPercentage,25
;   singleExtrusionMinLength,1
;   singleExtrusionMinPrintingWidthPercentage,50
;   singleExtrusionMaxPrintingWidthPercentage,200
;   singleExtrusionEndpointExtension,0.2
;   horizontalSizeCompensation,0
G90
M83
M106 S255
G4 P500
M106 S0
M140 S55
M190 S55
M104 S215 T0
M109 S215 T0
M115 U3.0.7 ; tell the printer latest firmware varsion available
G28 W ; home all without mesh bed level
G80 ; mesh bed leveling
G1 Y-3.0 F1000.0 ; go outside printing area
G1 X60.0 E9.0  F1000.0 ; intro line
G1 X100.0 E12.5  F1000.0 ; intro line
G1 E-0.8000 F1800
G1 Z0.330 F1000
; process Process1
; layer 1, Z = 0.330
T0
; tool H0.500 W0.428
; skirt
G1 X31.884 Y50.009 F4800
G1 E0.8000 F540
G1 X31.967 Y49.975 E0.0080 F1440
G1 X121.033 Y49.975 E7.9150
G1 X121.116 Y50.009 E0.0080
G1 X123.991 Y52.884 E0.3613
G1 X124.025 Y52.967 E0.0080
G1 X124.025 Y112.869 E5.3233
G1 X132.763 Y104.131 E1.0982
G1 X132.897 Y104.104 E0.0121
G1 X138.949 Y106.611 E0.5822
G1 X139.025 Y106.724 E0.0121
G1 X139.025 Y157.033 E4.4708
G1 X138.991 Y157.116 E0.0080
G1 X136.116 Y159.991 E0.3613
G1 X136.033 Y160.025 E0.0080
G1 X31.967 Y160.025 E9.2480
G1 X31.884 Y159.991 E0.0080
G1 X29.009 Y157.116 E0.3613
G1 X28.975 Y157.033 E0.0080
G1 X28.975 Y52.967 E9.2480
G1 X29.009 Y52.884 E0.0080
G1 X31.743 Y50.151 E0.3436
G1 X31.884 Y50.009 F1440
; tool H0.500 W0.760
; raft
G1 X32.923 Y52.400 F4800
G1 X120.077 Y52.400 E13.7691 F360
G1 X121.600 Y53.923 E0.3403
G1 X121.600 Y118.025 E10.1271
G1 X122.094 Y118.229 E0.0844
G1 X133.390 Y106.933 E2.5238
G1 X136.600 Y108.263 E0.5489
G1 X136.600 Y156.077 E7.5540
G1 X135.077 Y157.600 E0.3403
G1 X32.923 Y157.600 E16.1389
G1 X31.400 Y156.077 E0.3403
G1 X31.400 Y53.923 E16.1389
G1 X32.782 Y52.541 E0.3087
G1 X32.923 Y52.400 F360
G1 X32.200 Y54.714 F4800
G1 X120.800 Y54.714 E13.9975 F360
G1 X120.800 Y57.000 E0.3611
G1 X32.200 Y57.000 E13.9975
G1 X32.200 Y59.286 E0.3611
G1 X120.800 Y59.286 E13.9975
G1 X120.800 Y61.571 E0.3611
G1 X32.200 Y61.571 E13.9975
G1 X32.200 Y63.857 E0.3611
G1 X120.800 Y63.857 E13.9975
G1 X120.800 Y66.143 E0.3611
G1 X32.200 Y66.143 E13.9975
G1 X32.200 Y68.429 E0.3611
G1 X120.800 Y68.429 E13.9975
G1 X120.800 Y70.714 E0.3611
G1 X32.200 Y70.714 E13.9975
G1 X32.200 Y73.000 E0.3611
G1 X120.800 Y73.000 E13.9975
G1 X120.800 Y75.286 E0.3611
G1 X32.200 Y75.286 E13.9975
G1 X32.200 Y77.571 E0.3611
G1 X120.800 Y77.571 E13.9975
G1 X120.800 Y79.857 E0.3611
G1 X32.200 Y79.857 E13.9975
G1 X32.200 Y82.143 E0.3611
G1 X120.800 Y82.143 E13.9975
G1 X120.800 Y84.429 E0.3611
G1 X32.200 Y84.429 E13.9975
G1 X32.200 Y86.714 E0.3611
G1 X120.800 Y86.714 E13.9975
G1 X120.800 Y89.000 E0.3611
G1 X32.200 Y89.000 E13.9975
G1 X32.200 Y91.286 E0.3611
G1 X120.800 Y91.286 E13.9975
G1 X120.800 Y93.571 E0.3611
G1 X32.200 Y93.571 E13.9975
G1 X32.200 Y95.857 E0.3611
G1 X120.800 Y95.857 E13.9975
G1 X120.800 Y98.143 E0.3611
G1 X32.200 Y98.143 E13.9975
G1 X32.200 Y100.429 E0.3611
G1 X120.800 Y100.429 E13.9975
G1 X120.800 Y102.714 E0.3611
G1 X32.200 Y102.714 E13.9975
G1 X32.200 Y105.000 E0.3611
G1 X120.800 Y105.000 E13.9975
G1 X120.800 Y107.286 E0.3611
G1 X32.200 Y107.286 E13.9975
G1 X32.200 Y109.571 E0.3611
G1 X120.800 Y109.571 E13.9975
G1 X120.800 Y111.857 E0.3611
G1 X32.200 Y111.857 E13.9975
G1 X32.200 Y114.143 E0.3611
G1 X120.800 Y114.143 E13.9975
G1 X120.800 Y116.429 E0.3611
G1 X32.200 Y116.429 E13.9975
G1 X32.200 Y118.714 E0.3611
G1 X121.174 Y118.714 E14.0567
G1 X122.282 Y119.173 E0.1893
G1 X122.740 Y118.714 E0.1025
G1 X135.800 Y118.714 E2.0633
G1 X135.800 Y121.000 E0.3611
G1 X32.200 Y121.000 E16.3673
G1 X32.200 Y123.286 E0.3611
G1 X135.800 Y123.286 E16.3673
G1 X135.800 Y125.571 E0.3611
G1 X32.200 Y125.571 E16.3673
G1 X32.200 Y127.857 E0.3611
G1 X135.800 Y127.857 E16.3673
G1 X135.800 Y130.143 E0.3611
G1 X32.200 Y130.143 E16.3673
G1 X32.200 Y132.429 E0.3611
G1 X135.800 Y132.429 E16.3673
G1 X135.800 Y134.714 E0.3611
G1 X32.200 Y134.714 E16.3673
G1 X32.200 Y137.000 E0.3611
G1 X135.800 Y137.000 E16.3673
G1 X135.800 Y139.286 E0.3611
G1 X32.200 Y139.286 E16.3673
G1 X32.200 Y141.571 E0.3611
G1 X135.800 Y141.571 E16.3673
G1 X135.800 Y143.857 E0.3611
G1 X32.200 Y143.857 E16.3673
G1 X32.200 Y146.143 E0.3611
G1 X135.800 Y146.143 E16.3673
G1 X135.800 Y148.429 E0.3611
G1 X32.200 Y148.429 E16.3673
G1 X32.200 Y150.714 E0.3611
G1 X135.800 Y150.714 E16.3673
G1 X135.800 Y153.000 E0.3611
G1 X32.200 Y153.000 E16.3673
G1 X32.200 Y155.286 E0.3611
G1 X135.600 Y155.286 E16.3357
G1 X135.800 Y155.286 F360
G1 E-0.8000 F1800
G1 X125.026 Y116.429 F4800
G1 E0.8000 F1800
G1 X135.800 Y116.429 E1.7022 F360
G1 X135.800 Y114.143 E0.3611
G1 X127.312 Y114.143 E1.3411
G1 X129.597 Y111.857 E0.5107
G1 X135.800 Y111.857 E0.9799
G1 X135.800 Y109.571 E0.3611
G1 X132.083 Y109.571 E0.5872
G1 X131.883 Y109.571 F360
G1 E-0.8000 F1800
; layer 2, Z = 0.830
M104 S200 T0
M106 S255
; tool H0.500 W0.800
G1 X133.390 Y106.933 F4800
G1 Z0.830 F1000
G1 E0.8000 F1800
G1 X136.600 Y108.263 E0.5778 F600
G1 X136.600 Y156.077 E7.9515
G1 X135.077 Y157.600 E0.3582
G1 X32.923 Y157.600 E16.9883
G1 X31.400 Y156.077 E0.3582
G1 X31.400 Y53.923 E16.9883
G1 X32.923 Y52.400 E0.3582
G1 X120.077 Y52.400 E14.4938
G1 X121.600 Y53.923 E0.3582
G1 X121.600 Y118.025 E10.6601
G1 X122.094 Y118.229 E0.0889
G1 X133.249 Y107.075 E2.6234
G1 X133.390 Y106.933 F600
G1 E-0.8000 F1800
G1 X131.883 Y109.571 F4800
G1 E0.8000 F1800
G1 X135.800 Y109.571 E0.6514 F600
G1 X135.800 Y111.857 E0.3801
G1 X129.597 Y111.857 E1.0315
G1 X127.312 Y114.143 E0.5376
G1 X135.800 Y114.143 E1.4116
G1 X135.800 Y116.429 E0.3801
G1 X125.226 Y116.429 E1.7585
G1 X125.026 Y116.429 F600
G1 E-0.8000 F1800
G1 X135.800 Y155.286 F4800
G1 E0.8000 F1800
G1 X32.200 Y155.286 E17.2287 F600
G1 X32.200 Y153.000 E0.3801
G1 X135.800 Y153.000 E17.2287
G1 X135.800 Y150.714 E0.3801
G1 X32.200 Y150.714 E17.2287
G1 X32.200 Y148.429 E0.3801
G1 X135.800 Y148.429 E17.2287
G1 X135.800 Y146.143 E0.3801
G1 X32.200 Y146.143 E17.2287
G1 X32.200 Y143.857 E0.3801
G1 X135.800 Y143.857 E17.2287
G1 X135.800 Y141.571 E0.3801
G1 X32.200 Y141.571 E17.2287
G1 X32.200 Y139.286 E0.3801
G1 X135.800 Y139.286 E17.2287
G1 X135.800 Y137.000 E0.3801
G1 X32.200 Y137.000 E17.2287
G1 X32.200 Y134.714 E0.3801
G1 X135.800 Y134.714 E17.2287
G1 X135.800 Y132.429 E0.3801
G1 X32.200 Y132.429 E17.2287
G1 X32.200 Y130.143 E0.3801
G1 X135.800 Y130.143 E17.2287
G1 X135.800 Y127.857 E0.3801
G1 X32.200 Y127.857 E17.2287
G1 X32.200 Y125.571 E0.3801
G1 X135.800 Y125.571 E17.2287
G1 X135.800 Y123.286 E0.3801
G1 X32.200 Y123.286 E17.2287
G1 X32.200 Y121.000 E0.3801
G1 X135.800 Y121.000 E17.2287
G1 X135.800 Y118.714 E0.3801
G1 X122.740 Y118.714 E2.1719
G1 X122.282 Y119.173 E0.1078
G1 X121.174 Y118.714 E0.1993
G1 X32.200 Y118.714 E14.7965
G1 X32.200 Y116.429 E0.3801
G1 X120.800 Y116.429 E14.7342
G1 X120.800 Y114.143 E0.3801
G1 X32.200 Y114.143 E14.7342
G1 X32.200 Y111.857 E0.3801
G1 X120.800 Y111.857 E14.7342
G1 X120.800 Y109.571 E0.3801
G1 X32.200 Y109.571 E14.7342
G1 X32.200 Y107.286 E0.3801
G1 X120.800 Y107.286 E14.7342
G1 X120.800 Y105.000 E0.3801
G1 X32.200 Y105.000 E14.7342
G1 X32.200 Y102.714 E0.3801
G1 X120.800 Y102.714 E14.7342
G1 X120.800 Y100.429 E0.3801
G1 X32.200 Y100.429 E14.7342
G1 X32.200 Y98.143 E0.3801
G1 X120.800 Y98.143 E14.7342
G1 X120.800 Y95.857 E0.3801
G1 X32.200 Y95.857 E14.7342
G1 X32.200 Y93.571 E0.3801
G1 X120.800 Y93.571 E14.7342
G1 X120.800 Y91.286 E0.3801
G1 X32.200 Y91.286 E14.7342
G1 X32.200 Y89.000 E0.3801
G1 X120.800 Y89.000 E14.7342
G1 X120.800 Y86.714 E0.3801
G1 X32.200 Y86.714 E14.7342
G1 X32.200 Y84.429 E0.3801
G1 X120.800 Y84.429 E14.7342
G1 X120.800 Y82.143 E0.3801
G1 X32.200 Y82.143 E14.7342
G1 X32.200 Y79.857 E0.3801
G1 X120.800 Y79.857 E14.7342
G1 X120.800 Y77.571 E0.3801
G1 X32.200 Y77.571 E14.7342
G1 X32.200 Y75.286 E0.3801
G1 X120.800 Y75.286 E14.7342
G1 X120.800 Y73.000 E0.3801
G1 X32.200 Y73.000 E14.7342
G1 X32.200 Y70.714 E0.3801
G1 X120.800 Y70.714 E14.7342
G1 X120.800 Y68.429 E0.3801
G1 X32.200 Y68.429 E14.7342
G1 X32.200 Y66.143 E0.3801
G1 X120.800 Y66.143 E14.7342
G1 X120.800 Y63.857 E0.3801
G1 X32.200 Y63.857 E14.7342
G1 X32.200 Y61.571 E0.3801
G1 X120.800 Y61.571 E14.7342
G1 X120.800 Y59.286 E0.3801
G1 X32.200 Y59.286 E14.7342
G1 X32.200 Y57.000 E0.3801
G1 X120.800 Y57.000 E14.7342
G1 X120.800 Y54.714 E0.3801
G1 X32.400 Y54.714 E14.7010
G1 X32.200 Y54.714 F600
G1 E-0.8000 F1800
; layer 3, Z = 1.052
; tool H0.222 W0.400
G1 X31.200 Y54.091 F4800
G1 Z1.052 F1000
G1 E0.8000 F1800
G1 X33.091 Y52.200 E0.0988 F1800
G1 X33.720 Y52.200 E0.0232
G1 X31.200 Y54.720 E0.1317
G1 X31.200 Y55.348 E0.0232
G1 X34.348 Y52.200 E0.1645
G1 X34.977 Y52.200 E0.0232
G1 X31.200 Y55.977 E0.1974
G1 X31.200 Y56.605 E0.0232
G1 X35.605 Y52.200 E0.2302
G1 X36.234 Y52.200 E0.0232
G1 X31.200 Y57.234 E0.2631
G1 X31.200 Y57.862 E0.0232
G1 X36.862 Y52.200 E0.2959
G1 X37.491 Y52.200 E0.0232
G1 X31.200 Y58.491 E0.3288
G1 X31.200 Y59.119 E0.0232
G1 X38.119 Y52.200 E0.3616
G1 X38.748 Y52.200 E0.0232
G1 X31.200 Y59.748 E0.3945
G1 X31.200 Y60.376 E0.0232
G1 X39.376 Y52.200 E0.4273
G1 X40.005 Y52.200 E0.0232
G1 X31.200 Y61.005 E0.4602
G1 X31.200 Y61.634 E0.0232
G1 X40.634 Y52.200 E0.4930
G1 X41.262 Y52.200 E0.0232
G1 X31.200 Y62.262 E0.5259
G1 X31.200 Y62.891 E0.0232
G1 X41.891 Y52.200 E0.5587
G1 X42.519 Y52.200 E0.0232
G1 X31.200 Y63.519 E0.5916
G1 X31.200 Y64.148 E0.0232
G1 X43.148 Y52.200 E0.6244
G1 X43.776 Y52.200 E0.0232
G1 X31.200 Y64.776 E0.6573
G1 X31.200 Y65.405 E0.0232
G1 X44.405 Y52.200 E0.6901
G1 X45.033 Y52.200 E0.0232
G1 X31.200 Y66.033 E0.7230
G1 X31.200 Y66.662 E0.0232
G1 X45.662 Y52.200 E0.7558
G1 X46.290 Y52.200 E0.0232
G1 X31.200 Y67.290 E0.7887
G1 X31.200 Y67.919 E0.0232
G1 X46.919 Y52.200 E0.8215
G1 X47.547 Y52.200 E0.0232
G1 X31.200 Y68.547 E0.8544
G1 X31.200 Y69.176 E0.0232
G1 X48.176 Y52.200 E0.8872
G1 X48.805 Y52.200 E0.0232
G1 X31.200 Y69.805 E0.9201
G1 X31.200 Y70.433 E0.0232
G1 X49.433 Y52.200 E0.9529
G1 X50.062 Y52.200 E0.0232
G1 X31.200 Y71.062 E0.9858
G1 X31.200 Y71.690 E0.0232
G1 X50.690 Y52.200 E1.0186
G1 X51.319 Y52.200 E0.0232
G1 X31.200 Y72.319 E1.0515
G1 X31.200 Y72.947 E0.0232
G1 X51.947 Y52.200 E1.0843
G1 X52.576 Y52.200 E0.0232
G1 X31.200 Y73.576 E1.1172
G1 X31.200 Y74.204 E0.0232
G1 X53.204 Y52.200 E1.1500
G1 X53.833 Y52.200 E0.0232
