; G-Code generated by Simplify3D(R) Version 4.0.0
; Jan 20, 2018 at 4:23:11 PM
; Settings Summary
;   processName,Process1
;   applyToModels,scredriver_PZ2x100_holder
;   profileName,i3mk2s slow speed (modified)
;   profileVersion,2017-07-25 08:31:18
;   baseProfile,Prusa Research Original Prusa i3 MK2 (modified)
;   printMaterial,PLA
;   printQuality,Fast
;   printExtruders,
;   extruderName,Primary Extruder
;   extruderToolheadNumber,0
;   extruderDiameter,0.4
;   extruderAutoWidth,1
;   extruderWidth,0.48
;   extrusionMultiplier,1
;   extruderUseRetract,1
;   extruderRetractionDistance,4
;   extruderExtraRestartDistance,0
;   extruderRetractionZLift,0
;   extruderRetractionSpeed,1800
;   extruderUseCoasting,1
;   extruderCoastingDistance,0.2
;   extruderUseWipe,1
;   extruderWipeDistance,2
;   primaryExtruder,0
;   layerHeight,0.3
;   topSolidLayers,4
;   bottomSolidLayers,4
;   perimeterOutlines,4
;   printPerimetersInsideOut,1
;   startPointOption,1
;   startPointOriginX,0
;   startPointOriginY,0
;   sequentialIslands,0
;   spiralVaseMode,0
;   firstLayerHeightPercentage,110
;   firstLayerWidthPercentage,100
;   firstLayerUnderspeed,0.5
;   useRaft,1
;   raftExtruder,0
;   raftTopLayers,2
;   raftBaseLayers,1
;   raftOffset,3
;   raftSeparationDistance,0.25
;   raftTopInfill,40
;   aboveRaftSpeedMultiplier,0.9
;   useSkirt,1
;   skirtExtruder,0
;   skirtLayers,1
;   skirtOutlines,2
;   skirtOffset,4
;   usePrimePillar,0
;   primePillarExtruder,999
;   primePillarWidth,12
;   primePillarLocation,7
;   primePillarSpeedMultiplier,1
;   useOozeShield,0
;   oozeShieldExtruder,999
;   oozeShieldOffset,2
;   oozeShieldOutlines,1
;   oozeShieldSidewallShape,1
;   oozeShieldSidewallAngle,30
;   oozeShieldSpeedMultiplier,1
;   infillExtruder,0
;   internalInfillPattern,Fast Honeycomb
;   externalInfillPattern,Rectilinear
;   infillPercentage,10
;   outlineOverlapPercentage,20
;   infillExtrusionWidthPercentage,100
;   minInfillLength,5
;   infillLayerInterval,1
;   internalInfillAngles,0
;   overlapInternalInfillAngles,0
;   externalInfillAngles,45,-45
;   generateSupport,1
;   supportExtruder,0
;   supportInfillPercentage,20
;   supportExtraInflation,0
;   supportBaseLayers,0
;   denseSupportExtruder,0
;   denseSupportLayers,1
;   denseSupportInfillPercentage,15
;   supportLayerInterval,1
;   supportHorizontalPartOffset,0.3
;   supportUpperSeparationLayers,1
;   supportLowerSeparationLayers,1
;   supportType,0
;   supportGridSpacing,4
;   maxOverhangAngle,45
;   supportAngles,0
;   temperatureName,Primary Extruder,Heated Bed
;   temperatureNumber,0,0
;   temperatureSetpointCount,1,1
;   temperatureSetpointLayers,1,1
;   temperatureSetpointTemperatures,215,60
;   temperatureStabilizeAtStartup,1,1
;   temperatureHeatedBed,0,1
;   temperatureRelayBetweenLayers,0,0
;   temperatureRelayBetweenLoops,0,0
;   fanLayers,1,4,6
;   fanSpeeds,0,100,60
;   blipFanToFullPower,0
;   adjustSpeedForCooling,1
;   minSpeedLayerTime,15
;   minCoolingSpeedSlowdown,20
;   increaseFanForCooling,0
;   minFanLayerTime,45
;   maxCoolingFanSpeed,100
;   increaseFanForBridging,0
;   bridgingFanSpeed,100
;   use5D,1
;   relativeEdistances,0
;   allowEaxisZeroing,1
;   independentExtruderAxes,0
;   includeM10123,0
;   stickySupport,1
;   applyToolheadOffsets,0
;   gcodeXoffset,0
;   gcodeYoffset,0
;   gcodeZoffset,0
;   overrideMachineDefinition,1
;   machineTypeOverride,0
;   strokeXoverride,250
;   strokeYoverride,210
;   strokeZoverride,200
;   originOffsetXoverride,0
;   originOffsetYoverride,0
;   originOffsetZoverride,0
;   homeXdirOverride,-1
;   homeYdirOverride,-1
;   homeZdirOverride,-1
;   flipXoverride,1
;   flipYoverride,-1
;   flipZoverride,1
;   toolheadOffsets,0,0|0,0|0,0|0,0|0,0|0,0
;   overrideFirmwareConfiguration,1
;   firmwareTypeOverride,RepRap (Marlin/Repetier/Sprinter)
;   GPXconfigOverride,r2
;   baudRateOverride,250000
;   overridePrinterModels,1
;   printerModelsOverride
;   startingGcode,M115 U3.0.7 ; use the latest firmware version,G28 W ; home all axes without mesh bed leveling,G80 ; run mesh bed leveling routine,G1 Y-3.0 F1000.0 ; prepare to prime,G92 E0 ; reset extrusion distance,G1 X60.0 E9.0  F1000.0 ; priming,G1 X100.0 E12.5  F1000.0 ; priming
;   layerChangeGcode,
;   retractionGcode,
;   toolChangeGcode,
;   endingGcode,M106 S0 ; turn off cooling fan,M104 S0 ; turn off extruder,M140 S0 ; turn off bed,G1 X0 Y200 ; part removal,M84 ; disable motors
;   exportFileFormat,gcode
;   celebration,0
;   celebrationSong,Random Song
;   postProcessing,
;   defaultSpeed,2000
;   outlineUnderspeed,0.8
;   solidInfillUnderspeed,0.8
;   supportUnderspeed,0.8
;   rapidXYspeed,4400
;   rapidZspeed,8000
;   minBridgingArea,50
;   bridgingExtraInflation,0
;   bridgingExtrusionMultiplier,1
;   bridgingSpeedMultiplier,1
;   useFixedBridgingAngle,0
;   fixedBridgingAngle,0
;   applyBridgingToPerimeters,0
;   filamentDiameters,1.75|1.75|1.75|1.75|1.75|1.75
;   filamentPricesPerKg,46|46|46|46|46|46
;   filamentDensities,1.25|1.25|1.25|1.25|1.25|1.25
;   useMinPrintHeight,0
;   minPrintHeight,0
;   useMaxPrintHeight,0
;   maxPrintHeight,147
;   useDiaphragm,1
;   diaphragmLayerInterval,20
;   robustSlicing,1
;   mergeAllIntoSolid,0
;   onlyRetractWhenCrossingOutline,1
;   retractBetweenLayers,1
;   useRetractionMinTravel,0
;   retractionMinTravel,3
;   retractWhileWiping,1
;   onlyWipeOutlines,1
;   avoidCrossingOutline,0
;   maxMovementDetourFactor,3
;   toolChangeRetractionDistance,12
;   toolChangeExtraRestartDistance,-0.5
;   toolChangeRetractionSpeed,600
;   externalThinWallType,0
;   internalThinWallType,2
;   thinWallAllowedOverlapPercentage,25
;   singleExtrusionMinLength,1
;   singleExtrusionMinPrintingWidthPercentage,50
;   singleExtrusionMaxPrintingWidthPercentage,200
;   singleExtrusionEndpointExtension,0.2
;   horizontalSizeCompensation,0
G90
M82
M106 S0
M140 S60
M190 S60
M104 S215 T0
M109 S215 T0
M115 U3.0.7 ; use the latest firmware version
G28 W ; home all axes without mesh bed leveling
G80 ; run mesh bed leveling routine
G1 Y-3.0 F1000.0 ; prepare to prime
G92 E0 ; reset extrusion distance
G1 X60.0 E9.0  F1000.0 ; priming
G1 X100.0 E12.5  F1000.0 ; priming
G92 E0
G1 E-4.0000 F1800
G1 Z0.550 F8000
; process Process1
; layer 1, Z = 0.550
T0
; tool H0.550 W0.480
; skirt
G1 X90.483 Y103.071 F4400
G1 E0.0000 F540
G92 E0
G1 X90.733 Y102.932 E0.0314 F1000
G1 X133.418 Y98.027 E4.7473
G1 X134.056 Y97.390 E4.8462
G1 X134.320 Y97.280 E4.8777
G1 X143.406 Y97.280 E5.8749
G1 X143.670 Y97.390 E5.9063
G1 X147.973 Y101.693 E6.5743
G1 X148.083 Y101.957 E6.6057
G1 X148.083 Y131.362 E9.8331
G1 X153.366 Y126.079 E10.6532
G1 X153.794 Y125.994 E10.7011
G1 X162.840 Y129.741 E11.7758
G1 X163.083 Y130.104 E11.8237
G1 X163.083 Y183.043 E17.6342
G1 X162.973 Y183.307 E17.6656
G1 X158.670 Y187.611 E18.3336
G1 X158.405 Y187.720 E18.3650
G1 X134.320 Y187.719 E21.0086
G1 X134.055 Y187.610 E21.0400
G1 X133.799 Y187.353 E21.0798
G1 X132.707 Y187.290 E21.1998
G1 X132.457 Y187.174 E21.2301
G1 X128.450 Y182.927 E21.8710
G1 X128.348 Y182.671 E21.9012
G1 X128.348 Y121.885 E28.5730
G1 X93.373 Y125.904 E32.4371
G1 X93.097 Y125.825 E32.4685
G1 X88.331 Y122.041 E33.1364
G1 X88.192 Y121.791 E33.1679
G1 X86.620 Y108.112 E34.6791
G1 X86.699 Y107.837 E34.7105
G1 X90.358 Y103.227 E35.3565
G1 X90.483 Y103.071 F1000
G92 E0
G1 E-4.0000 F1800
G1 X90.799 Y103.444 F4400
G1 E0.0000 F1800
G92 E0
G1 X90.883 Y103.398 E0.0105 F1000
G1 X133.639 Y98.485 E4.7342
G1 X134.327 Y97.797 E4.8411
G1 X134.416 Y97.760 E4.8516
G1 X143.310 Y97.760 E5.8278
G1 X143.398 Y97.797 E5.8383
G1 X147.566 Y101.965 E6.4852
G1 X147.603 Y102.053 E6.4957
G1 X147.603 Y132.521 E9.8399
G1 X153.602 Y126.522 E10.7711
G1 X153.745 Y126.493 E10.7871
G1 X162.522 Y130.129 E11.8298
G1 X162.603 Y130.250 E11.8458
G1 X162.603 Y182.947 E17.6298
G1 X162.566 Y183.036 E17.6402
G1 X158.398 Y187.204 E18.2872
G1 X158.310 Y187.240 E18.2977
G1 X134.415 Y187.239 E20.9203
G1 X134.327 Y187.203 E20.9308
G1 X134.009 Y186.884 E20.9802
G1 X132.827 Y186.816 E21.1102
G1 X132.743 Y186.777 E21.1203
G1 X128.862 Y182.665 E21.7410
G1 X128.828 Y182.579 E21.7511
G1 X128.828 Y121.347 E28.4718
G1 X93.413 Y125.416 E32.3845
G1 X93.321 Y125.390 E32.3950
G1 X88.704 Y121.725 E33.0420
G1 X88.658 Y121.641 E33.0525
G1 X87.108 Y108.152 E34.5427
G1 X87.134 Y108.061 E34.5532
G1 X90.675 Y103.601 E35.1782
G1 X90.799 Y103.444 F1000
G92 E0
G1 E-4.0000 F1800
; tool H0.550 W0.800
; raft
G1 X93.270 Y107.794 F4400
G1 E0.0000 F1800
G92 E0
G1 X135.776 Y102.910 E7.8267 F250
G1 X136.286 Y102.400 E7.9586
G1 X141.440 Y102.400 E8.9015
G1 X142.963 Y103.923 E9.2955
G1 X142.963 Y143.025 E16.4484
G1 X143.457 Y143.229 E16.5461
G1 X154.753 Y131.933 E19.4685
G1 X157.963 Y133.263 E20.1041
G1 X157.963 Y181.077 E28.8508
G1 X156.440 Y182.600 E29.2448
G1 X136.286 Y182.599 E32.9316
G1 X136.041 Y182.354 E32.9950
G1 X134.886 Y182.287 E33.2065
G1 X133.468 Y180.785 E33.5845
G1 X133.468 Y116.143 E45.4095
G1 X94.741 Y120.593 E52.5404
G1 X93.054 Y119.254 E52.9344
G1 X91.931 Y109.481 E54.7339
G1 X93.146 Y107.950 E55.0914
G1 X93.270 Y107.794 F250
G92 E0
G1 E-4.0000 F1800
G1 X94.831 Y119.643 F4400
G1 E0.0000 F1800
G92 E0
G1 X96.000 Y119.643 E0.2139 F250
G1 X115.893 Y117.357 E3.8769
G1 X93.641 Y117.357 E7.9474
G1 X93.379 Y115.071 E8.3683
G1 X142.163 Y115.071 E17.2924
G1 X142.163 Y112.786 E17.7105
G1 X93.116 Y112.786 E26.6826
G1 X92.854 Y110.500 E27.1035
G1 X142.163 Y110.500 E36.1237
G1 X142.163 Y108.214 E36.5418
G1 X96.619 Y108.214 E44.8732
G1 X116.512 Y105.929 E48.5362
G1 X142.163 Y105.929 E53.2285
G1 X142.163 Y104.254 E53.5348
G1 X141.551 Y103.643 E53.6930
G1 X136.374 Y103.643 E54.6400
G1 X136.174 Y103.643 F250
G92 E0
G1 E-4.0000 F1800
G1 X134.268 Y117.357 F4400
G1 E0.0000 F1800
G92 E0
G1 X142.163 Y117.357 E1.4443 F250
G1 X142.163 Y119.643 E1.8624
G1 X134.268 Y119.643 E3.3066
G1 X134.268 Y121.929 E3.7248
G1 X142.163 Y121.929 E5.1690
G1 X142.163 Y124.214 E5.5871
G1 X134.268 Y124.214 E7.0314
G1 X134.268 Y126.500 E7.4495
G1 X142.163 Y126.500 E8.8938
G1 X142.163 Y128.786 E9.3119
G1 X134.268 Y128.786 E10.7562
G1 X134.268 Y131.071 E11.1743
G1 X142.163 Y131.071 E12.6185
G1 X142.163 Y133.357 E13.0367
G1 X134.268 Y133.357 E14.4809
G1 X134.268 Y135.643 E14.8990
G1 X142.163 Y135.643 E16.3433
G1 X142.163 Y137.929 E16.7614
G1 X134.268 Y137.929 E18.2057
G1 X134.268 Y140.214 E18.6238
G1 X142.163 Y140.214 E20.0681
G1 X142.163 Y142.500 E20.4862
G1 X134.268 Y142.500 E21.9304
G1 X134.268 Y144.786 E22.3486
G1 X157.163 Y144.786 E26.5368
G1 X157.163 Y147.071 E26.9549
G1 X134.268 Y147.071 E31.1431
G1 X134.268 Y149.357 E31.5612
G1 X157.163 Y149.357 E35.7495
G1 X157.163 Y151.643 E36.1676
G1 X134.268 Y151.643 E40.3558
G1 X134.268 Y153.929 E40.7739
G1 X157.163 Y153.929 E44.9621
G1 X157.163 Y156.214 E45.3803
G1 X134.268 Y156.214 E49.5685
G1 X134.268 Y158.500 E49.9866
G1 X157.163 Y158.500 E54.1748
G1 X157.163 Y160.786 E54.5930
G1 X134.268 Y160.786 E58.7812
G1 X134.268 Y163.071 E59.1993
G1 X157.163 Y163.071 E63.3875
G1 X157.163 Y165.357 E63.8056
G1 X134.268 Y165.357 E67.9938
G1 X134.268 Y167.643 E68.4120
G1 X157.163 Y167.643 E72.6002
G1 X157.163 Y169.929 E73.0183
G1 X134.268 Y169.929 E77.2065
G1 X134.268 Y172.214 E77.6247
G1 X157.163 Y172.214 E81.8129
G1 X157.163 Y174.500 E82.2310
G1 X134.268 Y174.500 E86.4192
G1 X134.268 Y176.786 E86.8373
G1 X157.163 Y176.786 E91.0256
G1 X157.163 Y179.071 E91.4437
G1 X134.268 Y179.071 E95.6319
G1 X134.268 Y180.467 E95.8871
G1 X135.108 Y181.357 E96.1111
G1 X156.351 Y181.357 E99.9971
G1 X156.551 Y181.357 F250
G92 E0
G1 E-4.0000 F1800
G1 X157.163 Y142.500 F4400
G1 E0.0000 F1800
G92 E0
G1 X145.317 Y142.500 E2.1669 F250
G1 X147.603 Y140.214 E2.7582
G1 X157.163 Y140.214 E4.5070
G1 X157.163 Y137.929 E4.9252
G1 X149.889 Y137.929 E6.2558
G1 X152.174 Y135.643 E6.8472
G1 X157.163 Y135.643 E7.7597
G1 X157.163 Y133.797 E8.0973
G1 X156.100 Y133.357 E8.3077
G1 X154.660 Y133.357 E8.5712
G1 X154.460 Y133.357 F250
G92 E0
G1 E-4.0000 F1800
; layer 2, Z = 0.772
; tool H0.222 W0.400
G1 X157.980 Y133.053 F4400
G1 Z0.772 F8000
G1 E0.0000 F1800
G92 E0
G1 X158.163 Y133.236 E0.0096 F1500
G1 X158.163 Y134.651 E0.0618
G1 X155.565 Y132.053 E0.1976
G1 X154.706 Y131.697 E0.2320
G1 X154.251 Y132.153 E0.2558
G1 X158.163 Y136.065 E0.4602
G1 X158.163 Y137.479 E0.5125
G1 X153.543 Y132.860 E0.7539
G1 X152.836 Y133.567 E0.7909
G1 X158.163 Y138.893 E1.0693
G1 X158.163 Y140.307 E1.1215
G1 X152.129 Y134.274 E1.4369
G1 X151.422 Y134.981 E1.4738
G1 X158.163 Y141.722 E1.8261
G1 X158.163 Y143.136 E1.8784
G1 X150.715 Y135.688 E2.2676
G1 X150.008 Y136.395 E2.3046
G1 X158.163 Y144.550 E2.7308
G1 X158.163 Y145.964 E2.7831
G1 X149.301 Y137.102 E3.2462
G1 X148.594 Y137.809 E3.2832
G1 X158.163 Y147.379 E3.7833
G1 X158.163 Y148.793 E3.8356
G1 X147.887 Y138.516 E4.3726
G1 X147.179 Y139.224 E4.4096
G1 X158.163 Y150.207 E4.9836
G1 X158.163 Y151.621 E5.0359
G1 X146.472 Y139.931 E5.6469
G1 X145.765 Y140.638 E5.6838
G1 X158.163 Y153.035 E6.3317
G1 X158.163 Y154.450 E6.3840
G1 X145.058 Y141.345 E7.0689
G1 X144.351 Y142.052 E7.1059
G1 X158.163 Y155.864 E7.8277
G1 X158.163 Y157.278 E7.8800
G1 X143.644 Y142.759 E8.6388
G1 X143.410 Y142.993 E8.6510
G1 X143.163 Y142.891 E8.6609
G1 X143.163 Y142.278 E8.6835
G1 X133.268 Y132.383 E9.2007
G1 X133.268 Y130.969 E9.2530
G1 X143.163 Y140.864 E9.7701
G1 X143.163 Y139.450 E9.8224
G1 X133.268 Y129.555 E10.3395
G1 X133.268 Y128.140 E10.3918
G1 X143.163 Y138.035 E10.9089
G1 X143.163 Y136.621 E10.9612
G1 X133.268 Y126.726 E11.4783
G1 X133.268 Y125.312 E11.5306
G1 X143.163 Y135.207 E12.0478
G1 X143.163 Y133.793 E12.1000
G1 X133.268 Y123.898 E12.6172
G1 X133.268 Y122.483 E12.6694
G1 X143.163 Y132.379 E13.1866
G1 X143.163 Y130.964 E13.2388
G1 X133.268 Y121.069 E13.7560
G1 X133.268 Y119.655 E13.8083
G1 X143.163 Y129.550 E14.3254
G1 X143.163 Y128.136 E14.3777
G1 X133.268 Y118.241 E14.8948
G1 X133.268 Y116.827 E14.9471
G1 X143.021 Y126.580 E15.4568
G1 X143.163 Y126.722 F1500
G92 E0
G1 E-4.0000 F1800
G1 X133.268 Y133.797 F4400
G1 E0.0000 F1800
G92 E0
G1 X158.163 Y158.692 E1.3011 F1500
G1 X158.163 Y160.106 E1.3534
G1 X133.268 Y135.211 E2.6545
G1 X133.268 Y136.626 E2.7067
G1 X158.163 Y161.521 E4.0078
G1 X158.163 Y162.935 E4.0601
G1 X133.268 Y138.040 E5.3612
G1 X133.268 Y139.454 E5.4134
G1 X158.163 Y164.349 E6.7145
G1 X158.163 Y165.763 E6.7668
G1 X133.268 Y140.868 E8.0679
G1 X133.268 Y142.282 E8.1202
G1 X158.163 Y167.178 E9.4213
G1 X158.163 Y168.592 E9.4735
G1 X133.268 Y143.697 E10.7746
G1 X133.268 Y145.111 E10.8269
G1 X158.163 Y170.006 E12.1280
G1 X158.163 Y171.420 E12.1803
G1 X133.268 Y146.525 E13.4813
G1 X133.268 Y147.939 E13.5336
G1 X158.163 Y172.834 E14.8347
G1 X158.163 Y174.249 E14.8870
G1 X133.268 Y149.354 E16.1881
G1 X133.268 Y150.768 E16.2403
G1 X158.163 Y175.663 E17.5414
G1 X158.163 Y177.077 E17.5937
G1 X133.268 Y152.182 E18.8948
G1 X133.268 Y153.596 E18.9471
G1 X158.163 Y178.491 E20.2482
G1 X158.163 Y179.905 E20.3004
G1 X133.268 Y155.010 E21.6015
G1 X133.268 Y156.425 E21.6538
G1 X158.083 Y181.240 E22.9507
G1 X157.376 Y181.947 E22.9877
G1 X133.268 Y157.839 E24.2476
G1 X133.268 Y159.253 E24.2999
G1 X156.669 Y182.654 E25.5229
G1 X156.523 Y182.800 E25.5305
G1 X155.401 Y182.800 E25.5720
G1 X133.268 Y160.667 E26.7287
G1 X133.268 Y162.081 E26.7810
G1 X153.986 Y182.800 E27.8638
G1 X152.572 Y182.800 E27.9161
G1 X133.268 Y163.496 E28.9250
G1 X133.268 Y164.910 E28.9772
G1 X151.158 Y182.800 E29.9122
G1 X149.743 Y182.800 E29.9645
G1 X133.268 Y166.324 E30.8256
G1 X133.268 Y167.738 E30.8778
G1 X148.329 Y182.800 E31.6650
G1 X146.915 Y182.800 E31.7173
G1 X133.268 Y169.153 E32.4305
G1 X133.268 Y170.567 E32.4828
G1 X145.501 Y182.800 E33.1221
G1 X144.086 Y182.800 E33.1744
G1 X133.268 Y171.981 E33.7398
G1 X133.268 Y173.395 E33.7920
G1 X142.672 Y182.800 E34.2835
G1 X141.258 Y182.800 E34.3358
G1 X133.268 Y174.809 E34.7534
G1 X133.268 Y176.224 E34.8057
G1 X139.844 Y182.799 E35.1493
G1 X138.429 Y182.799 E35.2016
G1 X133.268 Y177.638 E35.4714
G1 X133.268 Y179.052 E35.5236
G1 X137.015 Y182.799 E35.7195
G1 X136.203 Y182.799 E35.7495
G1 X135.953 Y182.550 E35.7626
G1 X135.314 Y182.513 E35.7862
