; G-Code generated by Simplify3D(R) Version 4.0.0
; Feb 16, 2018 at 4:32:05 PM
; Settings Summary
;   processName,Process1
;   applyToModels,screwdriver_PZ2x100_holder
;   profileName,Original Prusa i3 MK2 RC4 (modified)
;   profileVersion,2016-08-30 14:21:19
;   baseProfile,Prusa Mendel (modified)
;   printMaterial,PLA
;   printQuality,FAST 0.3mm
;   printExtruders,
;   extruderName,Primary Extruder
;   extruderToolheadNumber,0
;   extruderDiameter,0.4
;   extruderAutoWidth,0
;   extruderWidth,0.45
;   extrusionMultiplier,1
;   extruderUseRetract,1
;   extruderRetractionDistance,0.8
;   extruderExtraRestartDistance,0
;   extruderRetractionZLift,0
;   extruderRetractionSpeed,1800
;   extruderUseCoasting,1
;   extruderCoastingDistance,0.2
;   extruderUseWipe,1
;   extruderWipeDistance,2
;   primaryExtruder,0
;   layerHeight,0.3
;   topSolidLayers,3
;   bottomSolidLayers,3
;   perimeterOutlines,2
;   printPerimetersInsideOut,1
;   startPointOption,2
;   startPointOriginX,0
;   startPointOriginY,0
;   sequentialIslands,0
;   spiralVaseMode,0
;   firstLayerHeightPercentage,66
;   firstLayerWidthPercentage,95
;   firstLayerUnderspeed,0.6
;   useRaft,1
;   raftExtruder,0
;   raftTopLayers,3
;   raftBaseLayers,2
;   raftOffset,3
;   raftSeparationDistance,0.25
;   raftTopInfill,100
;   aboveRaftSpeedMultiplier,0.3
;   useSkirt,1
;   skirtExtruder,0
;   skirtLayers,1
;   skirtOutlines,1
;   skirtOffset,1.8
;   usePrimePillar,0
;   primePillarExtruder,999
;   primePillarWidth,12
;   primePillarLocation,7
;   primePillarSpeedMultiplier,1
;   useOozeShield,0
;   oozeShieldExtruder,999
;   oozeShieldOffset,2
;   oozeShieldOutlines,1
;   oozeShieldSidewallShape,1
;   oozeShieldSidewallAngle,30
;   oozeShieldSpeedMultiplier,1
;   infillExtruder,0
;   internalInfillPattern,Grid
;   externalInfillPattern,Rectilinear
;   infillPercentage,20
;   outlineOverlapPercentage,21
;   infillExtrusionWidthPercentage,100
;   minInfillLength,2
;   infillLayerInterval,1
;   internalInfillAngles,45,-45
;   overlapInternalInfillAngles,1
;   externalInfillAngles,45,-45
;   generateSupport,1
;   supportExtruder,0
;   supportInfillPercentage,30
;   supportExtraInflation,1.4
;   supportBaseLayers,0
;   denseSupportExtruder,0
;   denseSupportLayers,0
;   denseSupportInfillPercentage,70
;   supportLayerInterval,1
;   supportHorizontalPartOffset,0.2
;   supportUpperSeparationLayers,1
;   supportLowerSeparationLayers,1
;   supportType,0
;   supportGridSpacing,4
;   maxOverhangAngle,45
;   supportAngles,0
;   temperatureName,Primary Extruder,Heated Bed
;   temperatureNumber,0,1
;   temperatureSetpointCount,2,1
;   temperatureSetpointLayers,1,2,1
;   temperatureSetpointTemperatures,215,200,55
;   temperatureStabilizeAtStartup,1,1
;   temperatureHeatedBed,0,1
;   temperatureRelayBetweenLayers,0,0
;   temperatureRelayBetweenLoops,0,0
;   fanLayers,1,2
;   fanSpeeds,0,100
;   blipFanToFullPower,1
;   adjustSpeedForCooling,1
;   minSpeedLayerTime,15
;   minCoolingSpeedSlowdown,5
;   increaseFanForCooling,0
;   minFanLayerTime,45
;   maxCoolingFanSpeed,100
;   increaseFanForBridging,1
;   bridgingFanSpeed,100
;   use5D,1
;   relativeEdistances,1
;   allowEaxisZeroing,1
;   independentExtruderAxes,0
;   includeM10123,0
;   stickySupport,1
;   applyToolheadOffsets,0
;   gcodeXoffset,0
;   gcodeYoffset,0
;   gcodeZoffset,0
;   overrideMachineDefinition,1
;   machineTypeOverride,0
;   strokeXoverride,250
;   strokeYoverride,210
;   strokeZoverride,200
;   originOffsetXoverride,0
;   originOffsetYoverride,0
;   originOffsetZoverride,0
;   homeXdirOverride,-1
;   homeYdirOverride,-1
;   homeZdirOverride,-1
;   flipXoverride,1
;   flipYoverride,-1
;   flipZoverride,1
;   toolheadOffsets,0,0|0,0|0,0|0,0|0,0|0,0
;   overrideFirmwareConfiguration,0
;   firmwareTypeOverride,RepRap (Marlin/Repetier/Sprinter)
;   GPXconfigOverride,r2
;   baudRateOverride,250000
;   overridePrinterModels,1
;   printerModelsOverride
;   startingGcode,M115 U3.0.7 ; tell the printer latest firmware varsion available,G28 W ; home all without mesh bed level,G80 ; mesh bed leveling,G1 Y-3.0 F1000.0 ; go outside printing area,G1 X60.0 E9.0  F1000.0 ; intro line,G1 X100.0 E12.5  F1000.0 ; intro line
;   layerChangeGcode,
;   retractionGcode,
;   toolChangeGcode,
;   endingGcode,M104 S0 ; turn off temperature,M140 S0 ; turn off heatbed,M107 ; turn off fan,G1 X0 Y200; home X axis,M84 ; disable motors
;   exportFileFormat,gcode
;   celebration,0
;   celebrationSong,Random Song
;   postProcessing,{REPLACE "; outer perimeter\n" "; outer perimeter\nM204 S600\n"},{REPLACE "; inner perimeter\n" "; inner perimeter\nM204 S1200\n"},{REPLACE "; solid layer\n" "; solid layer\nM204 S1500\n"},{REPLACE "; infill\n" "; infill\nM204 S2000\n"}
;   defaultSpeed,2400
;   outlineUnderspeed,1
;   solidInfillUnderspeed,0.8
;   supportUnderspeed,0.8
;   rapidXYspeed,4800
;   rapidZspeed,1000
;   minBridgingArea,50
;   bridgingExtraInflation,1
;   bridgingExtrusionMultiplier,1
;   bridgingSpeedMultiplier,1
;   useFixedBridgingAngle,0
;   fixedBridgingAngle,0
;   applyBridgingToPerimeters,0
;   filamentDiameters,1.75|1.75|1.75|1.75|1.75|1.75
;   filamentPricesPerKg,215|215|215|215|215|215
;   filamentDensities,1.25|1.25|1.25|1.25|1.25|1.25
;   useMinPrintHeight,0
;   minPrintHeight,0
;   useMaxPrintHeight,0
;   maxPrintHeight,35
;   useDiaphragm,0
;   diaphragmLayerInterval,20
;   robustSlicing,1
;   mergeAllIntoSolid,0
;   onlyRetractWhenCrossingOutline,0
;   retractBetweenLayers,1
;   useRetractionMinTravel,1
;   retractionMinTravel,3
;   retractWhileWiping,1
;   onlyWipeOutlines,1
;   avoidCrossingOutline,0
;   maxMovementDetourFactor,3
;   toolChangeRetractionDistance,12
;   toolChangeExtraRestartDistance,-0.5
;   toolChangeRetractionSpeed,600
;   externalThinWallType,0
;   internalThinWallType,2
;   thinWallAllowedOverlapPercentage,25
;   singleExtrusionMinLength,1
;   singleExtrusionMinPrintingWidthPercentage,50
;   singleExtrusionMaxPrintingWidthPercentage,200
;   singleExtrusionEndpointExtension,0.2
;   horizontalSizeCompensation,0
G90
M83
M106 S255
G4 P500
M106 S0
M140 S55
M190 S55
M104 S215 T0
M109 S215 T0
M115 U3.0.7 ; tell the printer latest firmware varsion available
G28 W ; home all without mesh bed level
G80 ; mesh bed leveling
G1 Y-3.0 F1000.0 ; go outside printing area
G1 X60.0 E9.0  F1000.0 ; intro line
G1 X100.0 E12.5  F1000.0 ; intro line
G1 E-0.8000 F1800
G1 Z0.330 F1000
; process Process1
; layer 1, Z = 0.330
T0
; tool H0.500 W0.428
; skirt
G1 X91.966 Y105.537 F4800
G1 E0.8000 F540
G1 X92.044 Y105.494 E0.0080 F1440
G1 X134.659 Y100.597 E3.8120
G1 X135.247 Y100.009 E0.0739
G1 X135.330 Y99.975 E0.0080
G1 X142.396 Y99.975 E0.6279
G1 X142.479 Y100.009 E0.0080
G1 X145.354 Y102.884 E0.3613
G1 X145.388 Y102.967 E0.0080
G1 X145.388 Y137.869 E3.1016
G1 X154.126 Y129.131 E1.0982
G1 X154.260 Y129.104 E0.0121
G1 X160.312 Y131.611 E0.5822
G1 X160.388 Y131.724 E0.0121
G1 X160.388 Y182.033 E4.4708
G1 X160.354 Y182.116 E0.0080
G1 X157.478 Y184.991 E0.3613
G1 X157.396 Y185.025 E0.0080
G1 X135.330 Y185.024 E1.9609
G1 X135.247 Y184.990 E0.0080
G1 X134.979 Y184.722 E0.0337
G1 X133.830 Y184.655 E0.1023
G1 X133.752 Y184.619 E0.0077
G1 X131.075 Y181.782 E0.3467
G1 X131.043 Y181.702 E0.0077
G1 X131.043 Y118.863 E5.5843
G1 X94.068 Y123.111 E3.3074
G1 X93.982 Y123.087 E0.0080
G1 X90.798 Y120.558 E0.3613
G1 X90.754 Y120.480 E0.0080
G1 X89.413 Y108.808 E1.0441
G1 X89.438 Y108.722 E0.0080
G1 X91.841 Y105.694 E0.3436
G1 X91.966 Y105.537 F1440
; tool H0.500 W0.760
; raft
G1 X93.270 Y107.794 F4800
G1 X135.776 Y102.910 E6.7594 F360
G1 X136.286 Y102.400 E0.1139
G1 X141.440 Y102.400 E0.8142
G1 X142.963 Y103.923 E0.3403
G1 X142.963 Y143.025 E6.1775
G1 X143.457 Y143.229 E0.0844
G1 X154.753 Y131.933 E2.5238
G1 X157.963 Y133.263 E0.5489
G1 X157.963 Y181.077 E7.5540
G1 X156.440 Y182.600 E0.3403
G1 X136.286 Y182.599 E3.1840
G1 X136.041 Y182.354 E0.0547
G1 X134.886 Y182.287 E0.1828
G1 X133.468 Y180.785 E0.3265
G1 X133.468 Y116.143 E10.2124
G1 X94.741 Y120.593 E6.1585
G1 X93.054 Y119.254 E0.3403
G1 X91.931 Y109.481 E1.5541
G1 X93.146 Y107.950 E0.3087
G1 X93.270 Y107.794 F360
G1 E-0.8000 F1800
G1 X94.831 Y119.643 F4800
G1 E0.8000 F1800
G1 X96.000 Y119.643 E0.1847 F360
G1 X115.893 Y117.357 E3.1635
G1 X93.641 Y117.357 E3.5155
G1 X93.379 Y115.071 E0.3635
G1 X142.163 Y115.071 E7.7072
G1 X142.163 Y112.786 E0.3611
G1 X93.116 Y112.786 E7.7487
G1 X92.854 Y110.500 E0.3635
G1 X142.163 Y110.500 E7.7902
G1 X142.163 Y108.214 E0.3611
G1 X96.619 Y108.214 E7.1953
G1 X116.512 Y105.929 E3.1635
G1 X142.163 Y105.929 E4.0524
G1 X142.163 Y104.254 E0.2645
G1 X141.551 Y103.643 E0.1366
G1 X136.374 Y103.643 E0.8179
G1 X136.174 Y103.643 F360
G1 E-0.8000 F1800
G1 X134.268 Y117.357 F4800
G1 E0.8000 F1800
G1 X142.163 Y117.357 E1.2473 F360
G1 X142.163 Y119.643 E0.3611
G1 X134.268 Y119.643 E1.2473
G1 X134.268 Y121.929 E0.3611
G1 X142.163 Y121.929 E1.2473
G1 X142.163 Y124.214 E0.3611
G1 X134.268 Y124.214 E1.2473
G1 X134.268 Y126.500 E0.3611
G1 X142.163 Y126.500 E1.2473
G1 X142.163 Y128.786 E0.3611
G1 X134.268 Y128.786 E1.2473
G1 X134.268 Y131.071 E0.3611
G1 X142.163 Y131.071 E1.2473
G1 X142.163 Y133.357 E0.3611
G1 X134.268 Y133.357 E1.2473
G1 X134.268 Y135.643 E0.3611
G1 X142.163 Y135.643 E1.2473
G1 X142.163 Y137.929 E0.3611
G1 X134.268 Y137.929 E1.2473
G1 X134.268 Y140.214 E0.3611
G1 X142.163 Y140.214 E1.2473
G1 X142.163 Y142.500 E0.3611
G1 X134.268 Y142.500 E1.2473
G1 X134.268 Y144.786 E0.3611
G1 X157.163 Y144.786 E3.6171
G1 X157.163 Y147.071 E0.3611
G1 X134.268 Y147.071 E3.6171
G1 X134.268 Y149.357 E0.3611
G1 X157.163 Y149.357 E3.6171
G1 X157.163 Y151.643 E0.3611
G1 X134.268 Y151.643 E3.6171
G1 X134.268 Y153.929 E0.3611
G1 X157.163 Y153.929 E3.6171
G1 X157.163 Y156.214 E0.3611
G1 X134.268 Y156.214 E3.6171
G1 X134.268 Y158.500 E0.3611
G1 X157.163 Y158.500 E3.6171
G1 X157.163 Y160.786 E0.3611
G1 X134.268 Y160.786 E3.6171
G1 X134.268 Y163.071 E0.3611
G1 X157.163 Y163.071 E3.6171
G1 X157.163 Y165.357 E0.3611
G1 X134.268 Y165.357 E3.6171
G1 X134.268 Y167.643 E0.3611
G1 X157.163 Y167.643 E3.6171
G1 X157.163 Y169.929 E0.3611
G1 X134.268 Y169.929 E3.6171
G1 X134.268 Y172.214 E0.3611
G1 X157.163 Y172.214 E3.6171
G1 X157.163 Y174.500 E0.3611
G1 X134.268 Y174.500 E3.6171
G1 X134.268 Y176.786 E0.3611
G1 X157.163 Y176.786 E3.6171
G1 X157.163 Y179.071 E0.3611
G1 X134.268 Y179.071 E3.6171
G1 X134.268 Y180.467 E0.2204
G1 X135.108 Y181.357 E0.1934
G1 X156.351 Y181.357 E3.3561
G1 X156.551 Y181.357 F360
G1 E-0.8000 F1800
G1 X157.163 Y142.500 F4800
G1 E0.8000 F1800
G1 X145.317 Y142.500 E1.8714 F360
G1 X147.603 Y140.214 E0.5107
G1 X157.163 Y140.214 E1.5103
G1 X157.163 Y137.929 E0.3611
G1 X149.889 Y137.929 E1.1492
G1 X152.174 Y135.643 E0.5107
G1 X157.163 Y135.643 E0.7881
G1 X157.163 Y133.797 E0.2916
G1 X156.100 Y133.357 E0.1817
G1 X154.660 Y133.357 E0.2275
G1 X154.460 Y133.357 F360
G1 E-0.8000 F1800
; layer 2, Z = 0.830
M104 S200 T0
M106 S255
; tool H0.500 W0.800
G1 X154.753 Y131.933 F4800
G1 Z0.830 F1000
G1 E0.8000 F1800
G1 X157.963 Y133.263 E0.5778 F600
G1 X157.963 Y181.077 E7.9515
G1 X156.440 Y182.600 E0.3582
G1 X136.286 Y182.599 E3.3516
G1 X136.041 Y182.354 E0.0576
G1 X134.886 Y182.287 E0.1924
G1 X133.468 Y180.785 E0.3436
G1 X133.468 Y116.143 E10.7499
G1 X94.741 Y120.593 E6.4827
G1 X93.054 Y119.254 E0.3582
G1 X91.931 Y109.481 E1.6359
G1 X93.270 Y107.794 E0.3582
G1 X135.776 Y102.910 E7.1152
G1 X136.286 Y102.400 E0.1199
G1 X141.440 Y102.400 E0.8571
G1 X142.963 Y103.923 E0.3582
G1 X142.963 Y143.025 E6.5026
G1 X143.457 Y143.229 E0.0889
G1 X154.611 Y132.075 E2.6234
G1 X154.753 Y131.933 F600
G1 X154.460 Y133.357 F4800
G1 X156.100 Y133.357 E0.2728 F600
G1 X157.163 Y133.797 E0.1913
G1 X157.163 Y135.643 E0.3069
G1 X152.174 Y135.643 E0.8296
G1 X149.889 Y137.929 E0.5376
G1 X157.163 Y137.929 E1.2097
G1 X157.163 Y140.214 E0.3801
G1 X147.603 Y140.214 E1.5898
G1 X145.317 Y142.500 E0.5376
G1 X156.963 Y142.500 E1.9367
G1 X157.163 Y142.500 F600
G1 E-0.8000 F1800
G1 X134.268 Y117.357 F4800
G1 E0.8000 F1800
G1 X142.163 Y117.357 E1.3130 F600
G1 X142.163 Y119.643 E0.3801
G1 X134.268 Y119.643 E1.3130
G1 X134.268 Y121.929 E0.3801
G1 X142.163 Y121.929 E1.3130
G1 X142.163 Y124.214 E0.3801
G1 X134.268 Y124.214 E1.3130
G1 X134.268 Y126.500 E0.3801
G1 X142.163 Y126.500 E1.3130
G1 X142.163 Y128.786 E0.3801
G1 X134.268 Y128.786 E1.3130
G1 X134.268 Y131.071 E0.3801
G1 X142.163 Y131.071 E1.3130
G1 X142.163 Y133.357 E0.3801
G1 X134.268 Y133.357 E1.3130
G1 X134.268 Y135.643 E0.3801
G1 X142.163 Y135.643 E1.3130
G1 X142.163 Y137.929 E0.3801
G1 X134.268 Y137.929 E1.3130
G1 X134.268 Y140.214 E0.3801
G1 X142.163 Y140.214 E1.3130
G1 X142.163 Y142.500 E0.3801
G1 X134.268 Y142.500 E1.3130
G1 X134.268 Y144.786 E0.3801
G1 X157.163 Y144.786 E3.8075
G1 X157.163 Y147.071 E0.3801
G1 X134.268 Y147.071 E3.8075
G1 X134.268 Y149.357 E0.3801
G1 X157.163 Y149.357 E3.8075
G1 X157.163 Y151.643 E0.3801
G1 X134.268 Y151.643 E3.8075
G1 X134.268 Y153.929 E0.3801
G1 X157.163 Y153.929 E3.8075
G1 X157.163 Y156.214 E0.3801
G1 X134.268 Y156.214 E3.8075
G1 X134.268 Y158.500 E0.3801
G1 X157.163 Y158.500 E3.8075
G1 X157.163 Y160.786 E0.3801
G1 X134.268 Y160.786 E3.8075
G1 X134.268 Y163.071 E0.3801
G1 X157.163 Y163.071 E3.8075
G1 X157.163 Y165.357 E0.3801
G1 X134.268 Y165.357 E3.8075
G1 X134.268 Y167.643 E0.3801
G1 X157.163 Y167.643 E3.8075
G1 X157.163 Y169.929 E0.3801
G1 X134.268 Y169.929 E3.8075
G1 X134.268 Y172.214 E0.3801
G1 X157.163 Y172.214 E3.8075
G1 X157.163 Y174.500 E0.3801
G1 X134.268 Y174.500 E3.8075
G1 X134.268 Y176.786 E0.3801
G1 X157.163 Y176.786 E3.8075
G1 X157.163 Y179.071 E0.3801
G1 X134.268 Y179.071 E3.8075
G1 X134.268 Y180.467 E0.2320
G1 X135.108 Y181.357 E0.2036
G1 X156.351 Y181.357 E3.5328
G1 X156.551 Y181.357 F600
G1 E-0.8000 F1800
G1 X136.174 Y103.643 F4800
G1 E0.8000 F1800
G1 X141.551 Y103.643 E0.8942 F600
G1 X142.163 Y104.254 E0.1438
G1 X142.163 Y105.929 E0.2784
G1 X116.512 Y105.929 E4.2657
G1 X96.619 Y108.214 E3.3300
G1 X142.163 Y108.214 E7.5740
G1 X142.163 Y110.500 E0.3801
G1 X92.854 Y110.500 E8.2002
G1 X93.116 Y112.786 E0.3826
G1 X142.163 Y112.786 E8.1565
G1 X142.163 Y115.071 E0.3801
G1 X93.379 Y115.071 E8.1128
G1 X93.641 Y117.357 E0.3826
G1 X115.893 Y117.357 E3.7005
G1 X96.000 Y119.643 E3.3300
G1 X95.031 Y119.643 E0.1612
G1 X94.831 Y119.643 F600
G1 E-0.8000 F1800
; layer 3, Z = 1.052
; tool H0.222 W0.400
G1 X91.741 Y109.574 F4800
G1 Z1.052 F1000
G1 E0.8000 F1800
G1 X93.781 Y107.534 E0.1066 F1800
G1 X94.420 Y107.460 E0.0238
G1 X91.799 Y110.082 E0.1370
G1 X91.857 Y110.589 E0.0189
G1 X95.059 Y107.387 E0.1673
G1 X95.698 Y107.313 E0.0238
G1 X91.916 Y111.096 E0.1977
G1 X91.974 Y111.604 E0.0189
G1 X96.338 Y107.240 E0.2281
G1 X96.977 Y107.167 E0.0238
G1 X92.032 Y112.111 E0.2584
G1 X92.090 Y112.619 E0.0189
G1 X97.616 Y107.093 E0.2888
G1 X98.255 Y107.020 E0.0238
G1 X92.149 Y113.126 E0.3191
G1 X92.207 Y113.633 E0.0189
G1 X98.894 Y106.946 E0.3495
G1 X99.533 Y106.873 E0.0238
G1 X92.265 Y114.141 E0.3798
G1 X92.324 Y114.648 E0.0189
G1 X100.172 Y106.799 E0.4102
G1 X100.811 Y106.726 E0.0238
G1 X92.382 Y115.155 E0.4406
G1 X92.440 Y115.663 E0.0189
G1 X101.450 Y106.653 E0.4709
G1 X102.090 Y106.579 E0.0238
G1 X92.499 Y116.170 E0.5013
G1 X92.557 Y116.678 E0.0189
G1 X102.729 Y106.506 E0.5316
G1 X103.368 Y106.432 E0.0238
G1 X92.615 Y117.185 E0.5620
G1 X92.673 Y117.692 E0.0189
G1 X104.007 Y106.359 E0.5923
G1 X104.646 Y106.285 E0.0238
G1 X92.732 Y118.200 E0.6227
G1 X92.790 Y118.707 E0.0189
G1 X105.285 Y106.212 E0.6530
G1 X105.924 Y106.139 E0.0238
G1 X92.848 Y119.215 E0.6834
G1 X92.865 Y119.359 E0.0054
G1 X93.091 Y119.538 E0.0107
G1 X106.563 Y106.065 E0.7041
G1 X107.203 Y105.992 E0.0238
G1 X93.406 Y119.788 E0.7211
G1 X93.721 Y120.039 E0.0149
G1 X107.842 Y105.918 E0.7380
G1 X108.481 Y105.845 E0.0238
G1 X94.037 Y120.289 E0.7549
G1 X94.352 Y120.539 E0.0149
G1 X109.120 Y105.771 E0.7718
G1 X109.759 Y105.698 E0.0238
G1 X94.667 Y120.790 E0.7887
G1 X94.682 Y120.801 E0.0007
G1 X95.292 Y120.731 E0.0227
G1 X110.398 Y105.624 E0.7895
G1 X111.037 Y105.551 E0.0238
G1 X95.931 Y120.657 E0.7895
G1 X96.570 Y120.584 E0.0238
G1 X111.676 Y105.478 E0.7895
