; G-Code generated by Simplify3D(R) Version 4.0.0
; Feb 24, 2018 at 10:09:33 AM
; Settings Summary
;   processName,Process1
;   applyToModels,staple_adapter,staple_holder
;   profileName,Original Prusa i3 MK2 RC4 (modified)
;   profileVersion,2016-08-30 14:21:19
;   baseProfile,Prusa Mendel (modified)
;   printMaterial,PLA
;   printQuality,FAST 0.3mm
;   printExtruders,
;   extruderName,Primary Extruder
;   extruderToolheadNumber,0
;   extruderDiameter,0.4
;   extruderAutoWidth,0
;   extruderWidth,0.45
;   extrusionMultiplier,1
;   extruderUseRetract,1
;   extruderRetractionDistance,0.8
;   extruderExtraRestartDistance,0
;   extruderRetractionZLift,0
;   extruderRetractionSpeed,1800
;   extruderUseCoasting,1
;   extruderCoastingDistance,0.2
;   extruderUseWipe,1
;   extruderWipeDistance,2
;   primaryExtruder,0
;   layerHeight,0.3
;   topSolidLayers,3
;   bottomSolidLayers,3
;   perimeterOutlines,2
;   printPerimetersInsideOut,1
;   startPointOption,2
;   startPointOriginX,0
;   startPointOriginY,0
;   sequentialIslands,0
;   spiralVaseMode,0
;   firstLayerHeightPercentage,66
;   firstLayerWidthPercentage,95
;   firstLayerUnderspeed,0.6
;   useRaft,1
;   raftExtruder,0
;   raftTopLayers,3
;   raftBaseLayers,2
;   raftOffset,3
;   raftSeparationDistance,0.25
;   raftTopInfill,90
;   aboveRaftSpeedMultiplier,0.3
;   useSkirt,1
;   skirtExtruder,0
;   skirtLayers,1
;   skirtOutlines,1
;   skirtOffset,1.8
;   usePrimePillar,0
;   primePillarExtruder,999
;   primePillarWidth,12
;   primePillarLocation,7
;   primePillarSpeedMultiplier,1
;   useOozeShield,0
;   oozeShieldExtruder,999
;   oozeShieldOffset,2
;   oozeShieldOutlines,1
;   oozeShieldSidewallShape,1
;   oozeShieldSidewallAngle,30
;   oozeShieldSpeedMultiplier,1
;   infillExtruder,0
;   internalInfillPattern,Grid
;   externalInfillPattern,Rectilinear
;   infillPercentage,20
;   outlineOverlapPercentage,21
;   infillExtrusionWidthPercentage,100
;   minInfillLength,2
;   infillLayerInterval,1
;   internalInfillAngles,45,-45
;   overlapInternalInfillAngles,1
;   externalInfillAngles,45,-45
;   generateSupport,0
;   supportExtruder,0
;   supportInfillPercentage,30
;   supportExtraInflation,1.4
;   supportBaseLayers,0
;   denseSupportExtruder,0
;   denseSupportLayers,0
;   denseSupportInfillPercentage,70
;   supportLayerInterval,1
;   supportHorizontalPartOffset,0.2
;   supportUpperSeparationLayers,1
;   supportLowerSeparationLayers,1
;   supportType,0
;   supportGridSpacing,4
;   maxOverhangAngle,45
;   supportAngles,0
;   temperatureName,Primary Extruder,Heated Bed
;   temperatureNumber,0,1
;   temperatureSetpointCount,2,1
;   temperatureSetpointLayers,1,2,1
;   temperatureSetpointTemperatures,215,200,55
;   temperatureStabilizeAtStartup,1,1
;   temperatureHeatedBed,0,1
;   temperatureRelayBetweenLayers,0,0
;   temperatureRelayBetweenLoops,0,0
;   fanLayers,1,2
;   fanSpeeds,0,100
;   blipFanToFullPower,1
;   adjustSpeedForCooling,1
;   minSpeedLayerTime,15
;   minCoolingSpeedSlowdown,5
;   increaseFanForCooling,0
;   minFanLayerTime,45
;   maxCoolingFanSpeed,100
;   increaseFanForBridging,1
;   bridgingFanSpeed,100
;   use5D,1
;   relativeEdistances,1
;   allowEaxisZeroing,1
;   independentExtruderAxes,0
;   includeM10123,0
;   stickySupport,1
;   applyToolheadOffsets,0
;   gcodeXoffset,0
;   gcodeYoffset,0
;   gcodeZoffset,0
;   overrideMachineDefinition,1
;   machineTypeOverride,0
;   strokeXoverride,250
;   strokeYoverride,210
;   strokeZoverride,200
;   originOffsetXoverride,0
;   originOffsetYoverride,0
;   originOffsetZoverride,0
;   homeXdirOverride,-1
;   homeYdirOverride,-1
;   homeZdirOverride,-1
;   flipXoverride,1
;   flipYoverride,-1
;   flipZoverride,1
;   toolheadOffsets,0,0|0,0|0,0|0,0|0,0|0,0
;   overrideFirmwareConfiguration,0
;   firmwareTypeOverride,RepRap (Marlin/Repetier/Sprinter)
;   GPXconfigOverride,r2
;   baudRateOverride,250000
;   overridePrinterModels,1
;   printerModelsOverride
;   startingGcode,M115 U3.0.7 ; tell the printer latest firmware varsion available,G28 W ; home all without mesh bed level,G80 ; mesh bed leveling,G1 Y-3.0 F1000.0 ; go outside printing area,G1 X60.0 E9.0  F1000.0 ; intro line,G1 X100.0 E12.5  F1000.0 ; intro line
;   layerChangeGcode,
;   retractionGcode,
;   toolChangeGcode,
;   endingGcode,M104 S0 ; turn off temperature,M140 S0 ; turn off heatbed,M107 ; turn off fan,G1 X0 Y200; home X axis,M84 ; disable motors
;   exportFileFormat,gcode
;   celebration,0
;   celebrationSong,Random Song
;   postProcessing,{REPLACE "; outer perimeter\n" "; outer perimeter\nM204 S600\n"},{REPLACE "; inner perimeter\n" "; inner perimeter\nM204 S1200\n"},{REPLACE "; solid layer\n" "; solid layer\nM204 S1500\n"},{REPLACE "; infill\n" "; infill\nM204 S2000\n"}
;   defaultSpeed,2400
;   outlineUnderspeed,1
;   solidInfillUnderspeed,0.8
;   supportUnderspeed,0.8
;   rapidXYspeed,4800
;   rapidZspeed,1000
;   minBridgingArea,50
;   bridgingExtraInflation,1
;   bridgingExtrusionMultiplier,1
;   bridgingSpeedMultiplier,1
;   useFixedBridgingAngle,0
;   fixedBridgingAngle,0
;   applyBridgingToPerimeters,0
;   filamentDiameters,1.75|1.75|1.75|1.75|1.75|1.75
;   filamentPricesPerKg,215|215|215|215|215|215
;   filamentDensities,1.25|1.25|1.25|1.25|1.25|1.25
;   useMinPrintHeight,0
;   minPrintHeight,0
;   useMaxPrintHeight,0
;   maxPrintHeight,35
;   useDiaphragm,0
;   diaphragmLayerInterval,20
;   robustSlicing,1
;   mergeAllIntoSolid,0
;   onlyRetractWhenCrossingOutline,0
;   retractBetweenLayers,1
;   useRetractionMinTravel,1
;   retractionMinTravel,3
;   retractWhileWiping,1
;   onlyWipeOutlines,1
;   avoidCrossingOutline,0
;   maxMovementDetourFactor,3
;   toolChangeRetractionDistance,12
;   toolChangeExtraRestartDistance,-0.5
;   toolChangeRetractionSpeed,600
;   externalThinWallType,0
;   internalThinWallType,2
;   thinWallAllowedOverlapPercentage,25
;   singleExtrusionMinLength,1
;   singleExtrusionMinPrintingWidthPercentage,50
;   singleExtrusionMaxPrintingWidthPercentage,200
;   singleExtrusionEndpointExtension,0.2
;   horizontalSizeCompensation,0
G90
M83
M106 S255
G4 P500
M106 S0
M140 S55
M190 S55
M104 S215 T0
M109 S215 T0
M115 U3.0.7 ; tell the printer latest firmware varsion available
G28 W ; home all without mesh bed level
G80 ; mesh bed leveling
G1 Y-3.0 F1000.0 ; go outside printing area
G1 X60.0 E9.0  F1000.0 ; intro line
G1 X100.0 E12.5  F1000.0 ; intro line
G1 E-0.8000 F1800
G1 Z0.330 F1000
; process Process1
; layer 1, Z = 0.330
T0
; tool H0.500 W0.428
; skirt
G1 X29.509 Y31.880 F4800
G1 E0.8000 F540
G1 X32.384 Y29.005 E0.3613 F1440
G1 X32.467 Y28.971 E0.0080
G1 X136.533 Y28.971 E9.2480
G1 X136.616 Y29.005 E0.0080
G1 X139.491 Y31.880 E0.3613
G1 X139.525 Y31.963 E0.0080
G1 X139.525 Y49.975 E1.6007
G1 X142.533 Y49.975 E0.2673
G1 X142.616 Y50.009 E0.0080
G1 X145.491 Y52.884 E0.3613
G1 X145.525 Y52.967 E0.0080
G1 X145.525 Y87.869 E3.1016
G1 X154.263 Y79.131 E1.0982
G1 X154.397 Y79.104 E0.0121
G1 X160.449 Y81.611 E0.5822
G1 X160.525 Y81.724 E0.0121
G1 X160.525 Y132.033 E4.4708
G1 X160.491 Y132.116 E0.0080
G1 X157.616 Y134.991 E0.3613
G1 X157.533 Y135.025 E0.0080
G1 X139.525 Y135.025 E1.6003
G1 X139.525 Y166.029 E2.7552
G1 X139.491 Y166.111 E0.0080
G1 X136.616 Y168.986 E0.3613
G1 X136.533 Y169.021 E0.0080
G1 X32.467 Y169.021 E9.2480
G1 X32.384 Y168.986 E0.0080
G1 X29.509 Y166.111 E0.3613
G1 X29.475 Y166.029 E0.0080
G1 X29.475 Y32.073 E11.9042
G1 X29.475 Y31.963 F1440
G1 X29.509 Y31.880 F1440
; tool H0.500 W0.760
; raft
G1 X31.900 Y32.919 F4800
G1 X33.423 Y31.396 E0.3403 F360
G1 X135.577 Y31.396 E16.1389
G1 X137.100 Y32.919 E0.3403
G1 X137.100 Y52.400 E3.0778
G1 X141.577 Y52.400 E0.7073
G1 X143.100 Y53.923 E0.3403
G1 X143.100 Y93.025 E6.1775
G1 X143.594 Y93.229 E0.0844
G1 X154.890 Y81.933 E2.5238
G1 X158.100 Y83.263 E0.5489
G1 X158.100 Y131.077 E7.5540
G1 X156.577 Y132.600 E0.3403
G1 X137.100 Y132.600 E3.0771
G1 X137.100 Y165.073 E5.1302
G1 X135.577 Y166.596 E0.3403
G1 X33.423 Y166.596 E16.1389
G1 X31.900 Y165.073 E0.3403
G1 X31.900 Y33.119 E20.8468
G1 X31.900 Y32.919 F360
G1 X33.240 Y32.710 F4800
G1 X135.760 Y32.710 E16.1967 F360
G1 X136.300 Y33.250 E0.1207
G1 X136.300 Y34.996 E0.2758
G1 X32.700 Y34.996 E16.3673
G1 X32.700 Y37.281 E0.3611
G1 X136.300 Y37.281 E16.3673
G1 X136.300 Y39.567 E0.3611
G1 X32.700 Y39.567 E16.3673
G1 X32.700 Y41.853 E0.3611
G1 X136.300 Y41.853 E16.3673
G1 X136.300 Y44.139 E0.3611
G1 X32.700 Y44.139 E16.3673
G1 X32.700 Y46.424 E0.3611
G1 X136.300 Y46.424 E16.3673
G1 X136.300 Y48.710 E0.3611
G1 X32.700 Y48.710 E16.3673
G1 X32.700 Y50.996 E0.3611
G1 X136.300 Y50.996 E16.3673
G1 X136.300 Y53.200 E0.3483
G1 X141.246 Y53.200 E0.7813
G1 X141.327 Y53.281 E0.0182
G1 X32.700 Y53.281 E17.1615
G1 X32.700 Y55.567 E0.3611
G1 X142.300 Y55.567 E17.3152
G1 X142.300 Y57.853 E0.3611
G1 X32.700 Y57.853 E17.3152
G1 X32.700 Y60.139 E0.3611
G1 X142.300 Y60.139 E17.3152
G1 X142.300 Y62.424 E0.3611
G1 X32.700 Y62.424 E17.3152
G1 X32.700 Y64.710 E0.3611
G1 X142.300 Y64.710 E17.3152
G1 X142.300 Y66.996 E0.3611
G1 X32.700 Y66.996 E17.3152
G1 X32.700 Y69.281 E0.3611
G1 X142.300 Y69.281 E17.3152
G1 X142.300 Y71.567 E0.3611
G1 X32.700 Y71.567 E17.3152
G1 X32.700 Y73.853 E0.3611
G1 X142.300 Y73.853 E17.3152
G1 X142.300 Y76.139 E0.3611
G1 X32.700 Y76.139 E17.3152
G1 X32.700 Y78.424 E0.3611
G1 X142.300 Y78.424 E17.3152
G1 X142.300 Y80.710 E0.3611
G1 X32.700 Y80.710 E17.3152
G1 X32.700 Y82.996 E0.3611
G1 X142.300 Y82.996 E17.3152
G1 X142.300 Y85.281 E0.3611
G1 X32.700 Y85.281 E17.3152
G1 X32.700 Y87.567 E0.3611
G1 X142.300 Y87.567 E17.3152
G1 X142.300 Y89.853 E0.3611
G1 X32.700 Y89.853 E17.3152
G1 X32.700 Y92.139 E0.3611
G1 X142.300 Y92.139 E17.3152
G1 X142.300 Y93.559 E0.2244
G1 X143.782 Y94.173 E0.2534
G1 X145.816 Y92.139 E0.4545
G1 X157.300 Y92.139 E1.8143
G1 X157.300 Y94.424 E0.3611
G1 X32.700 Y94.424 E19.6850
G1 X32.700 Y96.710 E0.3611
G1 X157.300 Y96.710 E19.6850
G1 X157.300 Y98.996 E0.3611
G1 X32.700 Y98.996 E19.6850
G1 X32.700 Y101.281 E0.3611
G1 X157.300 Y101.281 E19.6850
G1 X157.300 Y103.567 E0.3611
G1 X32.700 Y103.567 E19.6850
G1 X32.700 Y105.853 E0.3611
G1 X157.300 Y105.853 E19.6850
G1 X157.300 Y108.139 E0.3611
G1 X32.700 Y108.139 E19.6850
G1 X32.700 Y110.424 E0.3611
G1 X157.300 Y110.424 E19.6850
G1 X157.300 Y112.710 E0.3611
G1 X32.700 Y112.710 E19.6850
G1 X32.700 Y114.996 E0.3611
G1 X157.300 Y114.996 E19.6850
G1 X157.300 Y117.281 E0.3611
G1 X32.700 Y117.281 E19.6850
G1 X32.700 Y119.567 E0.3611
G1 X157.300 Y119.567 E19.6850
G1 X157.300 Y121.853 E0.3611
G1 X32.700 Y121.853 E19.6850
G1 X32.700 Y124.139 E0.3611
G1 X157.300 Y124.139 E19.6850
G1 X157.300 Y126.424 E0.3611
G1 X32.700 Y126.424 E19.6850
G1 X32.700 Y128.710 E0.3611
G1 X157.300 Y128.710 E19.6850
G1 X157.300 Y130.746 E0.3216
G1 X157.050 Y130.996 E0.0559
G1 X32.700 Y130.996 E19.6455
G1 X32.700 Y133.281 E0.3611
G1 X136.300 Y133.281 E16.3673
G1 X136.300 Y135.567 E0.3611
G1 X32.700 Y135.567 E16.3673
G1 X32.700 Y137.853 E0.3611
G1 X136.300 Y137.853 E16.3673
G1 X136.300 Y140.139 E0.3611
G1 X32.700 Y140.139 E16.3673
G1 X32.700 Y142.424 E0.3611
G1 X136.300 Y142.424 E16.3673
G1 X136.300 Y144.710 E0.3611
G1 X32.700 Y144.710 E16.3673
G1 X32.700 Y146.996 E0.3611
G1 X136.300 Y146.996 E16.3673
G1 X136.300 Y149.281 E0.3611
G1 X32.700 Y149.281 E16.3673
G1 X32.700 Y151.567 E0.3611
G1 X136.300 Y151.567 E16.3673
G1 X136.300 Y153.853 E0.3611
G1 X32.700 Y153.853 E16.3673
G1 X32.700 Y156.139 E0.3611
G1 X136.300 Y156.139 E16.3673
G1 X136.300 Y158.424 E0.3611
G1 X32.700 Y158.424 E16.3673
G1 X32.700 Y160.710 E0.3611
G1 X136.300 Y160.710 E16.3673
G1 X136.300 Y162.996 E0.3611
G1 X32.700 Y162.996 E16.3673
G1 X32.700 Y164.741 E0.2758
G1 X33.240 Y165.281 E0.1207
G1 X135.560 Y165.281 E16.1650
G1 X135.760 Y165.281 F360
G1 E-0.8000 F1800
G1 X148.102 Y89.853 F4800
G1 E0.8000 F1800
G1 X157.300 Y89.853 E1.4532 F360
G1 X157.300 Y87.567 E0.3611
G1 X150.387 Y87.567 E1.0921
G1 X152.673 Y85.281 E0.5107
G1 X157.300 Y85.281 E0.7310
G1 X157.300 Y83.797 E0.2345
G1 X155.365 Y82.996 E0.3309
G1 X155.159 Y82.996 E0.0325
G1 X154.959 Y82.996 F360
G1 E-0.8000 F1800
; layer 2, Z = 0.830
M104 S200 T0
M106 S255
; tool H0.500 W0.800
G1 X154.890 Y81.933 F4800
G1 Z0.830 F1000
G1 E0.8000 F1800
G1 X158.100 Y83.263 E0.5778 F600
G1 X158.100 Y131.077 E7.9515
G1 X156.577 Y132.600 E0.3582
G1 X137.100 Y132.600 E3.2390
G1 X137.100 Y165.073 E5.4002
G1 X135.577 Y166.596 E0.3582
G1 X33.423 Y166.596 E16.9883
G1 X31.900 Y165.073 E0.3582
G1 X31.900 Y32.919 E21.9773
G1 X33.423 Y31.396 E0.3582
G1 X135.577 Y31.396 E16.9883
G1 X137.100 Y32.919 E0.3582
G1 X137.100 Y52.400 E3.2398
G1 X141.577 Y52.400 E0.7445
G1 X143.100 Y53.923 E0.3582
G1 X143.100 Y93.025 E6.5026
G1 X143.594 Y93.229 E0.0889
G1 X154.749 Y82.075 E2.6234
G1 X154.890 Y81.933 F600
G1 X154.959 Y82.996 F4800
G1 X155.365 Y82.996 E0.0675 F600
G1 X157.300 Y83.797 E0.3484
G1 X157.300 Y85.281 E0.2468
G1 X152.673 Y85.281 E0.7695
G1 X150.387 Y87.567 E0.5376
G1 X157.300 Y87.567 E1.1496
G1 X157.300 Y89.853 E0.3801
G1 X148.302 Y89.853 E1.4964
G1 X148.102 Y89.853 F600
G1 E-0.8000 F1800
G1 X135.760 Y165.281 F4800
G1 E0.8000 F1800
G1 X33.240 Y165.281 E17.0491 F600
G1 X32.700 Y164.741 E0.1270
G1 X32.700 Y162.996 E0.2903
G1 X136.300 Y162.996 E17.2287
G1 X136.300 Y160.710 E0.3801
G1 X32.700 Y160.710 E17.2287
G1 X32.700 Y158.424 E0.3801
G1 X136.300 Y158.424 E17.2287
G1 X136.300 Y156.139 E0.3801
G1 X32.700 Y156.139 E17.2287
G1 X32.700 Y153.853 E0.3801
G1 X136.300 Y153.853 E17.2287
G1 X136.300 Y151.567 E0.3801
G1 X32.700 Y151.567 E17.2287
G1 X32.700 Y149.281 E0.3801
G1 X136.300 Y149.281 E17.2287
G1 X136.300 Y146.996 E0.3801
G1 X32.700 Y146.996 E17.2287
G1 X32.700 Y144.710 E0.3801
G1 X136.300 Y144.710 E17.2287
G1 X136.300 Y142.424 E0.3801
G1 X32.700 Y142.424 E17.2287
G1 X32.700 Y140.139 E0.3801
G1 X136.300 Y140.139 E17.2287
G1 X136.300 Y137.853 E0.3801
G1 X32.700 Y137.853 E17.2287
G1 X32.700 Y135.567 E0.3801
G1 X136.300 Y135.567 E17.2287
G1 X136.300 Y133.281 E0.3801
G1 X32.700 Y133.281 E17.2287
G1 X32.700 Y130.996 E0.3801
G1 X157.050 Y130.996 E20.6795
G1 X157.300 Y130.746 E0.0588
G1 X157.300 Y128.710 E0.3385
G1 X32.700 Y128.710 E20.7211
G1 X32.700 Y126.424 E0.3801
G1 X157.300 Y126.424 E20.7211
G1 X157.300 Y124.139 E0.3801
G1 X32.700 Y124.139 E20.7211
G1 X32.700 Y121.853 E0.3801
G1 X157.300 Y121.853 E20.7211
G1 X157.300 Y119.567 E0.3801
G1 X32.700 Y119.567 E20.7211
G1 X32.700 Y117.281 E0.3801
G1 X157.300 Y117.281 E20.7211
G1 X157.300 Y114.996 E0.3801
G1 X32.700 Y114.996 E20.7211
G1 X32.700 Y112.710 E0.3801
G1 X157.300 Y112.710 E20.7211
G1 X157.300 Y110.424 E0.3801
G1 X32.700 Y110.424 E20.7211
G1 X32.700 Y108.139 E0.3801
G1 X157.300 Y108.139 E20.7211
G1 X157.300 Y105.853 E0.3801
G1 X32.700 Y105.853 E20.7211
G1 X32.700 Y103.567 E0.3801
G1 X157.300 Y103.567 E20.7211
G1 X157.300 Y101.281 E0.3801
G1 X32.700 Y101.281 E20.7211
G1 X32.700 Y98.996 E0.3801
G1 X157.300 Y98.996 E20.7211
G1 X157.300 Y96.710 E0.3801
G1 X32.700 Y96.710 E20.7211
G1 X32.700 Y94.424 E0.3801
G1 X157.300 Y94.424 E20.7211
G1 X157.300 Y92.139 E0.3801
G1 X145.816 Y92.139 E1.9098
G1 X143.782 Y94.173 E0.4784
G1 X142.300 Y93.559 E0.2667
G1 X142.300 Y92.139 E0.2363
G1 X32.700 Y92.139 E18.2266
G1 X32.700 Y89.853 E0.3801
G1 X142.300 Y89.853 E18.2266
G1 X142.300 Y87.567 E0.3801
G1 X32.700 Y87.567 E18.2266
G1 X32.700 Y85.281 E0.3801
G1 X142.300 Y85.281 E18.2266
G1 X142.300 Y82.996 E0.3801
G1 X32.700 Y82.996 E18.2266
G1 X32.700 Y80.710 E0.3801
G1 X142.300 Y80.710 E18.2266
G1 X142.300 Y78.424 E0.3801
G1 X32.700 Y78.424 E18.2266
G1 X32.700 Y76.139 E0.3801
G1 X142.300 Y76.139 E18.2266
G1 X142.300 Y73.853 E0.3801
G1 X32.700 Y73.853 E18.2266
G1 X32.700 Y71.567 E0.3801
G1 X142.300 Y71.567 E18.2266
G1 X142.300 Y69.281 E0.3801
G1 X32.700 Y69.281 E18.2266
G1 X32.700 Y66.996 E0.3801
G1 X142.300 Y66.996 E18.2266
G1 X142.300 Y64.710 E0.3801
G1 X32.700 Y64.710 E18.2266
G1 X32.700 Y62.424 E0.3801
G1 X142.300 Y62.424 E18.2266
G1 X142.300 Y60.139 E0.3801
G1 X32.700 Y60.139 E18.2266
G1 X32.700 Y57.853 E0.3801
G1 X142.300 Y57.853 E18.2266
G1 X142.300 Y55.567 E0.3801
G1 X32.700 Y55.567 E18.2266
G1 X32.700 Y53.281 E0.3801
G1 X141.327 Y53.281 E18.0647
