; G-Code generated by Simplify3D(R) Version 4.0.0
; Feb 15, 2018 at 5:10:34 PM
; Settings Summary
;   processName,Process1
;   applyToModels,tweezer_holder
;   profileName,Original Prusa i3 MK2 RC4 (modified)
;   profileVersion,2016-08-30 14:21:19
;   baseProfile,Prusa Mendel (modified)
;   printMaterial,PLA
;   printQuality,FAST 0.3mm
;   printExtruders,
;   extruderName,Primary Extruder
;   extruderToolheadNumber,0
;   extruderDiameter,0.4
;   extruderAutoWidth,0
;   extruderWidth,0.45
;   extrusionMultiplier,1
;   extruderUseRetract,1
;   extruderRetractionDistance,0.8
;   extruderExtraRestartDistance,0
;   extruderRetractionZLift,0
;   extruderRetractionSpeed,1800
;   extruderUseCoasting,1
;   extruderCoastingDistance,0.2
;   extruderUseWipe,1
;   extruderWipeDistance,2
;   primaryExtruder,0
;   layerHeight,0.3
;   topSolidLayers,3
;   bottomSolidLayers,3
;   perimeterOutlines,2
;   printPerimetersInsideOut,1
;   startPointOption,2
;   startPointOriginX,0
;   startPointOriginY,0
;   sequentialIslands,0
;   spiralVaseMode,0
;   firstLayerHeightPercentage,66
;   firstLayerWidthPercentage,95
;   firstLayerUnderspeed,0.6
;   useRaft,1
;   raftExtruder,0
;   raftTopLayers,3
;   raftBaseLayers,2
;   raftOffset,3
;   raftSeparationDistance,0.25
;   raftTopInfill,100
;   aboveRaftSpeedMultiplier,0.3
;   useSkirt,1
;   skirtExtruder,0
;   skirtLayers,1
;   skirtOutlines,1
;   skirtOffset,1.8
;   usePrimePillar,0
;   primePillarExtruder,999
;   primePillarWidth,12
;   primePillarLocation,7
;   primePillarSpeedMultiplier,1
;   useOozeShield,0
;   oozeShieldExtruder,999
;   oozeShieldOffset,2
;   oozeShieldOutlines,1
;   oozeShieldSidewallShape,1
;   oozeShieldSidewallAngle,30
;   oozeShieldSpeedMultiplier,1
;   infillExtruder,0
;   internalInfillPattern,Grid
;   externalInfillPattern,Rectilinear
;   infillPercentage,20
;   outlineOverlapPercentage,21
;   infillExtrusionWidthPercentage,100
;   minInfillLength,2
;   infillLayerInterval,1
;   internalInfillAngles,45,-45
;   overlapInternalInfillAngles,1
;   externalInfillAngles,45,-45
;   generateSupport,0
;   supportExtruder,0
;   supportInfillPercentage,30
;   supportExtraInflation,1.4
;   supportBaseLayers,0
;   denseSupportExtruder,0
;   denseSupportLayers,0
;   denseSupportInfillPercentage,70
;   supportLayerInterval,1
;   supportHorizontalPartOffset,0.2
;   supportUpperSeparationLayers,1
;   supportLowerSeparationLayers,1
;   supportType,0
;   supportGridSpacing,4
;   maxOverhangAngle,45
;   supportAngles,0
;   temperatureName,Primary Extruder,Heated Bed
;   temperatureNumber,0,1
;   temperatureSetpointCount,2,1
;   temperatureSetpointLayers,1,2,1
;   temperatureSetpointTemperatures,215,200,55
;   temperatureStabilizeAtStartup,1,1
;   temperatureHeatedBed,0,1
;   temperatureRelayBetweenLayers,0,0
;   temperatureRelayBetweenLoops,0,0
;   fanLayers,1,2
;   fanSpeeds,0,100
;   blipFanToFullPower,1
;   adjustSpeedForCooling,1
;   minSpeedLayerTime,15
;   minCoolingSpeedSlowdown,5
;   increaseFanForCooling,0
;   minFanLayerTime,45
;   maxCoolingFanSpeed,100
;   increaseFanForBridging,1
;   bridgingFanSpeed,100
;   use5D,1
;   relativeEdistances,1
;   allowEaxisZeroing,1
;   independentExtruderAxes,0
;   includeM10123,0
;   stickySupport,1
;   applyToolheadOffsets,0
;   gcodeXoffset,0
;   gcodeYoffset,0
;   gcodeZoffset,0
;   overrideMachineDefinition,1
;   machineTypeOverride,0
;   strokeXoverride,250
;   strokeYoverride,210
;   strokeZoverride,200
;   originOffsetXoverride,0
;   originOffsetYoverride,0
;   originOffsetZoverride,0
;   homeXdirOverride,-1
;   homeYdirOverride,-1
;   homeZdirOverride,-1
;   flipXoverride,1
;   flipYoverride,-1
;   flipZoverride,1
;   toolheadOffsets,0,0|0,0|0,0|0,0|0,0|0,0
;   overrideFirmwareConfiguration,0
;   firmwareTypeOverride,RepRap (Marlin/Repetier/Sprinter)
;   GPXconfigOverride,r2
;   baudRateOverride,250000
;   overridePrinterModels,1
;   printerModelsOverride
;   startingGcode,M115 U3.0.7 ; tell the printer latest firmware varsion available,G28 W ; home all without mesh bed level,G80 ; mesh bed leveling,G1 Y-3.0 F1000.0 ; go outside printing area,G1 X60.0 E9.0  F1000.0 ; intro line,G1 X100.0 E12.5  F1000.0 ; intro line
;   layerChangeGcode,
;   retractionGcode,
;   toolChangeGcode,
;   endingGcode,M104 S0 ; turn off temperature,M140 S0 ; turn off heatbed,M107 ; turn off fan,G1 X0 Y200; home X axis,M84 ; disable motors
;   exportFileFormat,gcode
;   celebration,0
;   celebrationSong,Random Song
;   postProcessing,{REPLACE "; outer perimeter\n" "; outer perimeter\nM204 S600\n"},{REPLACE "; inner perimeter\n" "; inner perimeter\nM204 S1200\n"},{REPLACE "; solid layer\n" "; solid layer\nM204 S1500\n"},{REPLACE "; infill\n" "; infill\nM204 S2000\n"}
;   defaultSpeed,2400
;   outlineUnderspeed,1
;   solidInfillUnderspeed,0.8
;   supportUnderspeed,0.8
;   rapidXYspeed,4800
;   rapidZspeed,1000
;   minBridgingArea,50
;   bridgingExtraInflation,1
;   bridgingExtrusionMultiplier,1
;   bridgingSpeedMultiplier,1
;   useFixedBridgingAngle,0
;   fixedBridgingAngle,0
;   applyBridgingToPerimeters,0
;   filamentDiameters,1.75|1.75|1.75|1.75|1.75|1.75
;   filamentPricesPerKg,215|215|215|215|215|215
;   filamentDensities,1.25|1.25|1.25|1.25|1.25|1.25
;   useMinPrintHeight,0
;   minPrintHeight,0
;   useMaxPrintHeight,0
;   maxPrintHeight,35
;   useDiaphragm,0
;   diaphragmLayerInterval,20
;   robustSlicing,1
;   mergeAllIntoSolid,0
;   onlyRetractWhenCrossingOutline,0
;   retractBetweenLayers,1
;   useRetractionMinTravel,1
;   retractionMinTravel,3
;   retractWhileWiping,1
;   onlyWipeOutlines,1
;   avoidCrossingOutline,0
;   maxMovementDetourFactor,3
;   toolChangeRetractionDistance,12
;   toolChangeExtraRestartDistance,-0.5
;   toolChangeRetractionSpeed,600
;   externalThinWallType,0
;   internalThinWallType,2
;   thinWallAllowedOverlapPercentage,25
;   singleExtrusionMinLength,1
;   singleExtrusionMinPrintingWidthPercentage,50
;   singleExtrusionMaxPrintingWidthPercentage,200
;   singleExtrusionEndpointExtension,0.2
;   horizontalSizeCompensation,0
G90
M83
M106 S255
G4 P500
M106 S0
M140 S55
M190 S55
M104 S215 T0
M109 S215 T0
M115 U3.0.7 ; tell the printer latest firmware varsion available
G28 W ; home all without mesh bed level
G80 ; mesh bed leveling
G1 Y-3.0 F1000.0 ; go outside printing area
G1 X60.0 E9.0  F1000.0 ; intro line
G1 X100.0 E12.5  F1000.0 ; intro line
G1 E-0.8000 F1800
G1 Z0.330 F1000
; process Process1
; layer 1, Z = 0.330
T0
; tool H0.500 W0.428
; skirt
G1 X113.509 Y65.384 F4800
G1 E0.8000 F540
G1 X116.384 Y62.509 E0.3613 F1440
G1 X116.467 Y62.475 E0.0080
G1 X126.533 Y62.475 E0.8945
G1 X126.616 Y62.509 E0.0080
G1 X129.491 Y65.384 E0.3613
G1 X129.525 Y65.467 E0.0080
G1 X129.525 Y100.369 E3.1016
G1 X138.263 Y91.631 E1.0982
G1 X138.397 Y91.604 E0.0121
G1 X144.449 Y94.111 E0.5822
G1 X144.525 Y94.224 E0.0121
G1 X144.525 Y144.533 E4.4708
G1 X144.491 Y144.616 E0.0080
G1 X141.616 Y147.491 E0.3613
G1 X141.533 Y147.525 E0.0080
G1 X116.467 Y147.525 E2.2275
G1 X116.384 Y147.491 E0.0080
G1 X113.509 Y144.616 E0.3613
G1 X113.475 Y144.533 E0.0080
G1 X113.475 Y132.525 E1.0671
G1 X108.467 Y132.525 E0.4450
G1 X108.384 Y132.491 E0.0080
G1 X105.509 Y129.616 E0.3613
G1 X105.475 Y129.533 E0.0080
G1 X105.475 Y105.467 E2.1387
G1 X105.509 Y105.384 E0.0080
G1 X108.384 Y102.509 E0.3613
G1 X108.467 Y102.475 E0.0080
G1 X113.475 Y102.475 E0.4450
G1 X113.475 Y65.578 E3.2790
G1 X113.475 Y65.467 F1440
G1 X113.509 Y65.384 F1440
; tool H0.500 W0.760
; raft
G1 X115.900 Y66.423 F4800
G1 X117.423 Y64.900 E0.3403 F360
G1 X125.577 Y64.900 E1.2882
G1 X127.100 Y66.423 E0.3403
G1 X127.100 Y105.525 E6.1775
G1 X127.594 Y105.729 E0.0844
G1 X138.890 Y94.433 E2.5238
G1 X142.100 Y95.763 E0.5489
G1 X142.100 Y143.577 E7.5540
G1 X140.577 Y145.100 E0.3403
G1 X117.423 Y145.100 E3.6580
G1 X115.900 Y143.577 E0.3403
G1 X115.900 Y130.100 E2.1292
G1 X109.423 Y130.100 E1.0233
G1 X107.900 Y128.577 E0.3403
G1 X107.900 Y106.423 E3.5000
G1 X109.423 Y104.900 E0.3403
G1 X115.900 Y104.900 E1.0233
G1 X115.900 Y66.623 E6.0472
G1 X115.900 Y66.423 F360
G1 X117.312 Y66.143 F4800
G1 X125.688 Y66.143 E1.3234 F360
G1 X126.300 Y66.754 E0.1366
G1 X126.300 Y68.429 E0.2645
G1 X116.700 Y68.429 E1.5167
G1 X116.700 Y70.714 E0.3611
G1 X126.300 Y70.714 E1.5167
G1 X126.300 Y73.000 E0.3611
G1 X116.700 Y73.000 E1.5167
G1 X116.700 Y75.286 E0.3611
G1 X126.300 Y75.286 E1.5167
G1 X126.300 Y77.571 E0.3611
G1 X116.700 Y77.571 E1.5167
G1 X116.700 Y79.857 E0.3611
G1 X126.300 Y79.857 E1.5167
G1 X126.300 Y82.143 E0.3611
G1 X116.700 Y82.143 E1.5167
G1 X116.700 Y84.429 E0.3611
G1 X126.300 Y84.429 E1.5167
G1 X126.300 Y86.714 E0.3611
G1 X116.700 Y86.714 E1.5167
G1 X116.700 Y89.000 E0.3611
G1 X126.300 Y89.000 E1.5167
G1 X126.300 Y91.286 E0.3611
G1 X116.700 Y91.286 E1.5167
G1 X116.700 Y93.571 E0.3611
G1 X126.300 Y93.571 E1.5167
G1 X126.300 Y95.857 E0.3611
G1 X116.700 Y95.857 E1.5167
G1 X116.700 Y98.143 E0.3611
G1 X126.300 Y98.143 E1.5167
G1 X126.300 Y100.429 E0.3611
G1 X116.700 Y100.429 E1.5167
G1 X116.700 Y102.714 E0.3611
G1 X126.300 Y102.714 E1.5167
G1 X126.300 Y105.000 E0.3611
G1 X116.700 Y105.000 E1.5167
G1 X116.700 Y105.700 E0.1106
G1 X109.754 Y105.700 E1.0973
G1 X108.700 Y106.754 E0.2356
G1 X108.700 Y107.286 E0.0839
G1 X141.300 Y107.286 E5.1503
G1 X141.300 Y109.571 E0.3611
G1 X108.700 Y109.571 E5.1503
G1 X108.700 Y111.857 E0.3611
G1 X141.300 Y111.857 E5.1503
G1 X141.300 Y114.143 E0.3611
G1 X108.700 Y114.143 E5.1503
G1 X108.700 Y116.429 E0.3611
G1 X141.300 Y116.429 E5.1503
G1 X141.300 Y118.714 E0.3611
G1 X108.700 Y118.714 E5.1503
G1 X108.700 Y121.000 E0.3611
G1 X141.300 Y121.000 E5.1503
G1 X141.300 Y123.286 E0.3611
G1 X108.700 Y123.286 E5.1503
G1 X108.700 Y125.571 E0.3611
G1 X141.300 Y125.571 E5.1503
G1 X141.300 Y127.857 E0.3611
G1 X108.700 Y127.857 E5.1503
G1 X108.700 Y128.246 E0.0614
G1 X109.754 Y129.300 E0.2356
G1 X116.700 Y129.300 E1.0973
G1 X116.700 Y130.143 E0.1332
G1 X141.300 Y130.143 E3.8864
G1 X141.300 Y132.429 E0.3611
G1 X116.700 Y132.429 E3.8864
G1 X116.700 Y134.714 E0.3611
G1 X141.300 Y134.714 E3.8864
G1 X141.300 Y137.000 E0.3611
G1 X116.700 Y137.000 E3.8864
G1 X116.700 Y139.286 E0.3611
G1 X141.300 Y139.286 E3.8864
G1 X141.300 Y141.571 E0.3611
G1 X116.700 Y141.571 E3.8864
G1 X116.700 Y143.246 E0.2645
G1 X117.312 Y143.857 E0.1366
G1 X140.488 Y143.857 E3.6616
G1 X140.688 Y143.857 F360
G1 E-0.8000 F1800
G1 X141.300 Y105.000 F4800
G1 E0.8000 F1800
G1 X129.454 Y105.000 E1.8714 F360
G1 X131.740 Y102.714 E0.5107
G1 X141.300 Y102.714 E1.5103
G1 X141.300 Y100.429 E0.3611
G1 X134.026 Y100.429 E1.1492
G1 X136.312 Y98.143 E0.5107
G1 X141.300 Y98.143 E0.7881
G1 X141.300 Y96.297 E0.2916
G1 X140.237 Y95.857 E0.1817
G1 X138.797 Y95.857 E0.2275
G1 X138.597 Y95.857 F360
G1 E-0.8000 F1800
; layer 2, Z = 0.830
M104 S200 T0
M106 S255
; tool H0.500 W0.800
G1 X138.890 Y94.433 F4800
G1 Z0.830 F1000
G1 E0.8000 F1800
G1 X142.100 Y95.763 E0.5778 F600
G1 X142.100 Y143.577 E7.9515
G1 X140.577 Y145.100 E0.3582
G1 X117.423 Y145.100 E3.8505
G1 X115.900 Y143.577 E0.3582
G1 X115.900 Y130.100 E2.2412
G1 X109.423 Y130.100 E1.0771
G1 X107.900 Y128.577 E0.3582
G1 X107.900 Y106.423 E3.6842
G1 X109.423 Y104.900 E0.3582
G1 X115.900 Y104.900 E1.0771
G1 X115.900 Y66.423 E6.3987
G1 X117.423 Y64.900 E0.3582
G1 X125.577 Y64.900 E1.3560
G1 X127.100 Y66.423 E0.3582
G1 X127.100 Y105.525 E6.5026
G1 X127.594 Y105.729 E0.0889
G1 X138.749 Y94.575 E2.6234
G1 X138.890 Y94.433 F600
G1 X138.597 Y95.857 F4800
G1 X140.237 Y95.857 E0.2728 F600
G1 X141.300 Y96.297 E0.1913
G1 X141.300 Y98.143 E0.3069
G1 X136.312 Y98.143 E0.8296
G1 X134.026 Y100.429 E0.5376
G1 X141.300 Y100.429 E1.2097
G1 X141.300 Y102.714 E0.3801
G1 X131.740 Y102.714 E1.5898
G1 X129.454 Y105.000 E0.5376
G1 X141.100 Y105.000 E1.9367
G1 X141.300 Y105.000 F600
G1 E-0.8000 F1800
G1 X140.688 Y143.857 F4800
G1 E0.8000 F1800
G1 X117.312 Y143.857 E3.8876 F600
G1 X116.700 Y143.246 E0.1438
G1 X116.700 Y141.571 E0.2784
G1 X141.300 Y141.571 E4.0910
G1 X141.300 Y139.286 E0.3801
G1 X116.700 Y139.286 E4.0910
G1 X116.700 Y137.000 E0.3801
G1 X141.300 Y137.000 E4.0910
G1 X141.300 Y134.714 E0.3801
G1 X116.700 Y134.714 E4.0910
G1 X116.700 Y132.429 E0.3801
G1 X141.300 Y132.429 E4.0910
G1 X141.300 Y130.143 E0.3801
G1 X116.700 Y130.143 E4.0910
G1 X116.700 Y129.300 E0.1402
G1 X109.754 Y129.300 E1.1551
G1 X108.700 Y128.246 E0.2480
G1 X108.700 Y127.857 E0.0646
G1 X141.300 Y127.857 E5.4214
G1 X141.300 Y125.571 E0.3801
G1 X108.700 Y125.571 E5.4214
G1 X108.700 Y123.286 E0.3801
G1 X141.300 Y123.286 E5.4214
G1 X141.300 Y121.000 E0.3801
G1 X108.700 Y121.000 E5.4214
G1 X108.700 Y118.714 E0.3801
G1 X141.300 Y118.714 E5.4214
G1 X141.300 Y116.429 E0.3801
G1 X108.700 Y116.429 E5.4214
G1 X108.700 Y114.143 E0.3801
G1 X141.300 Y114.143 E5.4214
G1 X141.300 Y111.857 E0.3801
G1 X108.700 Y111.857 E5.4214
G1 X108.700 Y109.571 E0.3801
G1 X141.300 Y109.571 E5.4214
G1 X141.300 Y107.286 E0.3801
G1 X108.700 Y107.286 E5.4214
G1 X108.700 Y106.754 E0.0884
G1 X109.754 Y105.700 E0.2480
G1 X116.700 Y105.700 E1.1551
G1 X116.700 Y105.000 E0.1164
G1 X126.300 Y105.000 E1.5965
G1 X126.300 Y102.714 E0.3801
G1 X116.700 Y102.714 E1.5965
G1 X116.700 Y100.429 E0.3801
G1 X126.300 Y100.429 E1.5965
G1 X126.300 Y98.143 E0.3801
G1 X116.700 Y98.143 E1.5965
G1 X116.700 Y95.857 E0.3801
G1 X126.300 Y95.857 E1.5965
G1 X126.300 Y93.571 E0.3801
G1 X116.700 Y93.571 E1.5965
G1 X116.700 Y91.286 E0.3801
G1 X126.300 Y91.286 E1.5965
G1 X126.300 Y89.000 E0.3801
G1 X116.700 Y89.000 E1.5965
G1 X116.700 Y86.714 E0.3801
G1 X126.300 Y86.714 E1.5965
G1 X126.300 Y84.429 E0.3801
G1 X116.700 Y84.429 E1.5965
G1 X116.700 Y82.143 E0.3801
G1 X126.300 Y82.143 E1.5965
G1 X126.300 Y79.857 E0.3801
G1 X116.700 Y79.857 E1.5965
G1 X116.700 Y77.571 E0.3801
G1 X126.300 Y77.571 E1.5965
G1 X126.300 Y75.286 E0.3801
G1 X116.700 Y75.286 E1.5965
G1 X116.700 Y73.000 E0.3801
G1 X126.300 Y73.000 E1.5965
G1 X126.300 Y70.714 E0.3801
G1 X116.700 Y70.714 E1.5965
G1 X116.700 Y68.429 E0.3801
G1 X126.300 Y68.429 E1.5965
G1 X126.300 Y66.754 E0.2784
G1 X125.688 Y66.143 E0.1438
G1 X117.512 Y66.143 E1.3598
G1 X117.312 Y66.143 F600
G1 E-0.8000 F1800
; layer 3, Z = 1.052
; tool H0.222 W0.400
G1 X115.700 Y66.782 F4800
G1 Z1.052 F1000
G1 E0.8000 F1800
G1 X117.782 Y64.700 E0.1088 F1800
G1 X118.348 Y64.700 E0.0209
G1 X115.700 Y67.348 E0.1384
G1 X115.700 Y67.914 E0.0209
G1 X118.914 Y64.700 E0.1680
G1 X119.480 Y64.700 E0.0209
G1 X115.700 Y68.480 E0.1975
G1 X115.700 Y69.045 E0.0209
G1 X120.045 Y64.700 E0.2271
G1 X120.611 Y64.700 E0.0209
G1 X115.700 Y69.611 E0.2567
G1 X115.700 Y70.177 E0.0209
G1 X121.177 Y64.700 E0.2862
G1 X121.742 Y64.700 E0.0209
G1 X115.700 Y70.742 E0.3158
G1 X115.700 Y71.308 E0.0209
G1 X122.308 Y64.700 E0.3454
G1 X122.874 Y64.700 E0.0209
G1 X115.700 Y71.874 E0.3749
G1 X115.700 Y72.439 E0.0209
G1 X123.439 Y64.700 E0.4045
G1 X124.005 Y64.700 E0.0209
G1 X115.700 Y73.005 E0.4340
G1 X115.700 Y73.571 E0.0209
G1 X124.571 Y64.700 E0.4636
G1 X125.136 Y64.700 E0.0209
G1 X115.700 Y74.136 E0.4932
G1 X115.700 Y74.702 E0.0209
G1 X125.681 Y64.721 E0.5216
G1 X125.964 Y65.004 E0.0148
G1 X115.700 Y75.268 E0.5364
G1 X115.700 Y75.833 E0.0209
G1 X126.247 Y65.287 E0.5512
G1 X126.529 Y65.570 E0.0148
G1 X115.700 Y76.399 E0.5660
G1 X115.700 Y76.965 E0.0209
G1 X126.812 Y65.852 E0.5808
G1 X127.095 Y66.135 E0.0148
G1 X115.700 Y77.530 E0.5955
G1 X115.700 Y78.096 E0.0209
G1 X127.300 Y66.496 E0.6063
G1 X127.300 Y67.062 E0.0209
G1 X115.700 Y78.662 E0.6063
G1 X115.700 Y79.228 E0.0209
G1 X127.300 Y67.628 E0.6063
G1 X127.300 Y68.193 E0.0209
G1 X115.700 Y79.793 E0.6063
G1 X115.700 Y80.359 E0.0209
G1 X127.300 Y68.759 E0.6063
G1 X127.300 Y69.325 E0.0209
G1 X115.700 Y80.925 E0.6063
G1 X115.700 Y81.490 E0.0209
G1 X127.300 Y69.890 E0.6063
G1 X127.300 Y70.456 E0.0209
G1 X115.700 Y82.056 E0.6063
G1 X115.700 Y82.622 E0.0209
G1 X127.300 Y71.022 E0.6063
G1 X127.300 Y71.587 E0.0209
G1 X115.700 Y83.187 E0.6063
G1 X115.700 Y83.753 E0.0209
G1 X127.300 Y72.153 E0.6063
G1 X127.300 Y72.719 E0.0209
G1 X115.700 Y84.319 E0.6063
G1 X115.700 Y84.884 E0.0209
G1 X127.300 Y73.284 E0.6063
G1 X127.300 Y73.850 E0.0209
G1 X115.700 Y85.450 E0.6063
