; G-Code generated by Simplify3D(R) Version 4.0.0
; Feb 17, 2018 at 1:52:31 PM
; Settings Summary
;   processName,Process1
;   applyToModels,wrench_top_plate,wrench_bottom_strut,wrench_holder
;   profileName,Original Prusa i3 MK2 RC4 (modified)
;   profileVersion,2016-08-30 14:21:19
;   baseProfile,Prusa Mendel (modified)
;   printMaterial,PLA
;   printQuality,FAST 0.3mm
;   printExtruders,
;   extruderName,Primary Extruder
;   extruderToolheadNumber,0
;   extruderDiameter,0.4
;   extruderAutoWidth,0
;   extruderWidth,0.45
;   extrusionMultiplier,1
;   extruderUseRetract,1
;   extruderRetractionDistance,0.8
;   extruderExtraRestartDistance,0
;   extruderRetractionZLift,0
;   extruderRetractionSpeed,1800
;   extruderUseCoasting,1
;   extruderCoastingDistance,0.2
;   extruderUseWipe,1
;   extruderWipeDistance,2
;   primaryExtruder,0
;   layerHeight,0.3
;   topSolidLayers,3
;   bottomSolidLayers,3
;   perimeterOutlines,2
;   printPerimetersInsideOut,1
;   startPointOption,2
;   startPointOriginX,0
;   startPointOriginY,0
;   sequentialIslands,0
;   spiralVaseMode,0
;   firstLayerHeightPercentage,66
;   firstLayerWidthPercentage,95
;   firstLayerUnderspeed,0.6
;   useRaft,1
;   raftExtruder,0
;   raftTopLayers,3
;   raftBaseLayers,2
;   raftOffset,3
;   raftSeparationDistance,0.25
;   raftTopInfill,90
;   aboveRaftSpeedMultiplier,0.3
;   useSkirt,1
;   skirtExtruder,0
;   skirtLayers,1
;   skirtOutlines,1
;   skirtOffset,1.8
;   usePrimePillar,0
;   primePillarExtruder,999
;   primePillarWidth,12
;   primePillarLocation,7
;   primePillarSpeedMultiplier,1
;   useOozeShield,0
;   oozeShieldExtruder,999
;   oozeShieldOffset,2
;   oozeShieldOutlines,1
;   oozeShieldSidewallShape,1
;   oozeShieldSidewallAngle,30
;   oozeShieldSpeedMultiplier,1
;   infillExtruder,0
;   internalInfillPattern,Grid
;   externalInfillPattern,Rectilinear
;   infillPercentage,20
;   outlineOverlapPercentage,21
;   infillExtrusionWidthPercentage,100
;   minInfillLength,2
;   infillLayerInterval,1
;   internalInfillAngles,45,-45
;   overlapInternalInfillAngles,1
;   externalInfillAngles,45,-45
;   generateSupport,0
;   supportExtruder,0
;   supportInfillPercentage,30
;   supportExtraInflation,1.4
;   supportBaseLayers,0
;   denseSupportExtruder,0
;   denseSupportLayers,0
;   denseSupportInfillPercentage,70
;   supportLayerInterval,1
;   supportHorizontalPartOffset,0.2
;   supportUpperSeparationLayers,1
;   supportLowerSeparationLayers,1
;   supportType,0
;   supportGridSpacing,4
;   maxOverhangAngle,45
;   supportAngles,0
;   temperatureName,Primary Extruder,Heated Bed
;   temperatureNumber,0,1
;   temperatureSetpointCount,2,1
;   temperatureSetpointLayers,1,2,1
;   temperatureSetpointTemperatures,215,200,55
;   temperatureStabilizeAtStartup,1,1
;   temperatureHeatedBed,0,1
;   temperatureRelayBetweenLayers,0,0
;   temperatureRelayBetweenLoops,0,0
;   fanLayers,1,2
;   fanSpeeds,0,100
;   blipFanToFullPower,1
;   adjustSpeedForCooling,1
;   minSpeedLayerTime,15
;   minCoolingSpeedSlowdown,5
;   increaseFanForCooling,0
;   minFanLayerTime,45
;   maxCoolingFanSpeed,100
;   increaseFanForBridging,1
;   bridgingFanSpeed,100
;   use5D,1
;   relativeEdistances,1
;   allowEaxisZeroing,1
;   independentExtruderAxes,0
;   includeM10123,0
;   stickySupport,1
;   applyToolheadOffsets,0
;   gcodeXoffset,0
;   gcodeYoffset,0
;   gcodeZoffset,0
;   overrideMachineDefinition,1
;   machineTypeOverride,0
;   strokeXoverride,250
;   strokeYoverride,210
;   strokeZoverride,200
;   originOffsetXoverride,0
;   originOffsetYoverride,0
;   originOffsetZoverride,0
;   homeXdirOverride,-1
;   homeYdirOverride,-1
;   homeZdirOverride,-1
;   flipXoverride,1
;   flipYoverride,-1
;   flipZoverride,1
;   toolheadOffsets,0,0|0,0|0,0|0,0|0,0|0,0
;   overrideFirmwareConfiguration,0
;   firmwareTypeOverride,RepRap (Marlin/Repetier/Sprinter)
;   GPXconfigOverride,r2
;   baudRateOverride,250000
;   overridePrinterModels,1
;   printerModelsOverride
;   startingGcode,M115 U3.0.7 ; tell the printer latest firmware varsion available,G28 W ; home all without mesh bed level,G80 ; mesh bed leveling,G1 Y-3.0 F1000.0 ; go outside printing area,G1 X60.0 E9.0  F1000.0 ; intro line,G1 X100.0 E12.5  F1000.0 ; intro line
;   layerChangeGcode,
;   retractionGcode,
;   toolChangeGcode,
;   endingGcode,M104 S0 ; turn off temperature,M140 S0 ; turn off heatbed,M107 ; turn off fan,G1 X0 Y200; home X axis,M84 ; disable motors
;   exportFileFormat,gcode
;   celebration,0
;   celebrationSong,Random Song
;   postProcessing,{REPLACE "; outer perimeter\n" "; outer perimeter\nM204 S600\n"},{REPLACE "; inner perimeter\n" "; inner perimeter\nM204 S1200\n"},{REPLACE "; solid layer\n" "; solid layer\nM204 S1500\n"},{REPLACE "; infill\n" "; infill\nM204 S2000\n"}
;   defaultSpeed,2400
;   outlineUnderspeed,1
;   solidInfillUnderspeed,0.8
;   supportUnderspeed,0.8
;   rapidXYspeed,4800
;   rapidZspeed,1000
;   minBridgingArea,50
;   bridgingExtraInflation,1
;   bridgingExtrusionMultiplier,1
;   bridgingSpeedMultiplier,1
;   useFixedBridgingAngle,0
;   fixedBridgingAngle,0
;   applyBridgingToPerimeters,0
;   filamentDiameters,1.75|1.75|1.75|1.75|1.75|1.75
;   filamentPricesPerKg,215|215|215|215|215|215
;   filamentDensities,1.25|1.25|1.25|1.25|1.25|1.25
;   useMinPrintHeight,0
;   minPrintHeight,0
;   useMaxPrintHeight,0
;   maxPrintHeight,35
;   useDiaphragm,0
;   diaphragmLayerInterval,20
;   robustSlicing,1
;   mergeAllIntoSolid,0
;   onlyRetractWhenCrossingOutline,0
;   retractBetweenLayers,1
;   useRetractionMinTravel,1
;   retractionMinTravel,3
;   retractWhileWiping,1
;   onlyWipeOutlines,1
;   avoidCrossingOutline,0
;   maxMovementDetourFactor,3
;   toolChangeRetractionDistance,12
;   toolChangeExtraRestartDistance,-0.5
;   toolChangeRetractionSpeed,600
;   externalThinWallType,0
;   internalThinWallType,2
;   thinWallAllowedOverlapPercentage,25
;   singleExtrusionMinLength,1
;   singleExtrusionMinPrintingWidthPercentage,50
;   singleExtrusionMaxPrintingWidthPercentage,200
;   singleExtrusionEndpointExtension,0.2
;   horizontalSizeCompensation,0
G90
M83
M106 S255
G4 P500
M106 S0
M140 S55
M190 S55
M104 S215 T0
M109 S215 T0
M115 U3.0.7 ; tell the printer latest firmware varsion available
G28 W ; home all without mesh bed level
G80 ; mesh bed leveling
G1 Y-3.0 F1000.0 ; go outside printing area
G1 X60.0 E9.0  F1000.0 ; intro line
G1 X100.0 E12.5  F1000.0 ; intro line
G1 E-0.8000 F1800
G1 Z0.330 F1000
; process Process1
; layer 1, Z = 0.330
T0
; tool H0.500 W0.428
; skirt
G1 X75.509 Y34.884 F4800
G1 E0.8000 F540
G1 X78.384 Y32.009 E0.3613 F1440
G1 X78.467 Y31.975 E0.0080
G1 X110.975 Y31.975 E2.8889
G1 X110.975 Y27.967 E0.3562
G1 X111.009 Y27.884 E0.0080
G1 X113.884 Y25.009 E0.3613
G1 X113.967 Y24.975 E0.0080
G1 X121.033 Y24.975 E0.6279
G1 X121.116 Y25.009 E0.0080
G1 X123.991 Y27.884 E0.3613
G1 X124.025 Y27.967 E0.0080
G1 X124.025 Y137.869 E9.7666
G1 X132.763 Y129.131 E1.0982
G1 X132.897 Y129.104 E0.0121
G1 X138.949 Y131.611 E0.5822
G1 X139.025 Y131.724 E0.0121
G1 X139.025 Y182.033 E4.4708
G1 X138.991 Y182.116 E0.0080
G1 X136.116 Y184.991 E0.3613
G1 X136.033 Y185.025 E0.0080
G1 X113.967 Y185.025 E1.9609
G1 X113.884 Y184.991 E0.0080
G1 X111.009 Y182.116 E0.3613
G1 X110.975 Y182.033 E0.0080
G1 X110.975 Y176.025 E0.5339
G1 X70.967 Y176.025 E3.5554
G1 X70.884 Y175.991 E0.0080
G1 X68.009 Y173.116 E0.3613
G1 X67.975 Y173.033 E0.0080
G1 X67.975 Y78.967 E8.3594
G1 X68.009 Y78.884 E0.0080
G1 X70.884 Y76.009 E0.3613
G1 X70.967 Y75.975 E0.0080
G1 X75.475 Y75.975 E0.4006
G1 X75.475 Y71.967 E0.3562
G1 X75.509 Y71.884 E0.0080
G1 X75.562 Y71.832 E0.0066
G1 X75.562 Y42.168 E2.6361
G1 X75.509 Y42.116 E0.0066
G1 X75.475 Y42.033 E0.0080
G1 X75.475 Y35.078 E0.6181
G1 X75.475 Y34.967 F1440
G1 X75.509 Y34.884 F1440
; tool H0.500 W0.760
; raft
G1 X77.900 Y35.923 F4800
G1 X79.423 Y34.400 E0.3403 F360
G1 X113.400 Y34.400 E5.3679
G1 X113.400 Y28.923 E0.8653
G1 X114.923 Y27.400 E0.3403
G1 X120.077 Y27.400 E0.8142
G1 X121.600 Y28.923 E0.3403
G1 X121.600 Y143.025 E18.0264
G1 X122.094 Y143.229 E0.0844
G1 X133.390 Y131.933 E2.5238
G1 X136.600 Y133.263 E0.5489
G1 X136.600 Y181.077 E7.5540
G1 X135.077 Y182.600 E0.3403
G1 X114.923 Y182.600 E3.1840
G1 X113.400 Y181.077 E0.3403
G1 X113.400 Y173.600 E1.1813
G1 X71.923 Y173.600 E6.5528
G1 X70.400 Y172.077 E0.3403
G1 X70.400 Y79.923 E14.5590
G1 X71.923 Y78.400 E0.3403
G1 X77.900 Y78.400 E0.9443
G1 X77.900 Y72.923 E0.8653
G1 X77.987 Y72.836 E0.0193
G1 X77.987 Y41.164 E5.0039
G1 X77.900 Y41.077 E0.0193
G1 X77.900 Y36.123 E0.7826
G1 X77.900 Y35.923 F360
G1 E-0.8000 F1800
G1 X92.424 Y42.600 F4800
G1 E0.8000 F1800
G1 X92.424 Y71.400 E4.5499 F360
G1 X102.004 Y71.398 E1.5135
G1 X102.224 Y71.210 E0.0457
G1 X102.488 Y71.013 E0.0520
G1 X102.645 Y70.913 E0.0294
G1 X102.935 Y70.757 E0.0520
G1 X103.104 Y70.680 E0.0294
G1 X103.413 Y70.567 E0.0520
G1 X103.592 Y70.515 E0.0294
G1 X103.955 Y70.438 E0.0586
G1 X104.224 Y70.410 E0.0426
G1 X107.900 Y70.404 E0.5808
G1 X107.900 Y69.100 E0.2060
G1 X104.448 Y69.100 E0.5453
G1 X104.349 Y69.096 E0.0157
G1 X104.053 Y69.073 E0.0469
G1 X103.861 Y69.044 E0.0307
G1 X103.526 Y68.967 E0.0544
G1 X103.340 Y68.909 E0.0307
G1 X103.020 Y68.783 E0.0544
G1 X102.845 Y68.698 E0.0308
G1 X102.547 Y68.526 E0.0544
G1 X102.386 Y68.416 E0.0307
G1 X102.118 Y68.201 E0.0543
G1 X101.975 Y68.068 E0.0307
G1 X101.742 Y67.816 E0.0544
G1 X101.621 Y67.663 E0.0307
G1 X101.428 Y67.379 E0.0543
G1 X101.331 Y67.210 E0.0307
G1 X101.182 Y66.900 E0.0544
G1 X101.111 Y66.719 E0.0308
G1 X101.010 Y66.390 E0.0543
G1 X100.967 Y66.200 E0.0307
G1 X100.917 Y65.859 E0.0544
G1 X100.903 Y65.666 E0.0307
G1 X100.903 Y65.322 E0.0544
G1 X100.918 Y65.127 E0.0308
G1 X100.970 Y64.787 E0.0543
G1 X101.014 Y64.598 E0.0307
G1 X101.115 Y64.269 E0.0543
G1 X101.187 Y64.088 E0.0307
G1 X101.337 Y63.779 E0.0544
G1 X101.434 Y63.610 E0.0307
G1 X101.629 Y63.326 E0.0544
G1 X101.750 Y63.175 E0.0307
G1 X101.985 Y62.923 E0.0544
G1 X102.128 Y62.791 E0.0308
G1 X102.397 Y62.577 E0.0544
G1 X102.558 Y62.467 E0.0307
G1 X102.856 Y62.296 E0.0543
G1 X103.032 Y62.212 E0.0307
G1 X103.352 Y62.087 E0.0543
G1 X103.538 Y62.030 E0.0308
G1 X103.873 Y61.954 E0.0542
G1 X104.064 Y61.925 E0.0305
G1 X104.355 Y61.904 E0.0462
G1 X104.452 Y61.900 E0.0153
G1 X107.900 Y61.900 E0.5447
G1 X107.900 Y60.600 E0.2054
G1 X104.448 Y60.600 E0.5453
G1 X104.349 Y60.596 E0.0157
G1 X104.053 Y60.573 E0.0468
G1 X103.861 Y60.544 E0.0307
G1 X103.526 Y60.467 E0.0543
G1 X103.340 Y60.409 E0.0307
G1 X103.020 Y60.283 E0.0544
G1 X102.845 Y60.198 E0.0307
G1 X102.547 Y60.026 E0.0544
G1 X102.386 Y59.916 E0.0308
G1 X102.118 Y59.701 E0.0544
G1 X101.975 Y59.568 E0.0307
G1 X101.742 Y59.316 E0.0544
G1 X101.621 Y59.163 E0.0307
G1 X101.428 Y58.879 E0.0543
G1 X101.331 Y58.710 E0.0307
G1 X101.182 Y58.400 E0.0544
G1 X101.111 Y58.219 E0.0308
G1 X101.010 Y57.890 E0.0543
G1 X100.967 Y57.700 E0.0307
G1 X100.917 Y57.359 E0.0544
G1 X100.903 Y57.166 E0.0307
G1 X100.903 Y56.822 E0.0544
G1 X100.918 Y56.628 E0.0307
G1 X100.970 Y56.287 E0.0544
G1 X101.014 Y56.098 E0.0307
G1 X101.115 Y55.769 E0.0544
G1 X101.187 Y55.588 E0.0307
G1 X101.337 Y55.279 E0.0544
G1 X101.434 Y55.110 E0.0307
G1 X101.629 Y54.826 E0.0543
G1 X101.750 Y54.674 E0.0308
G1 X101.985 Y54.423 E0.0543
G1 X102.127 Y54.291 E0.0307
G1 X102.397 Y54.077 E0.0544
G1 X102.558 Y53.967 E0.0308
G1 X102.856 Y53.796 E0.0543
G1 X103.032 Y53.712 E0.0307
G1 X103.352 Y53.587 E0.0543
G1 X103.538 Y53.530 E0.0308
G1 X103.873 Y53.454 E0.0542
G1 X104.064 Y53.425 E0.0305
G1 X104.355 Y53.404 E0.0462
G1 X104.452 Y53.400 E0.0153
G1 X107.900 Y53.400 E0.5447
G1 X107.900 Y52.100 E0.2054
G1 X104.448 Y52.100 E0.5453
G1 X104.349 Y52.096 E0.0157
G1 X104.053 Y52.073 E0.0468
G1 X103.861 Y52.044 E0.0307
G1 X103.526 Y51.967 E0.0543
G1 X103.340 Y51.909 E0.0307
G1 X103.020 Y51.783 E0.0544
G1 X102.845 Y51.698 E0.0307
G1 X102.547 Y51.526 E0.0544
G1 X102.386 Y51.416 E0.0308
G1 X102.118 Y51.201 E0.0544
G1 X101.975 Y51.068 E0.0307
G1 X101.742 Y50.816 E0.0544
G1 X101.621 Y50.663 E0.0307
G1 X101.428 Y50.379 E0.0543
G1 X101.331 Y50.210 E0.0307
G1 X101.182 Y49.900 E0.0544
G1 X101.111 Y49.719 E0.0308
G1 X101.010 Y49.390 E0.0543
G1 X100.967 Y49.200 E0.0307
G1 X100.917 Y48.859 E0.0544
G1 X100.903 Y48.666 E0.0307
G1 X100.903 Y48.322 E0.0544
G1 X100.918 Y48.128 E0.0307
G1 X100.970 Y47.787 E0.0544
G1 X101.014 Y47.598 E0.0307
G1 X101.115 Y47.269 E0.0544
G1 X101.187 Y47.088 E0.0307
G1 X101.337 Y46.779 E0.0544
G1 X101.434 Y46.610 E0.0307
G1 X101.629 Y46.326 E0.0543
G1 X101.750 Y46.174 E0.0308
G1 X101.985 Y45.923 E0.0543
G1 X102.127 Y45.791 E0.0307
G1 X102.397 Y45.577 E0.0544
G1 X102.558 Y45.467 E0.0308
G1 X102.856 Y45.296 E0.0543
G1 X103.032 Y45.212 E0.0307
G1 X103.352 Y45.087 E0.0543
G1 X103.538 Y45.030 E0.0308
G1 X103.873 Y44.954 E0.0542
G1 X104.064 Y44.925 E0.0305
G1 X104.355 Y44.904 E0.0462
G1 X104.452 Y44.900 E0.0153
G1 X107.900 Y44.900 E0.5447
G1 X107.900 Y43.600 E0.2054
G1 X104.450 Y43.600 E0.5450
G1 X104.355 Y43.596 E0.0151
G1 X104.072 Y43.576 E0.0448
G1 X103.888 Y43.549 E0.0294
G1 X103.566 Y43.478 E0.0520
G1 X103.388 Y43.425 E0.0294
G1 X103.080 Y43.309 E0.0520
G1 X102.911 Y43.231 E0.0294
G1 X102.622 Y43.073 E0.0520
G1 X102.466 Y42.972 E0.0294
G1 X102.203 Y42.773 E0.0520
G1 X102.004 Y42.600 E0.0417
G1 X92.624 Y42.600 E1.4819
G1 X92.424 Y42.600 F360
G1 E-0.8000 F1800
G1 X108.700 Y43.286 F4800
G1 E0.8000 F1800
G1 X120.800 Y43.286 E1.9116 F360
G1 X120.800 Y45.571 E0.3611
G1 X108.700 Y45.571 E1.9116
G1 X108.700 Y45.700 E0.0203
G1 X104.467 Y45.700 E0.6688
G1 X104.400 Y45.702 E0.0106
G1 X104.153 Y45.721 E0.0391
G1 X104.021 Y45.741 E0.0211
G1 X103.744 Y45.803 E0.0448
G1 X103.615 Y45.843 E0.0213
G1 X103.350 Y45.946 E0.0449
G1 X103.229 Y46.004 E0.0213
G1 X102.983 Y46.146 E0.0449
G1 X102.871 Y46.222 E0.0213
G1 X102.649 Y46.398 E0.0449
G1 X102.550 Y46.490 E0.0213
G1 X102.356 Y46.698 E0.0449
G1 X102.272 Y46.803 E0.0213
G1 X102.111 Y47.037 E0.0449
G1 X102.044 Y47.154 E0.0213
G1 X101.920 Y47.410 E0.0449
G1 X101.871 Y47.535 E0.0213
G1 X101.786 Y47.806 E0.0449
G1 X101.775 Y47.857 E0.0082
G1 X120.800 Y47.857 E3.0057
G1 X120.800 Y50.143 E0.3611
G1 X102.234 Y50.143 E2.9331
G1 X102.266 Y50.189 E0.0088
G1 X102.350 Y50.295 E0.0213
G1 X102.543 Y50.503 E0.0449
G1 X102.641 Y50.595 E0.0213
G1 X102.863 Y50.773 E0.0449
G1 X102.974 Y50.849 E0.0213
G1 X103.220 Y50.991 E0.0449
G1 X103.341 Y51.050 E0.0213
G1 X103.606 Y51.154 E0.0449
G1 X103.734 Y51.194 E0.0213
G1 X104.011 Y51.258 E0.0449
G1 X104.144 Y51.278 E0.0213
G1 X104.395 Y51.297 E0.0397
G1 X104.464 Y51.300 E0.0109
G1 X108.700 Y51.300 E0.6693
G1 X108.700 Y52.429 E0.1783
G1 X120.800 Y52.429 E1.9116
G1 X120.800 Y54.714 E0.3611
G1 X102.882 Y54.714 E2.8308
G1 X102.871 Y54.722 E0.0020
G1 X102.649 Y54.898 E0.0449
G1 X102.550 Y54.990 E0.0213
G1 X102.356 Y55.198 E0.0449
G1 X102.272 Y55.303 E0.0213
G1 X102.111 Y55.537 E0.0449
G1 X102.044 Y55.654 E0.0213
G1 X101.920 Y55.910 E0.0449
G1 X101.871 Y56.035 E0.0213
G1 X101.786 Y56.306 E0.0449
G1 X101.756 Y56.438 E0.0213
G1 X101.713 Y56.719 E0.0449
G1 X101.703 Y56.853 E0.0213
G1 X101.703 Y57.000 E0.0232
G1 X120.800 Y57.000 E3.0171
G1 X120.800 Y59.286 E0.3611
G1 X102.882 Y59.286 E2.8308
G1 X102.974 Y59.349 E0.0176
G1 X103.220 Y59.491 E0.0449
G1 X103.341 Y59.550 E0.0213
G1 X103.606 Y59.654 E0.0449
G1 X103.734 Y59.694 E0.0213
G1 X104.011 Y59.758 E0.0449
G1 X104.144 Y59.778 E0.0213
G1 X104.395 Y59.797 E0.0397
G1 X104.464 Y59.800 E0.0109
G1 X108.700 Y59.800 E0.6693
G1 X108.700 Y61.571 E0.2799
G1 X120.800 Y61.571 E1.9116
G1 X120.800 Y63.857 E0.3611
G1 X102.235 Y63.857 E2.9330
G1 X102.111 Y64.037 E0.0345
G1 X102.044 Y64.154 E0.0213
G1 X101.920 Y64.410 E0.0449
G1 X101.871 Y64.535 E0.0213
G1 X101.786 Y64.806 E0.0449
G1 X101.756 Y64.938 E0.0213
G1 X101.713 Y65.219 E0.0449
G1 X101.703 Y65.353 E0.0213
G1 X101.703 Y65.637 E0.0449
G1 X101.712 Y65.771 E0.0213
G1 X101.754 Y66.052 E0.0449
G1 X101.775 Y66.143 E0.0147
G1 X120.800 Y66.143 E3.0057
G1 X120.800 Y68.429 E0.3611
G1 X108.900 Y68.429 E1.8800
G1 X108.700 Y68.429 F360
G1 E-0.8000 F1800
G1 X114.200 Y29.571 F4800
G1 E0.8000 F1800
G1 X120.800 Y29.571 E1.0427 F360
G1 X120.800 Y31.857 E0.3611
