; G-Code generated by Simplify3D(R) Version 4.0.0
; Jan 17, 2018 at 10:41:57 AM
; Settings Summary
;   processName,Process1
;   applyToModels,distance_util
;   profileName,i3mk2s slow speed (modified)
;   profileVersion,2017-07-25 08:31:18
;   baseProfile,Prusa Research Original Prusa i3 MK2 (modified)
;   printMaterial,PLA
;   printQuality,Fast
;   printExtruders,
;   extruderName,Primary Extruder
;   extruderToolheadNumber,0
;   extruderDiameter,0.4
;   extruderAutoWidth,1
;   extruderWidth,0.48
;   extrusionMultiplier,1
;   extruderUseRetract,1
;   extruderRetractionDistance,4
;   extruderExtraRestartDistance,0
;   extruderRetractionZLift,0
;   extruderRetractionSpeed,1800
;   extruderUseCoasting,1
;   extruderCoastingDistance,0.2
;   extruderUseWipe,1
;   extruderWipeDistance,2
;   primaryExtruder,0
;   layerHeight,0.3
;   topSolidLayers,4
;   bottomSolidLayers,4
;   perimeterOutlines,4
;   printPerimetersInsideOut,1
;   startPointOption,1
;   startPointOriginX,0
;   startPointOriginY,0
;   sequentialIslands,0
;   spiralVaseMode,0
;   firstLayerHeightPercentage,110
;   firstLayerWidthPercentage,100
;   firstLayerUnderspeed,0.5
;   useRaft,1
;   raftExtruder,0
;   raftTopLayers,2
;   raftBaseLayers,1
;   raftOffset,3
;   raftSeparationDistance,0.25
;   raftTopInfill,40
;   aboveRaftSpeedMultiplier,0.9
;   useSkirt,1
;   skirtExtruder,0
;   skirtLayers,1
;   skirtOutlines,2
;   skirtOffset,4
;   usePrimePillar,0
;   primePillarExtruder,999
;   primePillarWidth,12
;   primePillarLocation,7
;   primePillarSpeedMultiplier,1
;   useOozeShield,0
;   oozeShieldExtruder,999
;   oozeShieldOffset,2
;   oozeShieldOutlines,1
;   oozeShieldSidewallShape,1
;   oozeShieldSidewallAngle,30
;   oozeShieldSpeedMultiplier,1
;   infillExtruder,0
;   internalInfillPattern,Fast Honeycomb
;   externalInfillPattern,Rectilinear
;   infillPercentage,10
;   outlineOverlapPercentage,20
;   infillExtrusionWidthPercentage,100
;   minInfillLength,5
;   infillLayerInterval,1
;   internalInfillAngles,0
;   overlapInternalInfillAngles,0
;   externalInfillAngles,45,-45
;   generateSupport,1
;   supportExtruder,0
;   supportInfillPercentage,20
;   supportExtraInflation,0
;   supportBaseLayers,0
;   denseSupportExtruder,0
;   denseSupportLayers,1
;   denseSupportInfillPercentage,15
;   supportLayerInterval,1
;   supportHorizontalPartOffset,0.3
;   supportUpperSeparationLayers,1
;   supportLowerSeparationLayers,1
;   supportType,0
;   supportGridSpacing,4
;   maxOverhangAngle,45
;   supportAngles,0
;   temperatureName,Primary Extruder,Heated Bed
;   temperatureNumber,0,0
;   temperatureSetpointCount,1,1
;   temperatureSetpointLayers,1,1
;   temperatureSetpointTemperatures,215,60
;   temperatureStabilizeAtStartup,1,1
;   temperatureHeatedBed,0,1
;   temperatureRelayBetweenLayers,0,0
;   temperatureRelayBetweenLoops,0,0
;   fanLayers,1,4,6
;   fanSpeeds,0,100,60
;   blipFanToFullPower,0
;   adjustSpeedForCooling,1
;   minSpeedLayerTime,15
;   minCoolingSpeedSlowdown,20
;   increaseFanForCooling,0
;   minFanLayerTime,45
;   maxCoolingFanSpeed,100
;   increaseFanForBridging,0
;   bridgingFanSpeed,100
;   use5D,1
;   relativeEdistances,0
;   allowEaxisZeroing,1
;   independentExtruderAxes,0
;   includeM10123,0
;   stickySupport,1
;   applyToolheadOffsets,0
;   gcodeXoffset,0
;   gcodeYoffset,0
;   gcodeZoffset,0
;   overrideMachineDefinition,1
;   machineTypeOverride,0
;   strokeXoverride,250
;   strokeYoverride,210
;   strokeZoverride,200
;   originOffsetXoverride,0
;   originOffsetYoverride,0
;   originOffsetZoverride,0
;   homeXdirOverride,-1
;   homeYdirOverride,-1
;   homeZdirOverride,-1
;   flipXoverride,1
;   flipYoverride,-1
;   flipZoverride,1
;   toolheadOffsets,0,0|0,0|0,0|0,0|0,0|0,0
;   overrideFirmwareConfiguration,1
;   firmwareTypeOverride,RepRap (Marlin/Repetier/Sprinter)
;   GPXconfigOverride,r2
;   baudRateOverride,250000
;   overridePrinterModels,1
;   printerModelsOverride
;   startingGcode,M115 U3.0.7 ; use the latest firmware version,G28 W ; home all axes without mesh bed leveling,G80 ; run mesh bed leveling routine,G1 Y-3.0 F1000.0 ; prepare to prime,G92 E0 ; reset extrusion distance,G1 X60.0 E9.0  F1000.0 ; priming,G1 X100.0 E12.5  F1000.0 ; priming
;   layerChangeGcode,
;   retractionGcode,
;   toolChangeGcode,
;   endingGcode,M106 S0 ; turn off cooling fan,M104 S0 ; turn off extruder,M140 S0 ; turn off bed,G1 X0 Y200 ; part removal,M84 ; disable motors
;   exportFileFormat,gcode
;   celebration,0
;   celebrationSong,Random Song
;   postProcessing,
;   defaultSpeed,2000
;   outlineUnderspeed,0.8
;   solidInfillUnderspeed,0.8
;   supportUnderspeed,0.8
;   rapidXYspeed,4400
;   rapidZspeed,8000
;   minBridgingArea,50
;   bridgingExtraInflation,0
;   bridgingExtrusionMultiplier,1
;   bridgingSpeedMultiplier,1
;   useFixedBridgingAngle,0
;   fixedBridgingAngle,0
;   applyBridgingToPerimeters,0
;   filamentDiameters,1.75|1.75|1.75|1.75|1.75|1.75
;   filamentPricesPerKg,46|46|46|46|46|46
;   filamentDensities,1.25|1.25|1.25|1.25|1.25|1.25
;   useMinPrintHeight,0
;   minPrintHeight,0
;   useMaxPrintHeight,0
;   maxPrintHeight,147
;   useDiaphragm,1
;   diaphragmLayerInterval,20
;   robustSlicing,1
;   mergeAllIntoSolid,0
;   onlyRetractWhenCrossingOutline,1
;   retractBetweenLayers,1
;   useRetractionMinTravel,0
;   retractionMinTravel,3
;   retractWhileWiping,1
;   onlyWipeOutlines,1
;   avoidCrossingOutline,0
;   maxMovementDetourFactor,3
;   toolChangeRetractionDistance,12
;   toolChangeExtraRestartDistance,-0.5
;   toolChangeRetractionSpeed,600
;   externalThinWallType,0
;   internalThinWallType,2
;   thinWallAllowedOverlapPercentage,25
;   singleExtrusionMinLength,1
;   singleExtrusionMinPrintingWidthPercentage,50
;   singleExtrusionMaxPrintingWidthPercentage,200
;   singleExtrusionEndpointExtension,0.2
;   horizontalSizeCompensation,0
G90
M82
M106 S0
M140 S60
M190 S60
M104 S215 T0
M109 S215 T0
M115 U3.0.7 ; use the latest firmware version
G28 W ; home all axes without mesh bed leveling
G80 ; run mesh bed leveling routine
G1 Y-3.0 F1000.0 ; prepare to prime
G92 E0 ; reset extrusion distance
G1 X60.0 E9.0  F1000.0 ; priming
G1 X100.0 E12.5  F1000.0 ; priming
G92 E0
G1 E-4.0000 F1800
G1 Z0.550 F8000
; process Process1
; layer 1, Z = 0.550
T0
; tool H0.550 W0.480
; skirt
G1 X41.693 Y86.071 F4400
G1 E0.0000 F540
G92 E0
G1 X41.957 Y85.961 E0.0314 F1000
G1 X53.511 Y85.961 E1.2996
G1 X53.650 Y85.989 E1.3151
G1 X56.354 Y87.109 E1.6364
G1 X56.472 Y87.187 E1.6519
G1 X61.542 Y92.257 E2.4388
G1 X61.620 Y92.375 E2.4544
G1 X62.740 Y95.079 E2.7756
G1 X62.768 Y95.218 E2.7912
G1 X62.768 Y101.291 E3.4578
G1 X107.458 Y101.291 E8.3629
G1 X107.458 Y95.218 E9.0295
G1 X107.486 Y95.079 E9.0450
G1 X108.606 Y92.375 E9.3663
G1 X108.685 Y92.257 E9.3818
G1 X113.754 Y87.187 E10.1687
G1 X113.872 Y87.109 E10.1843
G1 X116.576 Y85.989 E10.5055
G1 X116.715 Y85.961 E10.5211
G1 X128.043 Y85.961 E11.7644
G1 X128.307 Y86.071 E11.7958
G1 X132.610 Y90.374 E12.4637
G1 X132.720 Y90.638 E12.4952
G1 X132.720 Y119.362 E15.6478
G1 X132.610 Y119.626 E15.6792
G1 X128.307 Y123.929 E16.3472
G1 X128.043 Y124.039 E16.3786
G1 X41.957 Y124.039 E25.8272
G1 X41.693 Y123.929 E25.8587
G1 X37.390 Y119.626 E26.5266
G1 X37.280 Y119.362 E26.5580
G1 X37.280 Y90.638 E29.7107
G1 X37.390 Y90.374 E29.7421
G1 X41.551 Y86.212 E30.3881
G1 X41.693 Y86.071 F1000
G92 E0
G1 E-4.0000 F1800
G1 X41.965 Y86.478 F4400
G1 E0.0000 F1800
G92 E0
G1 X42.053 Y86.441 E0.0105 F1000
G1 X53.464 Y86.441 E1.2630
G1 X53.510 Y86.450 E1.2681
G1 X56.127 Y87.534 E1.5790
G1 X56.166 Y87.560 E1.5842
G1 X61.169 Y92.563 E2.3607
G1 X61.195 Y92.602 E2.3659
G1 X62.279 Y95.219 E2.6767
G1 X62.288 Y95.265 E2.6819
G1 X62.288 Y101.771 E3.3960
G1 X107.938 Y101.771 E8.4065
G1 X107.938 Y95.265 E9.1206
G1 X107.947 Y95.219 E9.1257
G1 X109.031 Y92.602 E9.4366
G1 X109.058 Y92.563 E9.4418
G1 X114.060 Y87.560 E10.2183
G1 X114.099 Y87.534 E10.2235
G1 X116.716 Y86.450 E10.5343
G1 X116.762 Y86.441 E10.5395
G1 X127.947 Y86.441 E11.7671
G1 X128.035 Y86.478 E11.7776
G1 X132.203 Y90.646 E12.4246
G1 X132.240 Y90.734 E12.4351
G1 X132.240 Y119.266 E15.5667
G1 X132.203 Y119.354 E15.5772
G1 X128.035 Y123.522 E16.2242
G1 X127.947 Y123.559 E16.2347
G1 X42.053 Y123.559 E25.6623
G1 X41.965 Y123.522 E25.6728
G1 X37.797 Y119.354 E26.3198
G1 X37.760 Y119.266 E26.3302
G1 X37.760 Y90.734 E29.4619
G1 X37.797 Y90.646 E29.4724
G1 X41.823 Y86.619 E30.0974
G1 X41.965 Y86.478 F1000
G92 E0
G1 E-4.0000 F1800
; tool H0.550 W0.800
; raft
G1 X43.923 Y91.081 F4400
G1 E0.0000 F1800
G92 E0
G1 X52.565 Y91.081 E1.5809 F250
G1 X53.521 Y91.477 E1.7701
G1 X57.252 Y95.208 E2.7354
G1 X57.648 Y96.164 E2.9246
G1 X57.648 Y104.934 E4.5290
G1 X59.125 Y106.411 E4.9111
G1 X111.101 Y106.411 E14.4191
G1 X112.578 Y104.934 E14.8012
G1 X112.578 Y96.164 E16.4055
G1 X112.974 Y95.208 E16.5948
G1 X116.705 Y91.477 E17.5601
G1 X117.661 Y91.081 E17.7493
G1 X126.077 Y91.081 E19.2888
G1 X127.600 Y92.604 E19.6828
G1 X127.600 Y117.396 E24.2180
G1 X126.077 Y118.919 E24.6120
G1 X43.923 Y118.919 E39.6405
G1 X42.400 Y117.396 E40.0345
G1 X42.400 Y92.604 E44.5697
G1 X43.782 Y91.222 E44.9272
G1 X43.923 Y91.081 F250
G92 E0
G1 E-4.0000 F1800
G1 X43.200 Y93.571 F4400
G1 E0.0000 F1800
G92 E0
G1 X54.484 Y93.571 E2.0642 F250
G1 X56.574 Y95.661 E2.6049
G1 X56.655 Y95.857 E2.6436
G1 X43.200 Y95.857 E5.1049
G1 X43.200 Y98.143 E5.5231
G1 X56.848 Y98.143 E8.0197
G1 X56.848 Y100.429 E8.4378
G1 X43.200 Y100.429 E10.9345
G1 X43.200 Y102.714 E11.3526
G1 X56.848 Y102.714 E13.8492
G1 X56.848 Y105.000 E14.2673
G1 X43.200 Y105.000 E16.7640
G1 X43.200 Y107.286 E17.1821
G1 X126.800 Y107.286 E32.4751
G1 X126.800 Y109.571 E32.8932
G1 X43.200 Y109.571 E48.1862
G1 X43.200 Y111.857 E48.6044
G1 X126.800 Y111.857 E63.8974
G1 X126.800 Y114.143 E64.3155
G1 X43.200 Y114.143 E79.6085
G1 X43.200 Y116.429 E80.0266
G1 X126.600 Y116.429 E95.2831
G1 X126.800 Y116.429 F250
G92 E0
G1 E-4.0000 F1800
G1 X113.378 Y105.000 F4400
G1 E0.0000 F1800
G92 E0
G1 X126.800 Y105.000 E2.4552 F250
G1 X126.800 Y102.714 E2.8734
G1 X113.378 Y102.714 E5.3286
G1 X113.378 Y100.429 E5.7468
G1 X126.800 Y100.429 E8.2020
G1 X126.800 Y98.143 E8.6201
G1 X113.378 Y98.143 E11.0754
G1 X113.378 Y96.323 E11.4083
G1 X113.571 Y95.857 E11.5005
G1 X126.800 Y95.857 E13.9205
G1 X126.800 Y93.571 E14.3386
G1 X115.942 Y93.571 E16.3248
G1 X115.742 Y93.571 F250
G92 E0
G1 E-4.0000 F1800
; layer 2, Z = 0.772
; tool H0.222 W0.400
G1 X126.035 Y90.881 F4400
G1 Z0.772 F8000
G1 E0.0000 F1800
G92 E0
G1 X127.800 Y92.646 E0.0922 F1500
G1 X127.800 Y94.060 E0.1445
G1 X124.621 Y90.881 E0.3106
G1 X123.207 Y90.881 E0.3629
G1 X127.800 Y95.474 E0.6029
G1 X127.800 Y96.888 E0.6552
G1 X121.793 Y90.881 E0.9692
G1 X120.379 Y90.881 E1.0214
G1 X127.800 Y98.303 E1.4093
G1 X127.800 Y99.717 E1.4616
G1 X118.964 Y90.881 E1.9233
G1 X117.621 Y90.881 E1.9730
G1 X117.571 Y90.902 E1.9750
G1 X127.800 Y101.131 E2.5096
G1 X127.800 Y102.545 E2.5619
G1 X116.577 Y91.322 E3.1484
G1 X115.870 Y92.029 E3.1853
G1 X127.800 Y103.959 E3.8088
G1 X127.800 Y105.374 E3.8611
G1 X115.163 Y92.737 E4.5216
G1 X114.456 Y93.444 E4.5585
G1 X127.800 Y106.788 E5.2559
G1 X127.800 Y108.202 E5.3082
G1 X113.749 Y94.151 E6.0426
G1 X113.042 Y94.858 E6.0795
G1 X127.800 Y109.616 E6.8508
G1 X127.800 Y111.030 E6.9031
G1 X112.529 Y95.760 E7.7012
G1 X112.378 Y96.124 E7.7158
G1 X112.378 Y97.023 E7.7490
G1 X127.800 Y112.445 E8.5550
G1 X127.800 Y113.859 E8.6072
G1 X112.378 Y98.437 E9.4132
G1 X112.378 Y99.851 E9.4655
G1 X127.800 Y115.273 E10.2715
G1 X127.800 Y116.687 E10.3238
G1 X112.378 Y101.266 E11.1297
G1 X112.378 Y102.680 E11.1820
G1 X127.489 Y117.790 E11.9717
G1 X126.782 Y118.497 E12.0087
G1 X112.378 Y104.094 E12.7614
G1 X112.378 Y104.851 E12.7894
G1 X112.050 Y105.180 E12.8066
G1 X125.989 Y119.119 E13.5351
G1 X124.575 Y119.119 E13.5874
G1 X111.343 Y105.887 E14.2789
G1 X111.018 Y106.211 E14.2959
G1 X110.253 Y106.211 E14.3242
G1 X123.161 Y119.119 E14.9988
G1 X121.746 Y119.119 E15.0511
G1 X108.838 Y106.211 E15.7257
G1 X107.424 Y106.211 E15.7779
G1 X120.332 Y119.119 E16.4526
G1 X118.918 Y119.119 E16.5048
G1 X106.010 Y106.211 E17.1794
G1 X104.596 Y106.211 E17.2317
G1 X117.504 Y119.119 E17.9063
G1 X116.090 Y119.119 E17.9586
G1 X103.181 Y106.211 E18.6332
G1 X101.767 Y106.211 E18.6855
G1 X114.675 Y119.119 E19.3601
G1 X113.261 Y119.119 E19.4123
G1 X100.353 Y106.211 E20.0870
G1 X98.939 Y106.211 E20.1392
G1 X111.847 Y119.119 E20.8138
G1 X110.433 Y119.119 E20.8661
G1 X97.525 Y106.211 E21.5407
G1 X96.110 Y106.211 E21.5930
G1 X109.018 Y119.119 E22.2676
G1 X107.604 Y119.119 E22.3199
G1 X94.696 Y106.211 E22.9945
G1 X93.282 Y106.211 E23.0468
G1 X106.190 Y119.119 E23.7214
G1 X104.776 Y119.119 E23.7736
G1 X91.868 Y106.211 E24.4483
G1 X90.454 Y106.211 E24.5005
G1 X103.362 Y119.119 E25.1751
G1 X101.947 Y119.119 E25.2274
G1 X89.039 Y106.211 E25.9020
G1 X87.625 Y106.211 E25.9543
G1 X100.533 Y119.119 E26.6289
G1 X99.119 Y119.119 E26.6812
G1 X86.211 Y106.211 E27.3558
G1 X84.797 Y106.211 E27.4081
G1 X97.705 Y119.119 E28.0827
G1 X96.291 Y119.119 E28.1349
G1 X83.382 Y106.211 E28.8096
G1 X81.968 Y106.211 E28.8618
G1 X94.876 Y119.119 E29.5364
G1 X93.462 Y119.119 E29.5887
G1 X80.554 Y106.211 E30.2633
G1 X79.140 Y106.211 E30.3156
G1 X92.048 Y119.119 E30.9902
G1 X90.634 Y119.119 E31.0425
G1 X77.726 Y106.211 E31.7171
G1 X76.311 Y106.211 E31.7693
G1 X89.219 Y119.119 E32.4440
G1 X87.805 Y119.119 E32.4962
G1 X74.897 Y106.211 E33.1708
G1 X73.483 Y106.211 E33.2231
G1 X86.391 Y119.119 E33.8977
G1 X84.977 Y119.119 E33.9500
G1 X72.069 Y106.211 E34.6246
G1 X70.655 Y106.211 E34.6769
G1 X83.563 Y119.119 E35.3515
G1 X82.148 Y119.119 E35.4038
G1 X69.240 Y106.211 E36.0784
G1 X67.826 Y106.211 E36.1306
G1 X80.734 Y119.119 E36.8053
G1 X79.320 Y119.119 E36.8575
G1 X66.412 Y106.211 E37.5321
G1 X64.998 Y106.211 E37.5844
G1 X77.906 Y119.119 E38.2590
G1 X76.492 Y119.119 E38.3113
G1 X63.583 Y106.211 E38.9859
G1 X62.169 Y106.211 E39.0382
G1 X75.077 Y119.119 E39.7128
G1 X73.663 Y119.119 E39.7650
G1 X60.755 Y106.211 E40.4397
G1 X59.341 Y106.211 E40.4919
G1 X72.249 Y119.119 E41.1665
G1 X70.835 Y119.119 E41.2188
G1 X43.218 Y91.503 E42.6621
G1 X43.840 Y90.881 E42.6946
G1 X44.011 Y90.881 E42.7009
G1 X57.848 Y104.718 E43.4241
G1 X57.848 Y103.304 E43.4764
G1 X45.425 Y90.881 E44.1256
G1 X46.839 Y90.881 E44.1779
G1 X57.848 Y101.890 E44.7532
G1 X57.848 Y100.475 E44.8055
G1 X48.254 Y90.881 E45.3069
G1 X49.668 Y90.881 E45.3592
G1 X57.848 Y99.061 E45.7867
G1 X57.848 Y97.647 E45.8390
G1 X51.082 Y90.881 E46.1926
G1 X52.496 Y90.881 E46.2448
G1 X57.707 Y96.091 E46.5171
G1 X57.848 Y96.233 F1500
G92 E0
G1 E-4.0000 F1800
G1 X42.511 Y92.210 F4400
G1 E0.0000 F1800
G92 E0
G1 X69.420 Y119.119 E1.4064 F1500
G1 X68.006 Y119.119 E1.4586
G1 X42.200 Y93.313 E2.8073
G1 X42.200 Y94.727 E2.8596
G1 X66.592 Y119.119 E4.1344
G1 X65.178 Y119.119 E4.1867
G1 X42.200 Y96.141 E5.3876
G1 X42.200 Y97.555 E5.4398
G1 X63.764 Y119.119 E6.5668
G1 X62.349 Y119.119 E6.6191
G1 X42.200 Y98.970 E7.6722
G1 X42.200 Y100.384 E7.7244
G1 X60.935 Y119.119 E8.7036
G1 X59.521 Y119.119 E8.7558
G1 X42.200 Y101.798 E9.6611
G1 X42.200 Y103.212 E9.7134
G1 X58.107 Y119.119 E10.5447
G1 X56.693 Y119.119 E10.5970
G1 X42.200 Y104.626 E11.3544
G1 X42.200 Y106.041 E11.4067
G1 X55.278 Y119.119 E12.0902
G1 X53.864 Y119.119 E12.1424
G1 X42.200 Y107.455 E12.7520
G1 X42.200 Y108.869 E12.8043
G1 X52.450 Y119.119 E13.3400
G1 X51.036 Y119.119 E13.3923
G1 X42.200 Y110.283 E13.8540
G1 X42.200 Y111.697 E13.9063
G1 X49.621 Y119.119 E14.2942
G1 X48.207 Y119.119 E14.3464
G1 X42.200 Y113.112 E14.6604
G1 X42.200 Y114.526 E14.7127
G1 X46.793 Y119.119 E14.9527
G1 X45.379 Y119.119 E15.0050
G1 X42.200 Y115.940 E15.1711
G1 X42.200 Y117.354 E15.2234
G1 X43.823 Y118.978 E15.3082
G1 X43.965 Y119.119 F1500
G92 E0
G1 E-4.0000 F1800
; layer 3, Z = 0.994
G1 X42.200 Y92.646 F4400
G1 Z0.994 F8000
G1 E0.0000 F1800
G92 E0
G1 X43.965 Y90.881 E0.0922 F1500
G1 X45.379 Y90.881 E0.1445
G1 X42.200 Y94.060 E0.3106
G1 X42.200 Y95.474 E0.3629
G1 X46.793 Y90.881 E0.6029
G1 X48.207 Y90.881 E0.6552
G1 X42.200 Y96.888 E0.9692
G1 X42.200 Y98.303 E1.0214
G1 X49.622 Y90.881 E1.4093
G1 X51.036 Y90.881 E1.4616
