; G-Code generated by Simplify3D(R) Version 4.0.0
; Jan 16, 2018 at 9:25:45 PM
; Settings Summary
;   processName,Process1
;   applyToModels,distance_util
;   profileName,i3mk2s slow speed (modified)
;   profileVersion,2017-07-25 08:31:18
;   baseProfile,Prusa Research Original Prusa i3 MK2 (modified)
;   printMaterial,PLA
;   printQuality,Fast
;   printExtruders,
;   extruderName,Primary Extruder
;   extruderToolheadNumber,0
;   extruderDiameter,0.4
;   extruderAutoWidth,1
;   extruderWidth,0.48
;   extrusionMultiplier,1
;   extruderUseRetract,1
;   extruderRetractionDistance,4
;   extruderExtraRestartDistance,0
;   extruderRetractionZLift,0
;   extruderRetractionSpeed,1800
;   extruderUseCoasting,1
;   extruderCoastingDistance,0.2
;   extruderUseWipe,1
;   extruderWipeDistance,2
;   primaryExtruder,0
;   layerHeight,0.3
;   topSolidLayers,4
;   bottomSolidLayers,4
;   perimeterOutlines,4
;   printPerimetersInsideOut,1
;   startPointOption,1
;   startPointOriginX,0
;   startPointOriginY,0
;   sequentialIslands,0
;   spiralVaseMode,0
;   firstLayerHeightPercentage,110
;   firstLayerWidthPercentage,100
;   firstLayerUnderspeed,0.5
;   useRaft,1
;   raftExtruder,0
;   raftTopLayers,2
;   raftBaseLayers,1
;   raftOffset,3
;   raftSeparationDistance,0.25
;   raftTopInfill,40
;   aboveRaftSpeedMultiplier,0.9
;   useSkirt,1
;   skirtExtruder,0
;   skirtLayers,1
;   skirtOutlines,2
;   skirtOffset,4
;   usePrimePillar,0
;   primePillarExtruder,999
;   primePillarWidth,12
;   primePillarLocation,7
;   primePillarSpeedMultiplier,1
;   useOozeShield,0
;   oozeShieldExtruder,999
;   oozeShieldOffset,2
;   oozeShieldOutlines,1
;   oozeShieldSidewallShape,1
;   oozeShieldSidewallAngle,30
;   oozeShieldSpeedMultiplier,1
;   infillExtruder,0
;   internalInfillPattern,Fast Honeycomb
;   externalInfillPattern,Rectilinear
;   infillPercentage,10
;   outlineOverlapPercentage,20
;   infillExtrusionWidthPercentage,100
;   minInfillLength,5
;   infillLayerInterval,1
;   internalInfillAngles,0
;   overlapInternalInfillAngles,0
;   externalInfillAngles,45,-45
;   generateSupport,1
;   supportExtruder,0
;   supportInfillPercentage,20
;   supportExtraInflation,0
;   supportBaseLayers,0
;   denseSupportExtruder,0
;   denseSupportLayers,1
;   denseSupportInfillPercentage,15
;   supportLayerInterval,1
;   supportHorizontalPartOffset,0.3
;   supportUpperSeparationLayers,1
;   supportLowerSeparationLayers,1
;   supportType,0
;   supportGridSpacing,4
;   maxOverhangAngle,45
;   supportAngles,0
;   temperatureName,Primary Extruder,Heated Bed
;   temperatureNumber,0,0
;   temperatureSetpointCount,1,1
;   temperatureSetpointLayers,1,1
;   temperatureSetpointTemperatures,210,60
;   temperatureStabilizeAtStartup,1,1
;   temperatureHeatedBed,0,1
;   temperatureRelayBetweenLayers,0,0
;   temperatureRelayBetweenLoops,0,0
;   fanLayers,1,4
;   fanSpeeds,0,100
;   blipFanToFullPower,0
;   adjustSpeedForCooling,1
;   minSpeedLayerTime,15
;   minCoolingSpeedSlowdown,20
;   increaseFanForCooling,0
;   minFanLayerTime,45
;   maxCoolingFanSpeed,100
;   increaseFanForBridging,0
;   bridgingFanSpeed,100
;   use5D,1
;   relativeEdistances,0
;   allowEaxisZeroing,1
;   independentExtruderAxes,0
;   includeM10123,0
;   stickySupport,1
;   applyToolheadOffsets,0
;   gcodeXoffset,0
;   gcodeYoffset,0
;   gcodeZoffset,0
;   overrideMachineDefinition,1
;   machineTypeOverride,0
;   strokeXoverride,250
;   strokeYoverride,210
;   strokeZoverride,200
;   originOffsetXoverride,0
;   originOffsetYoverride,0
;   originOffsetZoverride,0
;   homeXdirOverride,-1
;   homeYdirOverride,-1
;   homeZdirOverride,-1
;   flipXoverride,1
;   flipYoverride,-1
;   flipZoverride,1
;   toolheadOffsets,0,0|0,0|0,0|0,0|0,0|0,0
;   overrideFirmwareConfiguration,1
;   firmwareTypeOverride,RepRap (Marlin/Repetier/Sprinter)
;   GPXconfigOverride,r2
;   baudRateOverride,250000
;   overridePrinterModels,1
;   printerModelsOverride
;   startingGcode,M115 U3.0.7 ; use the latest firmware version,G28 W ; home all axes without mesh bed leveling,G80 ; run mesh bed leveling routine,G1 Y-3.0 F1000.0 ; prepare to prime,G92 E0 ; reset extrusion distance,G1 X60.0 E9.0  F1000.0 ; priming,G1 X100.0 E12.5  F1000.0 ; priming
;   layerChangeGcode,
;   retractionGcode,
;   toolChangeGcode,
;   endingGcode,M106 S0 ; turn off cooling fan,M104 S0 ; turn off extruder,M140 S0 ; turn off bed,G1 X0 Y200 ; part removal,M84 ; disable motors
;   exportFileFormat,gcode
;   celebration,0
;   celebrationSong,Random Song
;   postProcessing,
;   defaultSpeed,2000
;   outlineUnderspeed,0.8
;   solidInfillUnderspeed,0.8
;   supportUnderspeed,0.8
;   rapidXYspeed,4400
;   rapidZspeed,8000
;   minBridgingArea,50
;   bridgingExtraInflation,0
;   bridgingExtrusionMultiplier,1
;   bridgingSpeedMultiplier,1
;   useFixedBridgingAngle,0
;   fixedBridgingAngle,0
;   applyBridgingToPerimeters,0
;   filamentDiameters,1.75|1.75|1.75|1.75|1.75|1.75
;   filamentPricesPerKg,46|46|46|46|46|46
;   filamentDensities,1.25|1.25|1.25|1.25|1.25|1.25
;   useMinPrintHeight,0
;   minPrintHeight,0
;   useMaxPrintHeight,0
;   maxPrintHeight,147
;   useDiaphragm,1
;   diaphragmLayerInterval,20
;   robustSlicing,1
;   mergeAllIntoSolid,0
;   onlyRetractWhenCrossingOutline,1
;   retractBetweenLayers,1
;   useRetractionMinTravel,0
;   retractionMinTravel,3
;   retractWhileWiping,1
;   onlyWipeOutlines,1
;   avoidCrossingOutline,0
;   maxMovementDetourFactor,3
;   toolChangeRetractionDistance,12
;   toolChangeExtraRestartDistance,-0.5
;   toolChangeRetractionSpeed,600
;   externalThinWallType,0
;   internalThinWallType,2
;   thinWallAllowedOverlapPercentage,25
;   singleExtrusionMinLength,1
;   singleExtrusionMinPrintingWidthPercentage,50
;   singleExtrusionMaxPrintingWidthPercentage,200
;   singleExtrusionEndpointExtension,0.2
;   horizontalSizeCompensation,0
G90
M82
M106 S0
M140 S60
M190 S60
M104 S210 T0
M109 S210 T0
M115 U3.0.7 ; use the latest firmware version
G28 W ; home all axes without mesh bed leveling
G80 ; run mesh bed leveling routine
G1 Y-3.0 F1000.0 ; prepare to prime
G92 E0 ; reset extrusion distance
G1 X60.0 E9.0  F1000.0 ; priming
G1 X100.0 E12.5  F1000.0 ; priming
G92 E0
G1 E-4.0000 F1800
G1 Z0.550 F8000
; process Process1
; layer 1, Z = 0.550
T0
; tool H0.550 W0.480
; skirt
G1 X41.693 Y83.097 F4400
G1 E0.0000 F540
G92 E0
G1 X41.957 Y82.988 E0.0314 F1000
G1 X53.511 Y82.988 E1.2996
G1 X53.650 Y83.016 E1.3151
G1 X56.354 Y84.136 E1.6364
G1 X56.472 Y84.214 E1.6519
G1 X61.542 Y89.284 E2.4388
G1 X61.620 Y89.402 E2.4544
G1 X62.740 Y92.105 E2.7756
G1 X62.768 Y92.245 E2.7912
G1 X62.768 Y98.318 E3.4578
G1 X107.458 Y98.318 E8.3629
G1 X107.458 Y92.245 E9.0295
G1 X107.486 Y92.105 E9.0450
G1 X108.606 Y89.402 E9.3663
G1 X108.685 Y89.284 E9.3818
G1 X113.754 Y84.214 E10.1687
G1 X113.872 Y84.136 E10.1843
G1 X116.576 Y83.016 E10.5055
G1 X116.715 Y82.988 E10.5211
G1 X128.043 Y82.988 E11.7644
G1 X128.307 Y83.097 E11.7958
G1 X132.610 Y87.401 E12.4637
G1 X132.720 Y87.665 E12.4952
G1 X132.720 Y122.252 E16.2913
G1 X132.610 Y122.516 E16.3228
G1 X128.307 Y126.819 E16.9907
G1 X128.043 Y126.929 E17.0221
G1 X41.957 Y126.929 E26.4707
G1 X41.693 Y126.819 E26.5022
G1 X37.390 Y122.516 E27.1701
G1 X37.280 Y122.252 E27.2015
G1 X37.280 Y87.665 E30.9977
G1 X37.390 Y87.401 E31.0291
G1 X41.551 Y83.239 E31.6751
G1 X41.693 Y83.097 F1000
G92 E0
G1 E-4.0000 F1800
G1 X41.965 Y83.504 F4400
G1 E0.0000 F1800
G92 E0
G1 X42.053 Y83.468 E0.0105 F1000
G1 X53.464 Y83.468 E1.2630
G1 X53.510 Y83.477 E1.2681
G1 X56.127 Y84.561 E1.5790
G1 X56.166 Y84.587 E1.5842
G1 X61.169 Y89.590 E2.3607
G1 X61.195 Y89.629 E2.3659
G1 X62.279 Y92.245 E2.6767
G1 X62.288 Y92.292 E2.6819
G1 X62.288 Y98.798 E3.3960
G1 X107.938 Y98.798 E8.4065
G1 X107.938 Y92.292 E9.1206
G1 X107.947 Y92.245 E9.1257
G1 X109.031 Y89.629 E9.4366
G1 X109.058 Y89.590 E9.4418
G1 X114.060 Y84.587 E10.2183
G1 X114.099 Y84.561 E10.2235
G1 X116.716 Y83.477 E10.5343
G1 X116.762 Y83.468 E10.5395
G1 X127.947 Y83.468 E11.7671
G1 X128.035 Y83.504 E11.7776
G1 X132.203 Y87.672 E12.4246
G1 X132.240 Y87.761 E12.4351
G1 X132.240 Y122.156 E16.2103
G1 X132.203 Y122.244 E16.2208
G1 X128.035 Y126.412 E16.8677
G1 X127.947 Y126.449 E16.8782
G1 X42.053 Y126.449 E26.3058
G1 X41.965 Y126.412 E26.3163
G1 X37.797 Y122.244 E26.9633
G1 X37.760 Y122.156 E26.9738
G1 X37.760 Y87.761 E30.7490
G1 X37.797 Y87.672 E30.7594
G1 X41.823 Y83.646 E31.3845
G1 X41.965 Y83.504 F1000
G92 E0
G1 E-4.0000 F1800
; tool H0.550 W0.800
; raft
G1 X43.923 Y88.108 F4400
G1 E0.0000 F1800
G92 E0
G1 X52.565 Y88.108 E1.5809 F250
G1 X53.521 Y88.504 E1.7701
G1 X57.252 Y92.235 E2.7354
G1 X57.648 Y93.191 E2.9246
G1 X57.648 Y101.961 E4.5290
G1 X59.125 Y103.438 E4.9111
G1 X111.101 Y103.438 E14.4191
G1 X112.578 Y101.961 E14.8012
G1 X112.578 Y93.191 E16.4055
G1 X112.974 Y92.235 E16.5948
G1 X116.705 Y88.504 E17.5601
G1 X117.661 Y88.108 E17.7493
G1 X126.077 Y88.108 E19.2888
G1 X127.600 Y89.631 E19.6828
G1 X127.600 Y120.286 E25.2906
G1 X126.077 Y121.809 E25.6846
G1 X43.923 Y121.809 E40.7131
G1 X42.400 Y120.286 E41.1071
G1 X42.400 Y89.631 E46.7148
G1 X43.782 Y88.249 E47.0722
G1 X43.923 Y88.108 F250
G92 E0
G1 E-4.0000 F1800
G1 X44.162 Y89.000 F4400
G1 E0.0000 F1800
G92 E0
G1 X52.628 Y89.000 E1.5487 F250
G1 X53.068 Y89.182 E1.6357
G1 X55.171 Y91.286 E2.1799
G1 X43.200 Y91.286 E4.3699
G1 X43.200 Y93.571 E4.7880
G1 X56.848 Y93.571 E7.2846
G1 X56.848 Y95.857 E7.7027
G1 X43.200 Y95.857 E10.1994
G1 X43.200 Y98.143 E10.6175
G1 X56.848 Y98.143 E13.1141
G1 X56.848 Y100.429 E13.5323
G1 X43.200 Y100.429 E16.0289
G1 X43.200 Y102.714 E16.4470
G1 X57.270 Y102.714 E19.0209
G1 X58.794 Y104.238 E19.4150
G1 X111.433 Y104.238 E29.0443
G1 X112.956 Y102.714 E29.4384
G1 X126.800 Y102.714 E31.9709
G1 X126.800 Y105.000 E32.3890
G1 X43.200 Y105.000 E47.6820
G1 X43.200 Y107.286 E48.1002
G1 X126.800 Y107.286 E63.3932
G1 X126.800 Y109.571 E63.8113
G1 X43.200 Y109.571 E79.1043
G1 X43.200 Y111.857 E79.5224
G1 X126.800 Y111.857 E94.8154
G1 X126.800 Y114.143 E95.2336
G1 X43.200 Y114.143 E110.5266
G1 X43.200 Y116.429 E110.9447
G1 X126.800 Y116.429 E126.2377
G1 X126.800 Y118.714 E126.6558
G1 X43.200 Y118.714 E141.9488
G1 X43.200 Y119.954 E142.1757
G1 X44.246 Y121.000 E142.4462
G1 X125.554 Y121.000 E157.3201
G1 X125.754 Y121.000 F250
G92 E0
G1 E-4.0000 F1800
G1 X113.378 Y100.429 F4400
G1 E0.0000 F1800
G92 E0
G1 X126.800 Y100.429 E2.4552 F250
G1 X126.800 Y98.143 E2.8734
G1 X113.378 Y98.143 E5.3286
G1 X113.378 Y95.857 E5.7468
G1 X126.800 Y95.857 E8.2020
G1 X126.800 Y93.571 E8.6201
G1 X113.378 Y93.571 E11.0754
G1 X113.378 Y93.350 E11.1159
G1 X113.652 Y92.688 E11.2469
G1 X115.055 Y91.286 E11.6097
G1 X126.800 Y91.286 E13.7583
G1 X126.800 Y89.962 E14.0004
G1 X125.838 Y89.000 E14.2493
G1 X117.798 Y89.000 E15.7201
G1 X117.598 Y89.000 F250
G92 E0
G1 E-4.0000 F1800
; layer 2, Z = 0.772
; tool H0.222 W0.400
G1 X125.891 Y87.908 F4400
G1 Z0.772 F8000
G1 E0.0000 F1800
G92 E0
G1 X127.800 Y89.817 E0.0998 F1500
G1 X127.800 Y91.231 E0.1521
G1 X124.476 Y87.908 E0.3258
G1 X123.062 Y87.908 E0.3780
G1 X127.800 Y92.646 E0.6256
G1 X127.800 Y94.060 E0.6779
G1 X121.648 Y87.908 E0.9994
G1 X120.234 Y87.908 E1.0517
G1 X127.800 Y95.474 E1.4471
G1 X127.800 Y96.888 E1.4994
G1 X118.820 Y87.908 E1.9687
G1 X117.621 Y87.908 E2.0130
G1 X117.469 Y87.971 E2.0191
G1 X127.800 Y98.303 E2.5591
G1 X127.800 Y99.717 E2.6113
G1 X116.505 Y88.422 E3.2017
G1 X115.798 Y89.129 E3.2386
G1 X127.800 Y101.131 E3.8659
G1 X127.800 Y102.545 E3.9181
G1 X115.091 Y89.836 E4.5824
G1 X114.383 Y90.543 E4.6193
G1 X127.800 Y103.959 E5.3205
G1 X127.800 Y105.374 E5.3728
G1 X113.676 Y91.250 E6.1109
G1 X112.969 Y91.957 E6.1479
G1 X127.800 Y106.788 E6.9230
G1 X127.800 Y108.202 E6.9753
G1 X112.487 Y92.889 E7.7756
G1 X112.378 Y93.151 E7.7861
G1 X112.378 Y94.194 E7.8246
G1 X127.800 Y109.616 E8.6306
G1 X127.800 Y111.030 E8.6829
G1 X112.378 Y95.609 E9.4889
G1 X112.378 Y97.023 E9.5411
G1 X127.800 Y112.445 E10.3471
G1 X127.800 Y113.859 E10.3994
G1 X112.378 Y98.437 E11.2054
G1 X112.378 Y99.851 E11.2576
G1 X127.800 Y115.273 E12.0636
G1 X127.800 Y116.687 E12.1159
G1 X112.378 Y101.266 E12.9219
G1 X112.378 Y101.878 E12.9445
G1 X111.977 Y102.279 E12.9655
G1 X127.800 Y118.102 E13.7924
G1 X127.800 Y119.516 E13.8447
G1 X111.270 Y102.986 E14.7086
G1 X111.018 Y103.238 E14.7217
G1 X110.108 Y103.238 E14.7554
G1 X127.519 Y120.649 E15.6654
G1 X126.812 Y121.356 E15.7023
G1 X108.694 Y103.238 E16.6493
G1 X107.279 Y103.238 E16.7015
G1 X126.051 Y122.009 E17.6826
G1 X124.636 Y122.009 E17.7348
G1 X105.865 Y103.238 E18.7159
G1 X104.451 Y103.238 E18.7682
G1 X123.222 Y122.009 E19.7492
G1 X121.808 Y122.009 E19.8015
G1 X103.037 Y103.238 E20.7825
G1 X101.623 Y103.238 E20.8348
G1 X120.394 Y122.009 E21.8158
G1 X118.979 Y122.009 E21.8681
G1 X100.208 Y103.238 E22.8491
G1 X98.794 Y103.238 E22.9014
G1 X117.565 Y122.009 E23.8824
G1 X116.151 Y122.009 E23.9347
G1 X97.380 Y103.238 E24.9157
G1 X95.966 Y103.238 E24.9680
G1 X114.737 Y122.009 E25.9490
G1 X113.323 Y122.009 E26.0013
G1 X94.551 Y103.238 E26.9823
G1 X93.137 Y103.238 E27.0346
G1 X111.908 Y122.009 E28.0157
G1 X110.494 Y122.009 E28.0679
G1 X91.723 Y103.238 E29.0490
G1 X90.309 Y103.238 E29.1012
G1 X109.080 Y122.009 E30.0823
G1 X107.666 Y122.009 E30.1345
G1 X88.895 Y103.238 E31.1156
G1 X87.480 Y103.238 E31.1678
G1 X106.252 Y122.009 E32.1489
G1 X104.837 Y122.009 E32.2011
G1 X86.066 Y103.238 E33.1822
G1 X84.652 Y103.238 E33.2345
G1 X103.423 Y122.009 E34.2155
G1 X102.009 Y122.009 E34.2678
G1 X83.238 Y103.238 E35.2488
G1 X81.824 Y103.238 E35.3011
G1 X100.595 Y122.009 E36.2821
G1 X99.181 Y122.009 E36.3344
G1 X80.409 Y103.238 E37.3154
G1 X78.995 Y103.238 E37.3677
G1 X97.766 Y122.009 E38.3487
G1 X96.352 Y122.009 E38.4010
G1 X77.581 Y103.238 E39.3820
G1 X76.167 Y103.238 E39.4343
G1 X94.938 Y122.009 E40.4153
G1 X93.524 Y122.009 E40.4676
G1 X74.752 Y103.238 E41.4487
G1 X73.338 Y103.238 E41.5009
G1 X92.109 Y122.009 E42.4820
G1 X90.695 Y122.009 E42.5342
G1 X71.924 Y103.238 E43.5153
G1 X70.510 Y103.238 E43.5675
G1 X89.281 Y122.009 E44.5486
G1 X87.867 Y122.009 E44.6008
G1 X69.096 Y103.238 E45.5819
G1 X67.681 Y103.238 E45.6341
G1 X86.453 Y122.009 E46.6152
G1 X85.038 Y122.009 E46.6675
G1 X66.267 Y103.238 E47.6485
G1 X64.853 Y103.238 E47.7008
G1 X83.624 Y122.009 E48.6818
G1 X82.210 Y122.009 E48.7341
G1 X63.439 Y103.238 E49.7151
G1 X62.025 Y103.238 E49.7674
G1 X80.796 Y122.009 E50.7484
G1 X79.382 Y122.009 E50.8007
G1 X60.610 Y103.238 E51.7817
G1 X59.208 Y103.238 E51.8336
G1 X57.848 Y101.878 E51.9046
G1 X57.848 Y100.475 E51.9565
G1 X45.280 Y87.908 E52.6133
G1 X46.695 Y87.908 E52.6655
G1 X57.848 Y99.061 E53.2484
G1 X57.848 Y97.647 E53.3007
G1 X48.109 Y87.908 E53.8097
G1 X49.523 Y87.908 E53.8620
G1 X57.848 Y96.233 E54.2970
G1 X57.848 Y94.818 E54.3493
G1 X50.937 Y87.908 E54.7105
G1 X52.352 Y87.908 E54.7627
G1 X57.707 Y93.263 E55.0426
G1 X57.848 Y93.404 F1500
G92 E0
G1 E-4.0000 F1800
G1 X43.866 Y87.908 F4400
G1 E0.0000 F1800
G92 E0
G1 X77.967 Y122.009 E1.7822 F1500
G1 X76.553 Y122.009 E1.8345
G1 X43.146 Y88.602 E3.5805
G1 X42.439 Y89.309 E3.6174
G1 X75.139 Y122.009 E5.3264
G1 X73.725 Y122.009 E5.3787
G1 X42.200 Y90.484 E7.0263
G1 X42.200 Y91.898 E7.0785
G1 X72.310 Y122.009 E8.6522
G1 X70.896 Y122.009 E8.7044
G1 X42.200 Y93.313 E10.2042
G1 X42.200 Y94.727 E10.2565
G1 X69.482 Y122.009 E11.6823
G1 X68.068 Y122.009 E11.7346
G1 X42.200 Y96.141 E13.0865
G1 X42.200 Y97.555 E13.1388
G1 X66.654 Y122.009 E14.4168
G1 X65.239 Y122.009 E14.4691
G1 X42.200 Y98.970 E15.6732
G1 X42.200 Y100.384 E15.7254
G1 X63.825 Y122.009 E16.8556
G1 X62.411 Y122.009 E16.9079
G1 X42.200 Y101.798 E17.9642
G1 X42.200 Y103.212 E18.0165
G1 X60.997 Y122.009 E18.9988
G1 X59.583 Y122.009 E19.0511
G1 X42.200 Y104.626 E19.9596
G1 X42.200 Y106.041 E20.0118
G1 X58.168 Y122.009 E20.8464
G1 X56.754 Y122.009 E20.8987
G1 X42.200 Y107.455 E21.6593
G1 X42.200 Y108.869 E21.7116
G1 X55.340 Y122.009 E22.3983
G1 X53.926 Y122.009 E22.4506
G1 X42.200 Y110.283 E23.0634
G1 X42.200 Y111.697 E23.1156
G1 X52.511 Y122.009 E23.6546
G1 X51.097 Y122.009 E23.7068
G1 X42.200 Y113.112 E24.1718
G1 X42.200 Y114.526 E24.2241
G1 X49.683 Y122.009 E24.6152
